; generated by Slic3r 1.2.9 on 2016-08-04 at 11:05:17

; external perimeters extrusion width = 0.42mm
; perimeters extrusion width = 0.53mm
; infill extrusion width = 0.53mm
; solid infill extrusion width = 0.53mm
; top infill extrusion width = 0.53mm
; support material extrusion width = 0.42mm

M104 S245 ; set temperature
M220 S100 ; reset speeds
M116 ; wait for all temperatures
G0 Z10 ; drive Z to 10mm height
G28 X0 Y0 ; home X and Y
G0 Z0 X30 Y30 F13000
M109 S245 ; wait for temperature to be reached
G21 ; set units to millimeters
G90 ; use absolute coordinates
M82 ; use absolute distances for extrusion
G92 E0
G1 E-1.00000 F2400.00000
G92 E0
G1 Z0.300 F8100.000
G1 X35.348 Y35.919 F8100.000
G1 E1.00000 F2400.00000
G1 X36.928 Y34.898 E1.05224 F2310.000
G1 X38.510 Y34.609 E1.09691
G1 X124.806 Y34.609 E3.49402
G1 X127.366 Y35.415 E3.56857
G1 X153.553 Y53.704 E4.45583 F2310.000
G1 X154.833 Y55.081 E4.50807
G1 X155.464 Y57.370 E4.57401
G1 X155.464 Y131.418 E6.63090
G1 X155.068 Y133.256 E6.68314
G1 X154.154 Y134.579 E6.72781
G1 X144.652 Y144.081 E7.10109
G1 X143.072 Y145.102 E7.15333
G1 X141.490 Y145.391 E7.19800
G1 X55.194 Y145.391 E9.59510
G1 X52.854 Y144.729 E9.66267
G1 X26.667 Y128.640 E10.51641
G1 X25.307 Y127.340 E10.56865
G1 X24.536 Y124.830 E10.64159
G1 X24.536 Y48.582 E12.75959
G1 X24.932 Y46.744 E12.81183
G1 X25.846 Y45.421 E12.85650
G1 X35.304 Y35.963 E13.22803
G1 X35.515 Y36.085 F8100.000
G1 X37.058 Y35.101 E13.27886 F2310.000
G1 X38.510 Y34.845 E13.31982
G1 X124.806 Y34.845 E15.71693
G1 X127.231 Y35.608 E15.78755
G1 X153.418 Y53.897 E16.67482 F2310.000
G1 X154.656 Y55.244 E16.72565
G1 X155.228 Y57.370 E16.78679
G1 X155.228 Y131.418 E18.84367
G1 X154.833 Y133.204 E18.89450
G1 X153.987 Y134.413 E18.93547
G1 X144.485 Y143.915 E19.30874
G1 X142.942 Y144.899 E19.35957
G1 X141.490 Y145.155 E19.40054
G1 X55.194 Y145.155 E21.79764
G1 X52.977 Y144.529 E21.86165
G1 X26.790 Y128.439 E22.71539
G1 X25.475 Y127.167 E22.76622
G1 X24.772 Y124.830 E22.83400
G1 X24.772 Y48.582 E24.95200
G1 X25.167 Y46.796 E25.00283
G1 X26.013 Y45.587 E25.04379
G1 X35.470 Y36.130 E25.41532
G1 E24.41532 F2400.00000
G92 E0
G1 X43.035 Y52.969 F8100.000
G1 E1.00000 F2400.00000
G1 X42.897 Y53.107 E1.00542 F2310.000
G1 X42.897 Y125.074 E3.00450
G1 X42.552 Y125.419 E3.01806
G1 X28.764 Y125.419 E3.40106
G1 X28.419 Y125.074 E3.41461
G1 X28.419 Y48.465 E5.54264
G1 X28.508 Y48.249 E5.54915
G1 X38.176 Y38.581 E5.92894
G1 X38.393 Y38.491 E5.93545
G1 X124.923 Y38.491 E8.33906
G1 X125.139 Y38.581 E8.34557
G1 X134.807 Y48.249 E8.72536
G1 X134.897 Y48.465 E8.73187
G1 X134.897 Y125.074 E10.85990
G1 X134.552 Y125.419 E10.87345
G1 X120.764 Y125.419 E11.25645
G1 X120.419 Y125.074 E11.27001
G1 X120.419 Y53.107 E13.26909
G1 X120.281 Y52.969 E13.27451
G1 X43.098 Y52.969 E15.41848
G1 X42.799 Y52.734 F8100.000
G1 X42.661 Y52.872 E15.42390 F2310.000
G1 X42.661 Y124.977 E17.42682
G1 X42.454 Y125.184 E17.43495
G1 X28.861 Y125.184 E17.81253
G1 X28.654 Y124.977 E17.82066
G1 X28.654 Y48.512 E19.94468
G1 X28.708 Y48.382 E19.94859
G1 X38.310 Y38.781 E20.32577
G1 X38.439 Y38.727 E20.32967
G1 X124.876 Y38.727 E22.73069
G1 X125.006 Y38.781 E22.73459
G1 X134.607 Y48.382 E23.11177
G1 X134.661 Y48.512 E23.11568
G1 X134.661 Y124.977 E25.23970
G1 X134.454 Y125.184 E25.24783
G1 X120.861 Y125.184 E25.62541
G1 X120.654 Y124.977 E25.63354
G1 X120.654 Y52.872 E27.63646
G1 X120.516 Y52.734 E27.64188
G1 X42.862 Y52.734 E29.79894
G1 X42.563 Y52.498 F8100.000
G1 X42.425 Y52.636 E29.80436 F2310.000
G1 X42.425 Y124.879 E31.81111
G1 X42.356 Y124.948 E31.81382
G1 X28.959 Y124.948 E32.18597
G1 X28.890 Y124.879 E32.18869
G1 X28.890 Y48.559 E34.30869
G1 X28.908 Y48.516 E34.30999
G1 X38.443 Y38.980 E34.68457
G1 X38.486 Y38.962 E34.68587
G1 X124.829 Y38.962 E37.08428
G1 X124.872 Y38.980 E37.08558
G1 X134.408 Y48.516 E37.46016
G1 X134.425 Y48.559 E37.46146
G1 X134.425 Y124.879 E39.58147
G1 X134.356 Y124.948 E39.58418
G1 X120.959 Y124.948 E39.95633
G1 X120.890 Y124.879 E39.95905
G1 X120.890 Y52.636 E41.96579
G1 X120.752 Y52.498 E41.97122
G1 X42.626 Y52.498 E44.14137
G1 E43.14137 F2400.00000
G92 E0
G1 X59.719 Y127.031 F8100.000
G1 E1.00000 F2400.00000
G1 X136.965 Y127.031 E3.14572 F2310.000
G1 X137.103 Y126.893 E3.15114
G1 X137.103 Y57.126 E5.08911
G1 X137.448 Y56.781 E5.10267
G1 X151.236 Y56.781 E5.48567
G1 X151.581 Y57.126 E5.49922
G1 X151.581 Y131.535 E7.56614
G1 X151.492 Y131.751 E7.57265
G1 X141.824 Y141.419 E7.95244
G1 X141.607 Y141.509 E7.95894
G1 X55.077 Y141.509 E10.36256
G1 X54.861 Y141.419 E10.36907
G1 X45.193 Y131.751 E10.74886
G1 X45.103 Y131.535 E10.75537
G1 X45.103 Y57.126 E12.82229
G1 X45.448 Y56.781 E12.83584
G1 X59.236 Y56.781 E13.21884
G1 X59.581 Y57.126 E13.23239
G1 X59.581 Y126.893 E15.17036
G1 X59.675 Y126.986 E15.17404
G1 X59.484 Y127.266 F8100.000
G1 X137.201 Y127.266 E17.33285 F2310.000
G1 X137.339 Y127.128 E17.33827
G1 X137.339 Y57.223 E19.28007
G1 X137.546 Y57.016 E19.28820
G1 X151.139 Y57.016 E19.66578
G1 X151.346 Y57.223 E19.67392
G1 X151.346 Y131.488 E21.73682
G1 X151.292 Y131.618 E21.74073
G1 X141.690 Y141.219 E22.11791
G1 X141.561 Y141.273 E22.12182
G1 X55.124 Y141.273 E24.52283
G1 X54.994 Y141.219 E24.52673
G1 X45.393 Y131.618 E24.90392
G1 X45.339 Y131.488 E24.90782
G1 X45.339 Y57.223 E26.97073
G1 X45.546 Y57.016 E26.97886
G1 X59.139 Y57.016 E27.35644
G1 X59.346 Y57.223 E27.36457
G1 X59.346 Y127.128 E29.30638
G1 X59.439 Y127.222 E29.31005
G1 X59.248 Y127.502 F8100.000
G1 X137.437 Y127.502 E31.48195 F2310.000
G1 X137.575 Y127.364 E31.48737
G1 X137.575 Y57.321 E33.43301
G1 X137.644 Y57.252 E33.43572
G1 X151.041 Y57.252 E33.80787
G1 X151.110 Y57.321 E33.81058
G1 X151.110 Y131.441 E35.86948
G1 X151.092 Y131.484 E35.87078
G1 X141.557 Y141.020 E36.24536
G1 X141.514 Y141.038 E36.24666
G1 X55.171 Y141.038 E38.64507
G1 X55.128 Y141.020 E38.64637
G1 X45.592 Y131.484 E39.02095
G1 X45.575 Y131.441 E39.02225
G1 X45.575 Y57.321 E41.08114
G1 X45.644 Y57.252 E41.08386
G1 X59.041 Y57.252 E41.45601
G1 X59.110 Y57.321 E41.45872
G1 X59.110 Y127.364 E43.40436
G1 X59.204 Y127.457 E43.40803
G1 E42.40803 F2400.00000
G92 E0
G1 X137.842 Y127.770 F8100.000
G1 E1.00000 F2400.00000
G1 X137.842 Y57.520 E2.95139 F1470.000
G1 X150.842 Y57.520 E3.31250
G1 X150.842 Y131.356 E5.36349
G1 X141.428 Y140.770 E5.73332
G1 X55.257 Y140.770 E8.12697
G1 X45.842 Y131.356 E8.49680
G1 X45.842 Y57.520 E10.54779
G1 X58.842 Y57.520 E10.90891
G1 X58.842 Y127.770 E12.86029
G1 X137.779 Y127.770 E15.05299
G1 X138.262 Y127.770 F8100.000
G1 X138.078 Y128.005 F8100.000
G1 X138.078 Y57.755 E17.00438 F2100.000
G1 X150.607 Y57.755 E17.35240
G1 X150.607 Y125.485 E19.23378
G1 X150.493 Y125.508 E19.23700
G1 X150.210 Y124.825 E19.25752
G1 X149.592 Y124.020 E19.28572
G1 X148.787 Y123.402 E19.31392
G1 X147.849 Y123.014 E19.34210
G1 X146.854 Y122.879 E19.37000
G1 X145.836 Y123.013 E19.39853
G1 X144.898 Y123.402 E19.42673
G1 X144.092 Y124.020 E19.45493
G1 X143.474 Y124.825 E19.48314
G1 X143.086 Y125.763 E19.51134
G1 X142.954 Y126.768 E19.53949
G1 X143.074 Y127.748 E19.56691
G1 X143.474 Y128.714 E19.59597
G1 X144.092 Y129.520 E19.62417
G1 X144.898 Y130.138 E19.65237
G1 X145.836 Y130.526 E19.68057
G1 X146.842 Y130.659 E19.70877
G1 X147.849 Y130.526 E19.73697
G1 X148.787 Y130.138 E19.76517
G1 X149.592 Y129.520 E19.79337
G1 X150.210 Y128.714 E19.82157
G1 X150.493 Y128.032 E19.84209
G1 X150.607 Y128.054 E19.84531
G1 X150.607 Y131.258 E19.93430
G1 X141.331 Y140.534 E20.29870
G1 X138.127 Y140.534 E20.38769
G1 X138.104 Y140.420 E20.39091
G1 X138.787 Y140.138 E20.41143
G1 X139.592 Y139.520 E20.43963
G1 X140.210 Y138.714 E20.46783
G1 X140.599 Y137.776 E20.49603
G1 X140.731 Y136.770 E20.52423
G1 X140.599 Y135.763 E20.55243
G1 X140.210 Y134.825 E20.58063
G1 X139.592 Y134.020 E20.60883
G1 X138.787 Y133.402 E20.63703
G1 X137.849 Y133.014 E20.66521
G1 X136.854 Y132.879 E20.69311
G1 X135.836 Y133.013 E20.72164
G1 X134.898 Y133.402 E20.74984
G1 X134.092 Y134.020 E20.77804
G1 X133.474 Y134.825 E20.80624
G1 X133.086 Y135.763 E20.83445
G1 X132.954 Y136.768 E20.86260
G1 X133.074 Y137.748 E20.89002
G1 X133.474 Y138.714 E20.91907
G1 X134.092 Y139.520 E20.94728
G1 X134.898 Y140.138 E20.97548
G1 X135.580 Y140.420 E20.99599
G1 X135.558 Y140.534 E20.99922
G1 X61.127 Y140.534 E23.06673
G1 X61.104 Y140.420 E23.06996
G1 X61.787 Y140.138 E23.09047
G1 X62.592 Y139.520 E23.11867
G1 X63.210 Y138.714 E23.14688
G1 X63.599 Y137.777 E23.17506
G1 X63.733 Y136.782 E23.20296
G1 X63.599 Y135.763 E23.23149
G1 X63.210 Y134.825 E23.25969
G1 X62.592 Y134.020 E23.28789
G1 X61.787 Y133.402 E23.31609
G1 X60.849 Y133.014 E23.34427
G1 X59.854 Y132.879 E23.37217
G1 X58.833 Y133.014 E23.40077
G1 X57.860 Y133.431 E23.43020
G1 X57.092 Y134.020 E23.45706
G1 X56.474 Y134.825 E23.48526
G1 X56.086 Y135.763 E23.51346
G1 X55.953 Y136.770 E23.54166
G1 X56.086 Y137.776 E23.56986
G1 X56.474 Y138.714 E23.59806
G1 X57.092 Y139.520 E23.62627
G1 X57.898 Y140.138 E23.65447
G1 X58.580 Y140.420 E23.67498
G1 X58.558 Y140.534 E23.67821
G1 X55.354 Y140.534 E23.76719
G1 X46.078 Y131.258 E24.13160
G1 X46.078 Y128.054 E24.22058
G1 X46.192 Y128.032 E24.22380
G1 X46.474 Y128.714 E24.24432
G1 X47.092 Y129.520 E24.27252
G1 X47.898 Y130.138 E24.30072
G1 X48.836 Y130.526 E24.32892
G1 X49.842 Y130.659 E24.35712
G1 X50.849 Y130.526 E24.38532
G1 X51.787 Y130.138 E24.41352
G1 X52.592 Y129.520 E24.44172
G1 X53.210 Y128.714 E24.46993
G1 X53.599 Y127.777 E24.49811
G1 X53.733 Y126.782 E24.52601
G1 X53.599 Y125.763 E24.55454
G1 X53.210 Y124.825 E24.58274
G1 X52.592 Y124.020 E24.61094
G1 X51.787 Y123.402 E24.63914
G1 X50.849 Y123.014 E24.66732
G1 X49.854 Y122.879 E24.69522
G1 X48.833 Y123.014 E24.72382
G1 X47.860 Y123.431 E24.75325
G1 X47.092 Y124.020 E24.78011
G1 X46.474 Y124.825 E24.80832
G1 X46.192 Y125.509 E24.82885
G1 X46.078 Y125.486 E24.83208
G1 X46.078 Y57.755 E26.71348
G1 X58.607 Y57.755 E27.06150
G1 X58.607 Y128.005 E29.01289
G1 X138.015 Y128.005 E31.21868
G1 X143.265 Y127.367 F8100.000
G1 X143.191 Y126.769 E31.23541 F2100.000
G1 X143.315 Y125.825 E31.26187
G1 X143.680 Y124.944 E31.28835
G1 X144.260 Y124.188 E31.31483
G1 X145.017 Y123.608 E31.34131
G1 X145.897 Y123.243 E31.36778
G1 X146.854 Y123.117 E31.39458 F2100.000
G1 X147.788 Y123.243 E31.42075
G1 X148.668 Y123.608 E31.44722
G1 X149.424 Y124.188 E31.47370
G1 X150.004 Y124.944 E31.50018
G1 X150.369 Y125.825 E31.52666
G1 X150.494 Y126.770 E31.55313
G1 X150.369 Y127.715 E31.57961
G1 X150.004 Y128.595 E31.60609
G1 X149.424 Y129.352 E31.63257
G1 X148.668 Y129.932 E31.65904
G1 X147.787 Y130.297 E31.68552
G1 X146.842 Y130.421 E31.71200
G1 X145.897 Y130.297 E31.73847
G1 X145.017 Y129.932 E31.76495
G1 X144.260 Y129.352 E31.79143
G1 X143.680 Y128.595 E31.81791
G1 X143.304 Y127.687 E31.84521
G1 X143.272 Y127.430 E31.85242
G1 X142.878 Y127.203 F8100.000
G1 X138.668 Y133.608 F8100.000
G1 X139.424 Y134.188 E31.87890 F2100.000
G1 X140.004 Y134.944 E31.90537
G1 X140.369 Y135.825 E31.93185
G1 X140.494 Y136.770 E31.95833
G1 X140.369 Y137.715 E31.98480
G1 X140.004 Y138.595 E32.01128
G1 X139.424 Y139.352 E32.03776
G1 X138.668 Y139.932 E32.06424
G1 X137.787 Y140.297 E32.09071
G1 X136.842 Y140.421 E32.11719
G1 X135.897 Y140.297 E32.14367
G1 X135.017 Y139.932 E32.17015
G1 X134.260 Y139.352 E32.19662
G1 X133.680 Y138.595 E32.22310
G1 X133.304 Y137.687 E32.25040
G1 X133.191 Y136.769 E32.27610
G1 X133.315 Y135.825 E32.30256
G1 X133.680 Y134.944 E32.32904
G1 X134.260 Y134.188 E32.35551
G1 X135.017 Y133.608 E32.38199
G1 X135.897 Y133.243 E32.40847
G1 X136.854 Y133.117 E32.43526 F2100.000
G1 X137.788 Y133.243 E32.46144
G1 X138.610 Y133.584 E32.48616
G1 X139.041 Y133.414 F8100.000
G1 E31.48616 F2400.00000
G92 E0
G1 X132.487 Y135.603 F8100.000
G1 X63.538 Y130.987 F8100.000
G1 X57.920 Y130.592 F8100.000
G1 X55.977 Y129.948 F8100.000
G1 X54.484 Y128.113 F8100.000
G1 X54.484 Y127.781 F8100.000
G1 X53.495 Y126.781 F8100.000
G1 E1.00000 F2400.00000
G1 X53.369 Y127.715 E1.02618 F2100.000
G1 X53.004 Y128.595 E1.05265
G1 X52.424 Y129.352 E1.07912
G1 X51.668 Y129.932 E1.10560
G1 X50.787 Y130.297 E1.13208
G1 X49.842 Y130.421 E1.15856
G1 X48.897 Y130.297 E1.18503
G1 X48.017 Y129.932 E1.21151
G1 X47.260 Y129.352 E1.23799
G1 X46.680 Y128.595 E1.26446
G1 X46.315 Y127.715 E1.29094
G1 X46.191 Y126.770 E1.31742
G1 X46.315 Y125.827 E1.34384
G1 X46.680 Y124.944 E1.37037
G1 X47.260 Y124.188 E1.39685
G1 X47.980 Y123.636 E1.42203
G1 X48.896 Y123.243 E1.44974
G1 X49.854 Y123.117 E1.47656 F2100.000
G1 X50.788 Y123.243 E1.50273
G1 X51.668 Y123.608 E1.52920
G1 X52.424 Y124.188 E1.55568
G1 X53.004 Y124.944 E1.58216
G1 X53.369 Y125.825 E1.60864
G1 X53.487 Y126.719 E1.63368
G1 X53.849 Y127.008 F8100.000
G1 X57.980 Y133.636 F8100.000
G1 X58.896 Y133.243 E1.66139 F2100.000
G1 X59.854 Y133.117 E1.68821 F2100.000
G1 X60.788 Y133.243 E1.71438
G1 X61.668 Y133.608 E1.74085
G1 X62.424 Y134.188 E1.76733
G1 X63.004 Y134.944 E1.79381
G1 X63.369 Y135.825 E1.82029
G1 X63.495 Y136.781 E1.84708
G1 X63.369 Y137.715 E1.87326
G1 X63.004 Y138.595 E1.89973
G1 X62.424 Y139.352 E1.92621
G1 X61.668 Y139.932 E1.95268
G1 X60.787 Y140.297 E1.97916
G1 X59.842 Y140.421 E2.00564
G1 X58.897 Y140.297 E2.03212
G1 X58.017 Y139.932 E2.05859
G1 X57.260 Y139.352 E2.08507
G1 X56.680 Y138.595 E2.11155
G1 X56.315 Y137.715 E2.13802
G1 X56.191 Y136.770 E2.16450
G1 X56.315 Y135.825 E2.19098
G1 X56.680 Y134.944 E2.21746
G1 X57.260 Y134.188 E2.24393
G1 X57.930 Y133.674 E2.26737
G1 X57.995 Y133.216 F8100.000
G1 E1.26737 F2400.00000
G92 E0
G1 X55.487 Y137.937 F8100.000
G1 X55.522 Y139.196 F8100.000
G1 X55.781 Y139.504 F8100.000
G1 X56.625 Y139.920 F8100.000
G1 X58.685 Y140.500 F8100.000
G1 E1.00000 F2400.00000
G1 X58.851 Y140.531 E1.01068 F336.000
G1 X59.410 Y140.568 E1.04608
G1 X59.410 Y140.568 F8100.000
G1 X59.835 Y140.596 E1.05791 F336.000
G1 X60.274 Y140.568 E1.07014
G1 X60.274 Y140.568 F8100.000
G1 X60.834 Y140.531 E1.10554 F336.000
G1 X61.000 Y140.500 E1.11622
G1 E0.11622 F2400.00000
G92 E0
G1 X55.487 Y135.603 F8100.000
G1 X53.229 Y133.393 F8100.000
G1 X53.219 Y133.383 F8100.000
G1 X51.830 Y133.107 F8100.000
G1 X51.009 Y131.125 F8100.000
G1 X46.112 Y127.928 F8100.000
G1 E1.00000 F2400.00000
G1 X46.081 Y127.761 E1.01068 F336.000
G1 X46.044 Y127.202 E1.04608
G1 X46.044 Y127.202 F8100.000
G1 X46.016 Y126.777 E1.05791 F336.000
G1 X46.044 Y126.338 E1.07014
G1 X46.044 Y126.338 F8100.000
G1 X46.081 Y125.780 E1.10541 F336.000
G1 X46.112 Y125.613 E1.11616
G1 E0.11616 F2400.00000
G92 E0
G1 X54.484 Y127.781 F8100.000
G1 X62.941 Y130.826 F8100.000
G1 X69.688 Y134.270 F8100.000
G1 X65.116 Y138.757 F8100.000
G1 X64.189 Y139.363 F8100.000
G1 X63.060 Y139.920 F8100.000
G1 X135.685 Y140.500 F8100.000
G1 E1.00000 F2400.00000
G1 X135.851 Y140.531 E1.01068 F336.000
G1 X136.410 Y140.568 E1.04608
G1 X136.835 Y140.596 E1.05791 F336.000
G1 X137.274 Y140.568 E1.07014
G1 X137.274 Y140.568 F8100.000
G1 X137.834 Y140.531 E1.10554 F336.000
G1 X138.000 Y140.500 E1.11622
G1 X138.937 Y140.161 F8100.000
G1 X139.180 Y140.404 E1.12577 F2688.000
G1 X139.514 Y140.404 E1.13503
G1 X139.126 Y140.016 E1.15026
G1 X139.315 Y139.872 E1.15687
G1 X139.847 Y140.404 E1.17779
G1 X140.180 Y140.404 E1.18706
G1 X139.503 Y139.727 E1.21367
G1 X139.687 Y139.577 E1.22025
G1 X140.514 Y140.404 E1.25274
G1 X140.847 Y140.404 E1.26201
G1 X139.832 Y139.389 E1.30191
G1 X139.976 Y139.200 E1.30852
G1 X141.180 Y140.404 E1.35584
G1 X141.396 Y140.286 E1.36266
G1 X140.121 Y139.011 E1.41275
G1 X140.266 Y138.823 E1.41935
G1 X141.562 Y140.119 E1.47030
G1 X141.729 Y139.952 E1.47685
G1 X140.380 Y138.604 E1.52986
G1 X140.478 Y138.368 E1.53695
G1 X141.896 Y139.786 E1.59266
G1 X142.062 Y139.619 E1.59921
G1 X140.576 Y138.132 E1.65764
G1 X140.673 Y137.897 E1.66473
G1 X142.229 Y139.452 E1.72587
G1 X142.396 Y139.286 E1.73242
G1 X140.743 Y137.633 E1.79738
G1 X140.782 Y137.338 E1.80564
G1 X142.562 Y139.119 E1.87562
G1 X142.729 Y138.952 E1.88217
G1 X140.820 Y137.044 E1.95718
G1 X140.859 Y136.749 E1.96544
G1 X142.896 Y138.786 E2.04548
G1 X143.062 Y138.619 E2.05203
G1 X140.818 Y136.374 E2.14026
G1 X140.767 Y135.990 E2.15102
G1 X143.229 Y138.452 E2.24778
G1 X143.396 Y138.286 E2.25433
G1 X140.688 Y135.577 E2.36077
