; generated by Slic3r 1.2.9 on 2016-08-03 at 17:31:51

; external perimeters extrusion width = 0.42mm
; perimeters extrusion width = 0.53mm
; infill extrusion width = 0.53mm
; solid infill extrusion width = 0.53mm
; top infill extrusion width = 0.53mm
; support material extrusion width = 0.42mm

M104 S240 ; set temperature
M220 S100 ; reset speeds
M116 ; wait for all temperatures
G0 Z10 ; drive Z to 10mm height
G28 X0 Y0 ; home X and Y
G0 Z0 X30 Y30 F13000
M109 S240 ; wait for temperature to be reached
G21 ; set units to millimeters
G90 ; use absolute coordinates
M82 ; use absolute distances for extrusion
G92 E0
G1 E-1.00000 F2400.00000
G92 E0
G1 Z0.300 F8100.000
G1 X35.029 Y14.500 F8100.000
G1 E1.00000 F2400.00000
G1 X35.460 Y13.460 E1.03128 F2310.000
G1 X45.460 Y3.460 E1.42412
G1 X46.500 Y3.029 E1.45539
G1 X133.500 Y3.029 E3.87206
G1 X134.540 Y3.460 E3.90334
G1 X144.540 Y13.460 E4.29618 F2310.000
G1 X144.971 Y14.500 E4.32746
G1 X144.971 Y165.500 E8.52190
G1 X144.540 Y166.540 E8.55318
G1 X134.540 Y176.540 E8.94602
G1 X133.500 Y176.971 E8.97730
G1 X46.500 Y176.971 E11.39396
G1 X45.460 Y176.540 E11.42524
G1 X35.460 Y166.540 E11.81808
G1 X35.029 Y165.500 E11.84936
G1 X35.029 Y14.563 E16.04205
G1 X35.264 Y14.500 F8100.000
G1 X35.626 Y13.626 E16.06832 F2310.000
G1 X45.626 Y3.626 E16.46116
G1 X46.500 Y3.264 E16.48743
G1 X133.500 Y3.264 E18.90410
G1 X134.374 Y3.626 E18.93036
G1 X144.374 Y13.626 E19.32320 F2310.000
G1 X144.736 Y14.500 E19.34947
G1 X144.736 Y165.500 E23.54392
G1 X144.374 Y166.374 E23.57019
G1 X134.374 Y176.374 E23.96302
G1 X133.500 Y176.736 E23.98929
G1 X46.500 Y176.736 E26.40596
G1 X45.626 Y176.374 E26.43223
G1 X35.626 Y166.374 E26.82507
G1 X35.264 Y165.500 E26.85134
G1 X35.264 Y14.563 E31.04403
G1 X35.911 Y14.500 F8100.000
G1 X35.911 Y14.383 E31.04728 F2310.000
G1 X36.001 Y14.166 E31.05379
G1 X46.166 Y4.001 E31.45314
G1 X46.383 Y3.911 E31.45965
G1 X133.617 Y3.911 E33.88283
G1 X133.834 Y4.001 E33.88934
G1 X143.999 Y14.166 E34.28868 F2310.000
G1 X144.089 Y14.383 E34.29519
G1 X144.089 Y165.617 E38.49615
G1 X143.999 Y165.834 E38.50266
G1 X133.834 Y175.999 E38.90200
G1 X133.617 Y176.089 E38.90851
G1 X46.383 Y176.089 E41.33169
G1 X46.166 Y175.999 E41.33820
G1 X36.001 Y165.834 E41.73754
G1 X35.911 Y165.617 E41.74405
G1 X35.911 Y14.563 E45.94000
G1 X36.147 Y14.500 F8100.000
G1 X36.147 Y14.430 E45.94195 F2310.000
G1 X36.200 Y14.300 E45.94586
G1 X46.300 Y4.200 E46.34260
G1 X46.430 Y4.147 E46.34651
G1 X133.570 Y4.147 E48.76708
G1 X133.700 Y4.200 E48.77099 F2310.000
G1 X143.800 Y14.300 E49.16773
G1 X143.853 Y14.430 E49.17164
G1 X143.853 Y165.570 E53.36999
G1 X143.800 Y165.700 E53.37389
G1 X133.700 Y175.800 E53.77063
G1 X133.570 Y175.853 E53.77454
G1 X46.430 Y175.853 E56.19511
G1 X46.300 Y175.800 E56.19902
G1 X36.200 Y165.700 E56.59576
G1 X36.147 Y165.570 E56.59967
G1 X36.147 Y14.563 E60.79431
G1 X36.382 Y14.500 F8100.000
G1 X36.400 Y14.433 E60.79623 F2310.000
G1 X46.433 Y4.400 E61.19037
G1 X46.477 Y4.382 E61.19167
G1 X133.523 Y4.382 E63.60964
G1 X133.567 Y4.400 E63.61095
G1 X143.600 Y14.433 E64.00508 F2310.000
G1 X143.618 Y14.477 E64.00639
G1 X143.618 Y165.523 E68.20213
G1 X143.600 Y165.567 E68.20343
G1 X133.567 Y175.600 E68.59757
G1 X133.523 Y175.618 E68.59888
G1 X46.477 Y175.618 E71.01684
G1 X46.433 Y175.600 E71.01815
G1 X36.400 Y165.567 E71.41228
G1 X36.382 Y165.523 E71.41359
G1 X36.382 Y14.563 E75.60693
G1 E74.60693 F2400.00000
G92 E0
G1 X72.882 Y4.650 F8100.000
G1 E1.00000 F2400.00000
G1 X133.438 Y4.650 E2.68210 F1470.000
G1 X143.350 Y14.562 E3.07149
G1 X143.350 Y165.438 E7.26248 F1470.000
G1 X133.438 Y175.350 E7.65187
G1 X46.562 Y175.350 E10.06508
G1 X36.650 Y165.438 E10.45447
G1 X36.650 Y14.562 E14.64546
G1 X46.562 Y4.650 E15.03485
G1 X72.819 Y4.650 E15.76421
G1 X73.092 Y5.014 F8100.000
G1 X72.882 Y4.886 F8100.000
G1 X133.340 Y4.886 E17.44360 F2100.000
G1 X143.114 Y14.660 E17.82756 F2100.000
G1 X143.114 Y165.340 E22.01314
G1 X133.340 Y175.114 E22.39710
G1 X46.660 Y175.114 E24.80489
G1 X36.886 Y165.340 E25.18886
G1 X36.886 Y14.660 E29.37443
G1 X46.660 Y4.886 E29.75839
G1 X72.819 Y4.886 E30.48504
G1 X53.524 Y5.500 F8100.000
G1 X55.088 Y6.005 F8100.000
G1 X62.217 Y12.000 F8100.000
G1 X48.216 Y17.355 F8100.000
G1 X46.887 Y25.554 F8100.000
G1 X44.000 Y30.217 F8100.000
G1 X42.922 Y31.460 F8100.000
G1 X42.214 Y36.835 F8100.000
G1 X42.844 Y38.156 F8100.000
G1 X43.147 Y38.549 E30.49883 F2100.000
G1 X43.336 Y39.008 E30.51262
G1 X43.401 Y39.500 E30.52640
G1 X43.336 Y39.992 E30.54019
G1 X43.147 Y40.451 E30.55398
G1 X42.844 Y40.844 E30.56776
G1 X42.451 Y41.147 E30.58155
G1 X41.992 Y41.336 E30.59534
G1 X41.500 Y41.401 E30.60913
G1 X41.008 Y41.336 E30.62291
G1 X40.549 Y41.147 E30.63670
G1 X40.156 Y40.844 E30.65049
G1 X39.853 Y40.451 E30.66427
G1 X39.667 Y40.002 E30.67778
G1 X39.599 Y39.500 E30.69183
G1 X39.663 Y39.008 E30.70563
G1 X39.850 Y38.559 E30.71913
G1 X40.155 Y38.156 E30.73318
G1 X40.549 Y37.853 E30.74698
G1 X41.008 Y37.663 E30.76077
G1 X41.490 Y37.600 E30.77427 F2100.000
G1 X41.992 Y37.663 E30.78832
G1 X42.451 Y37.853 E30.80212
G1 X42.794 Y38.117 E30.81415
G1 X43.254 Y38.065 F8100.000
G1 X42.988 Y37.969 F8100.000
G1 X43.352 Y38.431 E30.83050 F2100.000
G1 X43.566 Y38.946 E30.84601
G1 X43.639 Y39.500 E30.86152
G1 X43.566 Y40.054 E30.87703
G1 X43.352 Y40.569 E30.89254
G1 X43.012 Y41.012 E30.90805
G1 X42.569 Y41.352 E30.92356
G1 X42.054 Y41.566 E30.93907
G1 X41.500 Y41.639 E30.95458
G1 X40.946 Y41.566 E30.97009
G1 X40.431 Y41.352 E30.98560
G1 X39.988 Y41.012 E31.00111
G1 X39.648 Y40.569 E31.01662
G1 X39.438 Y40.064 E31.03183
G1 X39.361 Y39.501 E31.04761
G1 X39.434 Y38.946 E31.06315
G1 X39.643 Y38.441 E31.07836
G1 X39.987 Y37.988 E31.09413
G1 X40.431 Y37.648 E31.10967
G1 X40.946 Y37.434 E31.12518
G1 X41.489 Y37.362 E31.14039 F2100.000
G1 X42.053 Y37.434 E31.15616
G1 X42.569 Y37.648 E31.17170
G1 X42.938 Y37.930 E31.18460
G1 X41.500 Y23.151 F8100.000
G1 X40.601 Y23.033 E31.20978 F2100.000
G1 X39.675 Y22.663 E31.23749
G1 X38.918 Y22.082 E31.26399
G1 X38.338 Y21.326 E31.29047
G1 X37.973 Y20.445 E31.31694
G1 X37.849 Y19.500 E31.34342
G1 X37.967 Y18.601 E31.36860
G1 X38.337 Y17.675 E31.39631
G1 X38.918 Y16.918 E31.42281
G1 X39.674 Y16.338 E31.44929
G1 X40.555 Y15.973 E31.47577
G1 X41.511 Y15.847 E31.50256 F2100.000
G1 X42.445 Y15.973 E31.52874
G1 X43.326 Y16.338 E31.55521
G1 X44.082 Y16.918 E31.58168
G1 X44.634 Y17.637 E31.60687
G1 X45.027 Y18.554 E31.63457
G1 X45.153 Y19.511 E31.66139
G1 X45.027 Y20.445 E31.68757
G1 X44.662 Y21.326 E31.71404
G1 X44.082 Y22.082 E31.74052
G1 X43.326 Y22.662 E31.76699
G1 X42.445 Y23.027 E31.79347
G1 X41.562 Y23.143 E31.81820
G1 X41.274 Y23.506 F8100.000
G1 X41.469 Y23.385 F8100.000
G1 X40.541 Y23.263 E31.84420 F2100.000
G1 X39.557 Y22.869 E31.87363
G1 X38.750 Y22.250 E31.90190
G1 X38.132 Y21.444 E31.93010
G1 X37.744 Y20.507 E31.95830
G1 X37.611 Y19.500 E31.98650
G1 X37.737 Y18.541 E32.01336
G1 X38.131 Y17.557 E32.04279
G1 X38.750 Y16.750 E32.07106
G1 X39.556 Y16.132 E32.09926
G1 X40.493 Y15.744 E32.12746
G1 X41.512 Y15.610 E32.15599 F2100.000
G1 X42.507 Y15.744 E32.18389
G1 X43.444 Y16.132 E32.21207
G1 X44.250 Y16.750 E32.24027
G1 X44.839 Y17.517 E32.26714
G1 X45.256 Y18.491 E32.29656
G1 X45.390 Y19.512 E32.32516
G1 X45.256 Y20.507 E32.35306
G1 X44.868 Y21.444 E32.38124
G1 X44.250 Y22.250 E32.40944
G1 X43.444 Y22.868 E32.43764
G1 X42.507 Y23.256 E32.46585
G1 X41.532 Y23.385 E32.49316
G1 X51.350 Y19.350 F8100.000
G1 X128.650 Y19.350 E34.64038 F1470.000
G1 X128.650 Y160.650 E38.56538
G1 X51.350 Y160.650 E40.71260
G1 X51.350 Y19.413 E44.63585
G1 X51.350 Y18.930 F8100.000
G1 X51.114 Y19.114 F8100.000
G1 X128.886 Y19.114 E46.79616 F2100.000
G1 X128.886 Y160.886 E50.73425
G1 X51.114 Y160.886 E52.89456
G1 X51.114 Y19.177 E56.83090
G1 X51.500 Y13.151 F8100.000
G1 X50.555 Y13.027 E56.85738 F2100.000
G1 X49.674 Y12.662 E56.88386
G1 X48.918 Y12.082 E56.91034
G1 X48.366 Y11.363 E56.93552
G1 X47.973 Y10.446 E56.96322
G1 X47.849 Y9.500 E56.98973
G1 X47.967 Y8.601 E57.01491
G1 X48.337 Y7.675 E57.04261
G1 X48.918 Y6.918 E57.06912
G1 X49.674 Y6.338 E57.09559
G1 X50.555 Y5.973 E57.12207
G1 X51.511 Y5.847 E57.14887 F2100.000
G1 X52.445 Y5.973 E57.17504
G1 X53.326 Y6.338 E57.20151
G1 X54.082 Y6.918 E57.22799
G1 X54.634 Y7.637 E57.25317
G1 X55.027 Y8.554 E57.28088
G1 X55.151 Y9.500 E57.30738
G1 X55.027 Y10.445 E57.33386
G1 X54.662 Y11.326 E57.36033
G1 X54.082 Y12.082 E57.38681
G1 X53.326 Y12.662 E57.41329
G1 X52.445 Y13.027 E57.43976
G1 X51.562 Y13.143 E57.46449
G1 X51.274 Y13.506 F8100.000
G1 X51.469 Y13.385 F8100.000
G1 X50.493 Y13.256 E57.49183 F2100.000
G1 X49.556 Y12.868 E57.52003
G1 X48.750 Y12.250 E57.54823
G1 X48.161 Y11.483 E57.57510
G1 X47.744 Y10.509 E57.60452
G1 X47.611 Y9.500 E57.63279
G1 X47.737 Y8.541 E57.65966
G1 X48.131 Y7.557 E57.68908
G1 X48.750 Y6.750 E57.71735
G1 X49.556 Y6.132 E57.74555
G1 X50.493 Y5.744 E57.77375
G1 X51.512 Y5.610 E57.80228 F2100.000
G1 X52.507 Y5.744 E57.83018
G1 X53.444 Y6.132 E57.85837
G1 X54.250 Y6.750 E57.88657
G1 X54.839 Y7.517 E57.91343
G1 X55.256 Y8.491 E57.94286
G1 X55.389 Y9.500 E57.97113
G1 X55.256 Y10.507 E57.99933
G1 X54.868 Y11.444 E58.02753
G1 X54.250 Y12.250 E58.05573
G1 X53.444 Y12.868 E58.08393
G1 X52.507 Y13.256 E58.11213
G1 X51.532 Y13.385 E58.13944
G1 X88.099 Y9.500 F8100.000
G1 X88.164 Y9.008 E58.15323 F2100.000
G1 X88.350 Y8.559 E58.16673
G1 X88.655 Y8.156 E58.18078
G1 X89.049 Y7.853 E58.19458
G1 X89.508 Y7.663 E58.20837
G1 X89.990 Y7.600 E58.22187 F2100.000
G1 X90.492 Y7.663 E58.23592
G1 X90.951 Y7.853 E58.24972
G1 X91.344 Y8.156 E58.26351
G1 X91.647 Y8.549 E58.27729
G1 X91.836 Y9.008 E58.29108
G1 X91.901 Y9.500 E58.30487
G1 X91.836 Y9.992 E58.31865
G1 X91.647 Y10.451 E58.33244
G1 X91.344 Y10.844 E58.34623
G1 X90.951 Y11.147 E58.36002
G1 X90.492 Y11.336 E58.37380
G1 X90.000 Y11.401 E58.38759
G1 X89.508 Y11.336 E58.40138
G1 X89.049 Y11.147 E58.41516
G1 X88.656 Y10.844 E58.42895
G1 X88.353 Y10.451 E58.44274
G1 X88.164 Y9.992 E58.45653
G1 X88.107 Y9.562 E58.46856
G1 X87.744 Y9.274 F8100.000
G1 X87.865 Y9.469 F8100.000
G1 X87.934 Y8.946 E58.48321 F2100.000
G1 X88.143 Y8.441 E58.49842
G1 X88.487 Y7.988 E58.51419
G1 X88.931 Y7.648 E58.52973
G1 X89.446 Y7.434 E58.54524
G1 X89.989 Y7.362 E58.56045 F2100.000
G1 X90.553 Y7.434 E58.57623
G1 X91.069 Y7.648 E58.59177
G1 X91.512 Y7.988 E58.60728
G1 X91.852 Y8.431 E58.62279
G1 X92.066 Y8.946 E58.63830
G1 X92.139 Y9.500 E58.65381
G1 X92.066 Y10.054 E58.66932
G1 X91.852 Y10.569 E58.68483
G1 X91.512 Y11.012 E58.70034
G1 X91.069 Y11.352 E58.71585
G1 X90.554 Y11.566 E58.73136
G1 X90.000 Y11.639 E58.74687
G1 X89.446 Y11.566 E58.76238
G1 X88.931 Y11.352 E58.77789
G1 X88.488 Y11.012 E58.79340
G1 X88.148 Y10.569 E58.80891
G1 X87.934 Y10.054 E58.82442
G1 X87.865 Y9.532 E58.83904
G1 E57.83904 F2400.00000
G92 E0
G1 X92.759 Y9.500 F8100.000
G1 X98.914 Y12.000 F8100.000
G1 X118.253 Y11.443 F8100.000
G1 X120.450 Y8.938 F8100.000
G1 X123.858 Y8.489 F8100.000
G1 X124.847 Y9.489 F8100.000
G1 E1.00000 F2400.00000
G1 X124.973 Y8.555 E1.02618 F2100.000
G1 X125.338 Y7.674 E1.05265
G1 X125.918 Y6.918 E1.07912
G1 X126.674 Y6.338 E1.10560
G1 X127.555 Y5.973 E1.13208
G1 X128.511 Y5.847 E1.15887 F2100.000
G1 X129.445 Y5.973 E1.18505
G1 X130.326 Y6.338 E1.21152
G1 X131.082 Y6.918 E1.23800
G1 X131.662 Y7.674 E1.26447
G1 X132.027 Y8.555 E1.29095
G1 X132.151 Y9.500 E1.31743
G1 X132.027 Y10.445 E1.34391
G1 X131.662 Y11.326 E1.37038
G1 X131.082 Y12.082 E1.39686
G1 X130.326 Y12.662 E1.42334
G1 X129.445 Y13.027 E1.44981
G1 X128.500 Y13.151 E1.47629
G1 X127.555 Y13.027 E1.50277
G1 X126.674 Y12.662 E1.52925
G1 X125.918 Y12.082 E1.55572
G1 X125.338 Y11.326 E1.58220
G1 X124.973 Y10.445 E1.60868
G1 X124.855 Y9.551 E1.63372
G1 X124.493 Y9.262 F8100.000
G1 X124.614 Y9.457 F8100.000
G1 X124.744 Y8.493 E1.66075 F2100.000
G1 X125.132 Y7.556 E1.68893
G1 X125.750 Y6.750 E1.71713
G1 X126.556 Y6.132 E1.74533
G1 X127.493 Y5.744 E1.77353
G1 X128.512 Y5.610 E1.80206 F2100.000
G1 X129.507 Y5.744 E1.82996
G1 X130.444 Y6.132 E1.85815
G1 X131.250 Y6.750 E1.88635
G1 X131.868 Y7.556 E1.91455
G1 X132.256 Y8.493 E1.94275
G1 X132.389 Y9.500 E1.97095
G1 X132.256 Y10.507 E1.99915
G1 X131.868 Y11.444 E2.02735
G1 X131.250 Y12.250 E2.05555
G1 X130.444 Y12.868 E2.08375
G1 X129.507 Y13.256 E2.11195
G1 X128.500 Y13.389 E2.14015
G1 X127.493 Y13.256 E2.16835
G1 X126.556 Y12.868 E2.19655
G1 X125.750 Y12.250 E2.22475
G1 X125.132 Y11.444 E2.25295
G1 X124.744 Y10.507 E2.28115
G1 X124.614 Y9.520 E2.30880
G1 E1.30880 F2400.00000
G92 E0
G1 X129.667 Y13.855 F8100.000
G1 X130.645 Y16.216 F8100.000
G1 X131.879 Y16.121 F8100.000
G1 X134.595 Y17.246 F8100.000
G1 X135.338 Y17.674 F8100.000
G1 E1.00000 F2400.00000
G1 X135.918 Y16.918 E1.02648 F2100.000
G1 X136.674 Y16.338 E1.05295
G1 X137.555 Y15.973 E1.07943
G1 X138.511 Y15.847 E1.10623 F2100.000
G1 X139.445 Y15.973 E1.13240
G1 X140.326 Y16.338 E1.15887
G1 X141.082 Y16.918 E1.18535
G1 X141.662 Y17.674 E1.21183
G1 X142.027 Y18.555 E1.23830
G1 X142.151 Y19.500 E1.26478
G1 X142.027 Y20.445 E1.29126
G1 X141.662 Y21.326 E1.31774
G1 X141.082 Y22.082 E1.34421
G1 X140.326 Y22.662 E1.37069
G1 X139.445 Y23.027 E1.39717
G1 X138.500 Y23.151 E1.42364
G1 X137.555 Y23.027 E1.45012
G1 X136.674 Y22.662 E1.47660
G1 X135.918 Y22.082 E1.50308
G1 X135.338 Y21.326 E1.52955
G1 X134.962 Y20.418 E1.55685
G1 X134.847 Y19.488 E1.58287
G1 X134.973 Y18.555 E1.60903
G1 X135.314 Y17.733 E1.63375
G1 X135.144 Y17.302 F8100.000
G1 X135.151 Y17.531 F8100.000
G1 X135.750 Y16.750 E1.66109 F2100.000
G1 X136.556 Y16.132 E1.68929
G1 X137.493 Y15.744 E1.71749
G1 X138.512 Y15.610 E1.74602 F2100.000
G1 X139.507 Y15.744 E1.77392
G1 X140.444 Y16.132 E1.80210
G1 X141.250 Y16.750 E1.83030
G1 X141.868 Y17.556 E1.85850
G1 X142.256 Y18.493 E1.88670
G1 X142.389 Y19.500 E1.91490
G1 X142.256 Y20.507 E1.94310
G1 X141.868 Y21.444 E1.97130
G1 X141.250 Y22.250 E1.99951
G1 X140.444 Y22.868 E2.02771
G1 X139.507 Y23.256 E2.05591
G1 X138.500 Y23.389 E2.08411
G1 X137.493 Y23.256 E2.11231
G1 X136.556 Y22.868 E2.14051
G1 X135.750 Y22.250 E2.16871
G1 X135.132 Y21.444 E2.19691
G1 X134.732 Y20.478 E2.22596
G1 X134.610 Y19.487 E2.25371
G1 X134.744 Y18.493 E2.28157
G1 X135.120 Y17.585 E2.30886
G1 E1.30886 F2400.00000
G92 E0
G1 X137.333 Y23.855 F8100.000
G1 X136.000 Y30.586 F8100.000
G1 X137.740 Y32.040 F8100.000
G1 X137.901 Y32.182 F8100.000
G1 X138.500 Y36.741 F8100.000
G1 X138.008 Y37.663 F8100.000
G1 E1.00000 F2400.00000
G1 X138.490 Y37.600 E1.01350 F2100.000
G1 X138.992 Y37.663 E1.02755
G1 X139.451 Y37.853 E1.04135
G1 X139.844 Y38.156 E1.05514
G1 X140.147 Y38.549 E1.06893
G1 X140.336 Y39.008 E1.08271
G1 X140.401 Y39.500 E1.09650
G1 X140.336 Y39.992 E1.11029
G1 X140.150 Y40.441 E1.12379
G1 X139.845 Y40.844 E1.13784
G1 X139.451 Y41.147 E1.15164
G1 X138.992 Y41.336 E1.16543
G1 X138.500 Y41.401 E1.17921
G1 X138.008 Y41.336 E1.19300
G1 X137.549 Y41.147 E1.20679
G1 X137.156 Y40.844 E1.22058
G1 X136.853 Y40.451 E1.23436
G1 X136.664 Y39.992 E1.24815
G1 X136.599 Y39.500 E1.26194
G1 X136.663 Y39.008 E1.27572
G1 X136.850 Y38.559 E1.28923
G1 X137.155 Y38.156 E1.30328
G1 X137.549 Y37.853 E1.31708
G1 X137.950 Y37.688 E1.32911
G1 X138.134 Y37.263 F8100.000
G1 X137.977 Y37.430 F8100.000
G1 X138.489 Y37.362 E1.34346 F2100.000
G1 X139.053 Y37.434 E1.35923
G1 X139.569 Y37.648 E1.37477
G1 X140.012 Y37.988 E1.39028
G1 X140.352 Y38.431 E1.40579
G1 X140.566 Y38.946 E1.42130
G1 X140.639 Y39.500 E1.43681
G1 X140.566 Y40.054 E1.45233
G1 X140.357 Y40.559 E1.46753
G1 X140.013 Y41.012 E1.48331
G1 X139.569 Y41.352 E1.49885
G1 X139.054 Y41.566 E1.51436
G1 X138.500 Y41.639 E1.52987
G1 X137.946 Y41.566 E1.54538
G1 X137.431 Y41.352 E1.56089
G1 X136.988 Y41.012 E1.57640
G1 X136.648 Y40.569 E1.59191
G1 X136.434 Y40.054 E1.60742
G1 X136.361 Y39.500 E1.62293
G1 X136.434 Y38.946 E1.63844
G1 X136.643 Y38.441 E1.65365
G1 X136.987 Y37.988 E1.66942
G1 X137.431 Y37.648 E1.68496
G1 X137.917 Y37.446 E1.69958
G1 E0.69958 F2400.00000
G92 E0
G1 X138.500 Y42.259 F8100.000
G1 X136.000 Y131.586 F8100.000
G1 X137.740 Y133.040 F8100.000
G1 X137.901 Y133.182 F8100.000
G1 X138.500 Y137.741 F8100.000
G1 X138.490 Y138.600 F8100.000
