; generated by Slic3r 1.2.9 on 2016-08-04 at 11:11:51

; external perimeters extrusion width = 0.42mm
; perimeters extrusion width = 0.53mm
; infill extrusion width = 0.53mm
; solid infill extrusion width = 0.53mm
; top infill extrusion width = 0.53mm
; support material extrusion width = 0.42mm

M104 S245 ; set temperature
M220 S100 ; reset speeds
M116 ; wait for all temperatures
G0 Z10 ; drive Z to 10mm height
G28 X0 Y0 ; home X and Y
G0 Z0 X30 Y30 F13000
M109 S245 ; wait for temperature to be reached
G21 ; set units to millimeters
G90 ; use absolute coordinates
M82 ; use absolute distances for extrusion
G92 E0
G1 E-1.00000 F2400.00000
G92 E0
G1 Z0.300 F8100.000
G1 X18.130 Y64.202 F8100.000
G1 E1.00000 F2400.00000
G1 X19.449 Y64.003 E1.03705 F2310.000
G1 X160.449 Y64.003 E4.95372
G1 X162.287 Y64.399 E5.00596
G1 X163.801 Y65.515 E5.05820 F2310.000
G1 X164.721 Y67.155 E5.11044
G1 X164.920 Y68.460 E5.14711
G1 X165.022 Y101.233 E6.05745
G1 X165.022 Y110.547 E6.31617
G1 X164.627 Y112.385 E6.36842
G1 X163.510 Y113.898 E6.42066
G1 X161.185 Y114.973 E6.49181
G1 X92.018 Y124.873 E8.43271
G1 X91.497 Y124.933 E8.44726
G1 X90.454 Y125.004 E8.47631
G1 X89.954 Y125.015 E8.49019
G1 X88.606 Y124.933 E8.52772
G1 X88.085 Y124.873 E8.54228
G1 X18.918 Y114.973 E10.48317
G1 X17.154 Y114.321 E10.53541
G1 X15.814 Y113.001 E10.58765
G1 X15.080 Y110.561 E10.65844
G1 X14.978 Y77.788 E11.56878
G1 X14.978 Y68.474 E11.82750
G1 X15.373 Y66.636 E11.87974
G1 X16.490 Y65.122 E11.93198
G1 X18.075 Y64.233 E11.98248
G1 X18.251 Y64.434 F8100.000
G1 X18.342 Y64.386 E11.98532 F2310.000
G1 X19.449 Y64.239 E12.01635
G1 X160.449 Y64.239 E15.93301
G1 X162.235 Y64.634 E15.98384
G1 X163.689 Y65.746 E16.03467 F2310.000
G1 X164.537 Y67.367 E16.08550
G1 X164.684 Y68.461 E16.11616
G1 X164.787 Y101.233 E17.02650
G1 X164.787 Y110.547 E17.28520
G1 X164.392 Y112.333 E17.33603
G1 X163.280 Y113.786 E17.38686
G1 X161.151 Y114.739 E17.45163
G1 X91.984 Y124.640 E19.39253
G1 X91.481 Y124.698 E19.40660
G1 X90.438 Y124.769 E19.43564
G1 X89.954 Y124.779 E19.44908
G1 X88.622 Y124.698 E19.48616
G1 X88.118 Y124.640 E19.50024
G1 X18.951 Y114.739 E21.44113
G1 X17.238 Y114.095 E21.49196
G1 X15.957 Y112.788 E21.54279
G1 X15.316 Y110.560 E21.60721
G1 X15.213 Y77.788 E22.51755
G1 X15.213 Y68.474 E22.77625
G1 X15.608 Y66.688 E22.82708
G1 X16.720 Y65.235 E22.87791
G1 X18.195 Y64.463 E22.92414
G1 E21.92414 F2400.00000
G92 E0
G1 X19.205 Y67.885 F8100.000
G1 E1.00000 F2400.00000
G1 X160.693 Y67.885 E4.93022 F2310.000
G1 X161.038 Y68.230 E4.94378
G1 X161.038 Y78.018 E5.21567 F2310.000
G1 X160.693 Y78.363 E5.22922
G1 X104.118 Y78.363 E6.80074
G1 X103.280 Y78.429 E6.82408
G1 X102.483 Y78.617 E6.84685
G1 X101.724 Y78.928 E6.86962
G1 X101.024 Y79.354 E6.89239
G1 X100.394 Y79.887 E6.91533
G1 X99.906 Y80.439 E6.93577
G1 X99.471 Y81.113 E6.95807
G1 X98.617 Y83.063 E7.01720
G1 X97.918 Y84.223 E7.05481
G1 X97.089 Y85.247 E7.09140
G1 X96.154 Y86.130 E7.12713
G1 X95.960 Y86.279 E7.13394
G1 X95.059 Y86.915 E7.16457
G1 X93.917 Y87.517 E7.20041
G1 X92.679 Y87.971 E7.23705
G1 X91.369 Y88.257 E7.27430
G1 X90.076 Y88.360 E7.31032
G1 X89.842 Y88.360 E7.31684
G1 X88.529 Y88.257 E7.35341
G1 X87.219 Y87.971 E7.39067
G1 X85.980 Y87.517 E7.42730
G1 X84.839 Y86.915 E7.46315
G1 X83.938 Y86.279 E7.49378
G1 X83.744 Y86.130 E7.50059
G1 X82.808 Y85.247 E7.53632
G1 X81.980 Y84.223 E7.57290
G1 X81.280 Y83.063 E7.61052
G1 X80.427 Y81.113 E7.66965
G1 X79.991 Y80.439 E7.69195
G1 X79.504 Y79.887 E7.71239
G1 X78.874 Y79.354 E7.73533
G1 X78.173 Y78.928 E7.75810
G1 X77.415 Y78.617 E7.78086
G1 X76.617 Y78.429 E7.80363
G1 X75.779 Y78.363 E7.82698
G1 X19.205 Y78.363 E9.39850
G1 X18.860 Y78.018 E9.41205
G1 X18.860 Y68.230 E9.68394
G1 X19.160 Y67.930 E9.69574
G1 X19.302 Y68.121 F8100.000
G1 X160.595 Y68.121 E13.62054 F2310.000
G1 X160.802 Y68.328 E13.62868
G1 X160.802 Y77.921 E13.89514
G1 X160.595 Y78.128 E13.90328
G1 X104.109 Y78.128 E15.47234
G1 X103.243 Y78.195 E15.49647
G1 X102.407 Y78.394 E15.52032
G1 X101.613 Y78.720 E15.54417
G1 X100.880 Y79.166 E15.56801
G1 X100.226 Y79.722 E15.59185
G1 X99.720 Y80.294 E15.61305
G1 X99.263 Y81.000 E15.63643
G1 X98.404 Y82.963 E15.69595
G1 X97.728 Y84.083 E15.73229
G1 X96.933 Y85.069 E15.76747
G1 X96.769 Y85.231 E15.77387
G1 X95.983 Y85.965 E15.80374
G1 X94.951 Y86.704 E15.83899
G1 X93.799 Y87.312 E15.87519
G1 X92.604 Y87.747 E15.91051
G1 X92.382 Y87.807 E15.91691
G1 X91.334 Y88.024 E15.94664
G1 X90.064 Y88.124 E15.98202
G1 X89.834 Y88.124 E15.98842
G1 X88.779 Y88.052 E16.01778
G1 X88.551 Y88.022 E16.02418
G1 X87.307 Y87.752 E16.05953
G1 X86.099 Y87.312 E16.09525
G1 X84.961 Y86.713 E16.13098
G1 X83.914 Y85.965 E16.16670
G1 X82.978 Y85.084 E16.20242
G1 X82.158 Y84.066 E16.23873
G1 X81.494 Y82.963 E16.27449
G1 X80.634 Y81.000 E16.33401
G1 X80.177 Y80.294 E16.35739
G1 X79.676 Y79.726 E16.37841
G1 X79.017 Y79.166 E16.40243
G1 X78.284 Y78.720 E16.42627
G1 X77.490 Y78.394 E16.45012
G1 X76.655 Y78.195 E16.47397
G1 X75.788 Y78.128 E16.49810
G1 X19.302 Y78.128 E18.06716
G1 X19.095 Y77.921 E18.07530
G1 X19.095 Y68.328 E18.34176
G1 X19.258 Y68.166 E18.34815
G1 X19.400 Y68.357 F8100.000
G1 X160.498 Y68.357 E22.26752 F2310.000
G1 X160.567 Y68.426 E22.27023
G1 X160.567 Y77.823 E22.53128
G1 X160.498 Y77.892 E22.53399
G1 X104.100 Y77.892 E24.10059
G1 X103.205 Y77.962 E24.12552
G1 X102.332 Y78.170 E24.15045
G1 X101.503 Y78.512 E24.17537
G1 X100.737 Y78.979 E24.20030
G1 X100.054 Y79.561 E24.22521
G1 X99.535 Y80.148 E24.24699
G1 X99.056 Y80.887 E24.27145
G1 X98.191 Y82.863 E24.33136
G1 X97.542 Y83.938 E24.36624
G1 X96.750 Y84.920 E24.40130
G1 X95.841 Y85.777 E24.43599
G1 X95.678 Y85.901 E24.44167
G1 X94.815 Y86.511 E24.47103
G1 X93.709 Y87.094 E24.50574
G1 X92.530 Y87.524 E24.54062
G1 X91.299 Y87.791 E24.57561
G1 X90.052 Y87.889 E24.61036
G1 X89.846 Y87.889 E24.61609
G1 X88.599 Y87.791 E24.65083
G1 X87.367 Y87.524 E24.68583
G1 X86.188 Y87.094 E24.72070
G1 X85.082 Y86.511 E24.75542
G1 X84.219 Y85.901 E24.78478
G1 X84.057 Y85.777 E24.79046
G1 X83.148 Y84.920 E24.82515
G1 X82.356 Y83.938 E24.86021
G1 X81.707 Y82.863 E24.89509
G1 X80.842 Y80.887 E24.95500
G1 X80.363 Y80.148 E24.97946
G1 X79.844 Y79.561 E25.00123
G1 X79.161 Y78.979 E25.02615
G1 X78.395 Y78.512 E25.05107
G1 X77.565 Y78.170 E25.07600
G1 X76.692 Y77.962 E25.10093
G1 X75.798 Y77.892 E25.12586
G1 X19.400 Y77.892 E26.69246
G1 X19.331 Y77.823 E26.69517
G1 X19.331 Y68.426 E26.95621
G1 X19.355 Y68.401 E26.95717
G1 E25.95717 F2400.00000
G92 E0
G1 X18.938 Y79.562 F8100.000
G1 X18.629 Y81.720 F8100.000
G1 X19.137 Y87.708 F8100.000
G1 X19.137 Y90.397 F8100.000
G1 X19.400 Y100.657 F8100.000
G1 E1.00000 F2400.00000
G1 X160.795 Y100.657 E4.92765 F2310.000
G1 X161.140 Y101.003 E4.94120
G1 X161.140 Y110.791 E5.21309 F2310.000
G1 X160.795 Y111.136 E5.22665
G1 X104.221 Y111.136 E6.79816
G1 X103.383 Y111.201 E6.82151
G1 X102.585 Y111.390 E6.84428
G1 X101.827 Y111.700 E6.86704
G1 X101.126 Y112.126 E6.88981
G1 X100.496 Y112.660 E6.91275
G1 X100.009 Y113.211 E6.93319
G1 X99.573 Y113.885 E6.95550
G1 X98.720 Y115.836 E7.01462
G1 X98.020 Y116.995 E7.05224
G1 X97.192 Y118.019 E7.08882
G1 X96.257 Y118.902 E7.12455
G1 X96.062 Y119.051 E7.13136
G1 X95.161 Y119.687 E7.16199
G1 X94.020 Y120.289 E7.19784
G1 X92.781 Y120.743 E7.23448
G1 X91.471 Y121.030 E7.27173
G1 X90.179 Y121.132 E7.30775
G1 X89.944 Y121.132 E7.31426
G1 X88.631 Y121.030 E7.35084
G1 X87.321 Y120.743 E7.38809
G1 X86.083 Y120.289 E7.42473
G1 X84.942 Y119.687 E7.46057
G1 X84.040 Y119.051 E7.49121
G1 X83.846 Y118.902 E7.49801
G1 X82.911 Y118.019 E7.53374
G1 X82.082 Y116.995 E7.57033
G1 X81.383 Y115.836 E7.60794
G1 X80.529 Y113.885 E7.66707
G1 X80.094 Y113.211 E7.68937
G1 X79.606 Y112.660 E7.70982
G1 X78.976 Y112.126 E7.73276
G1 X78.276 Y111.700 E7.75552
G1 X77.517 Y111.390 E7.77829
G1 X76.720 Y111.201 E7.80106
G1 X75.882 Y111.136 E7.82440
G1 X19.307 Y111.136 E9.39592
G1 X18.962 Y110.791 E9.40948
G1 X18.962 Y101.003 E9.68136
G1 X19.307 Y100.657 E9.69492
G1 X19.337 Y100.657 E9.69574
G1 X19.405 Y100.893 F8100.000
G1 X160.698 Y100.893 E13.62054 F2310.000
G1 X160.905 Y101.100 E13.62868
G1 X160.905 Y110.693 E13.89514
G1 X160.698 Y110.900 E13.90328
G1 X104.212 Y110.900 E15.47234
G1 X103.345 Y110.967 E15.49647
G1 X102.510 Y111.166 E15.52032
G1 X101.716 Y111.492 E15.54417
G1 X100.983 Y111.939 E15.56801
G1 X100.328 Y112.494 E15.59185
G1 X99.823 Y113.066 E15.61305
G1 X99.366 Y113.772 E15.63643
G1 X98.506 Y115.735 E15.69595
G1 X97.830 Y116.855 E15.73229
G1 X97.035 Y117.841 E15.76747
G1 X96.872 Y118.003 E15.77387
G1 X96.086 Y118.737 E15.80374
G1 X95.054 Y119.476 E15.83899
G1 X93.901 Y120.084 E15.87519
G1 X92.707 Y120.519 E15.91051
G1 X92.484 Y120.579 E15.91691
G1 X91.436 Y120.796 E15.94664
G1 X90.166 Y120.896 E15.98202
G1 X89.936 Y120.896 E15.98842
G1 X88.882 Y120.824 E16.01778
G1 X88.653 Y120.794 E16.02418
G1 X87.410 Y120.524 E16.05953
G1 X86.201 Y120.084 E16.09525
G1 X85.063 Y119.485 E16.13098
G1 X84.017 Y118.737 E16.16670
G1 X83.080 Y117.856 E16.20242
G1 X82.260 Y116.838 E16.23873
G1 X81.596 Y115.735 E16.27449
G1 X80.737 Y113.772 E16.33401
G1 X80.280 Y113.066 E16.35739
G1 X79.779 Y112.499 E16.37841
G1 X79.120 Y111.939 E16.40243
G1 X78.387 Y111.492 E16.42627
G1 X77.593 Y111.166 E16.45012
G1 X76.757 Y110.967 E16.47397
G1 X75.891 Y110.900 E16.49810
G1 X19.405 Y110.900 E18.06716
G1 X19.198 Y110.693 E18.07530
G1 X19.198 Y101.100 E18.34176
G1 X19.360 Y100.938 E18.34815
G1 X19.502 Y101.129 F8100.000
G1 X160.600 Y101.129 E22.26752 F2310.000
G1 X160.669 Y101.198 E22.27023
G1 X160.669 Y110.595 E22.53128
G1 X160.600 Y110.664 E22.53399
G1 X104.202 Y110.664 E24.10059
G1 X103.308 Y110.734 E24.12552
G1 X102.435 Y110.942 E24.15045
G1 X101.605 Y111.284 E24.17537
G1 X100.839 Y111.751 E24.20030
G1 X100.156 Y112.333 E24.22521
G1 X99.637 Y112.920 E24.24699
G1 X99.158 Y113.659 E24.27145
G1 X98.293 Y115.635 E24.33136
G1 X97.644 Y116.710 E24.36624
G1 X96.852 Y117.692 E24.40130
G1 X95.943 Y118.549 E24.43599
G1 X95.781 Y118.673 E24.44167
G1 X94.918 Y119.283 E24.47103
G1 X93.812 Y119.866 E24.50574
G1 X92.633 Y120.296 E24.54062
G1 X91.401 Y120.563 E24.57561
G1 X90.154 Y120.661 E24.61036
G1 X89.948 Y120.661 E24.61609
G1 X88.701 Y120.563 E24.65083
G1 X87.470 Y120.296 E24.68583
G1 X86.291 Y119.866 E24.72070
G1 X85.185 Y119.283 E24.75542
G1 X84.322 Y118.673 E24.78478
G1 X84.159 Y118.549 E24.79046
G1 X83.250 Y117.692 E24.82515
G1 X82.458 Y116.710 E24.86021
G1 X81.809 Y115.635 E24.89509
G1 X80.944 Y113.659 E24.95500
G1 X80.465 Y112.920 E24.97946
G1 X79.946 Y112.333 E25.00123
G1 X79.263 Y111.751 E25.02615
G1 X78.497 Y111.284 E25.05107
G1 X77.668 Y110.942 E25.07600
G1 X76.795 Y110.734 E25.10093
G1 X75.900 Y110.664 E25.12586
G1 X19.502 Y110.664 E26.69246
G1 X19.433 Y110.595 E26.69517
G1 X19.433 Y101.198 E26.95621
G1 X19.458 Y101.173 E26.95717
G1 E25.95717 F2400.00000
G92 E0
G1 X19.599 Y77.624 F8100.000
G1 E1.00000 F2400.00000
G1 X19.599 Y68.624 E1.25000 F1470.000
G1 X160.299 Y68.624 E5.15833
G1 X160.299 Y77.624 E5.40833
G1 X104.085 Y77.624 E6.96983
G1 X103.155 Y77.698 E6.99575
G1 X102.241 Y77.917 E7.02184
G1 X101.374 Y78.276 E7.04793
G1 X100.573 Y78.767 E7.07401
G1 X99.860 Y79.375 E7.10005
G1 X99.326 Y79.979 E7.12243
G1 X98.815 Y80.766 E7.14852
G1 X97.950 Y82.743 E7.20846
G1 X97.320 Y83.788 E7.24234
G1 X96.554 Y84.736 E7.27621
G1 X95.666 Y85.574 E7.31013
G1 X95.519 Y85.685 E7.31523
G1 X94.676 Y86.282 E7.34394
G1 X93.597 Y86.850 E7.37781
G1 X92.451 Y87.268 E7.41168
G1 X91.260 Y87.526 E7.44554
G1 X90.040 Y87.621 E7.47953
G1 X88.638 Y87.526 E7.51857
G1 X87.446 Y87.268 E7.55243
G1 X86.301 Y86.850 E7.58630
G1 X85.222 Y86.282 E7.62017
G1 X84.378 Y85.685 E7.64887
G1 X84.232 Y85.574 E7.65398
G1 X83.343 Y84.736 E7.68790
G1 X82.578 Y83.788 E7.72177
G1 X81.947 Y82.743 E7.75565
G1 X81.083 Y80.766 E7.81559
G1 X80.572 Y79.979 E7.84168
G1 X80.038 Y79.375 E7.86406
G1 X79.325 Y78.767 E7.89010
G1 X78.524 Y78.276 E7.91618
G1 X77.656 Y77.917 E7.94227
G1 X76.743 Y77.698 E7.96835
G1 X75.813 Y77.624 E7.99428
G1 X19.662 Y77.624 E9.55402
G1 X19.809 Y77.261 F8100.000
G1 X19.834 Y77.389 F8100.000
G1 X19.834 Y68.860 E9.79093 F2100.000
G1 X160.063 Y68.860 E13.68618
G1 X160.063 Y77.389 E13.92309
G1 X104.076 Y77.389 E15.47829
G1 X103.118 Y77.464 E15.50499
G1 X102.168 Y77.692 E15.53211
G1 X101.266 Y78.066 E15.55923
G1 X100.434 Y78.575 E15.58634
G1 X99.694 Y79.207 E15.61335
G1 X99.138 Y79.836 E15.63668
G1 X98.607 Y80.654 E15.66379
G1 X97.741 Y82.635 E15.72383
G1 X97.127 Y83.652 E15.75684
G1 X96.381 Y84.576 E15.78982
G1 X95.513 Y85.394 E15.82295
G1 X94.552 Y86.081 E15.85575
G1 X93.501 Y86.634 E15.88876
G1 X92.385 Y87.041 E15.92174
G1 X91.225 Y87.292 E15.95471
G1 X90.031 Y87.386 E15.98799
G1 X88.672 Y87.292 E16.02582
G1 X87.512 Y87.041 E16.05880
G1 X86.397 Y86.634 E16.09178
G1 X85.345 Y86.081 E16.12478
G1 X84.517 Y85.495 E16.15295
G1 X84.384 Y85.394 E16.15759
G1 X83.517 Y84.576 E16.19072
G1 X82.771 Y83.652 E16.22370
G1 X82.157 Y82.635 E16.25670
G1 X81.291 Y80.654 E16.31675
G1 X80.760 Y79.836 E16.34386
G1 X80.203 Y79.207 E16.36718
G1 X79.464 Y78.575 E16.39420
G1 X78.631 Y78.066 E16.42131
G1 X77.729 Y77.692 E16.44842
G1 X76.780 Y77.464 E16.47554
G1 X75.822 Y77.389 E16.50224
G1 X19.897 Y77.389 E18.05570
G1 X75.845 Y76.774 F8100.000
G1 X82.376 Y74.153 F8100.000
G1 X82.945 Y76.543 F8100.000
G1 X83.344 Y78.002 F8100.000
G1 X83.417 Y78.303 F8100.000
G1 X83.423 Y78.331 F8100.000
G1 X85.841 Y78.624 F8100.000
G1 X86.698 Y78.624 F8100.000
G1 X86.792 Y77.846 E18.07747 F2100.000
G1 X87.070 Y77.114 E18.09924
G1 X87.515 Y76.469 E18.12101
G1 X88.102 Y75.949 E18.14278
G1 X88.796 Y75.585 E18.16455
G1 X89.557 Y75.397 E18.18632
G1 X90.341 Y75.397 E18.20809 F2100.000
G1 X91.102 Y75.585 E18.22986
G1 X91.806 Y75.954 E18.25196
G1 X92.382 Y76.469 E18.27342
G1 X92.827 Y77.114 E18.29519
G1 X93.105 Y77.846 E18.31696
G1 X93.200 Y78.624 E18.33873
G1 X93.105 Y79.402 E18.36050
G1 X92.827 Y80.135 E18.38227
G1 X92.382 Y80.780 E18.40404
G1 X91.796 Y81.300 E18.42581
G1 X91.102 Y81.664 E18.44758
G1 X90.341 Y81.852 E18.46935
G1 X89.557 Y81.852 E18.49113
G1 X88.796 Y81.664 E18.51290
G1 X88.102 Y81.300 E18.53467
G1 X87.530 Y80.793 E18.55591
G1 X87.070 Y80.136 E18.57818
G1 X86.792 Y79.402 E18.59997
G1 X86.705 Y78.687 E18.61999
G1 X86.343 Y78.400 F8100.000
G1 X86.464 Y78.596 F8100.000
G1 X86.562 Y77.790 E18.64255 F2100.000
G1 X86.860 Y77.003 E18.66591
G1 X87.338 Y76.311 E18.68927
G1 X87.967 Y75.754 E18.71263
G1 X88.712 Y75.363 E18.73599
G1 X89.528 Y75.161 E18.75935
G1 X90.369 Y75.161 E18.78271 F2100.000
G1 X91.186 Y75.363 E18.80607
G1 X91.941 Y75.759 E18.82977
G1 X92.560 Y76.312 E18.85283
G1 X93.038 Y77.003 E18.87617
G1 X93.336 Y77.790 E18.89953
G1 X93.437 Y78.624 E18.92289
G1 X93.336 Y79.459 E18.94625
G1 X93.038 Y80.246 E18.96961
G1 X92.560 Y80.938 E18.99297
G1 X91.930 Y81.495 E19.01633
G1 X91.186 Y81.886 E19.03969
G1 X90.369 Y82.087 E19.06305
G1 X89.528 Y82.087 E19.08641
G1 X88.712 Y81.886 E19.10977
G1 X87.967 Y81.495 E19.13313
G1 X87.352 Y80.951 E19.15594
G1 X86.860 Y80.247 E19.17980
G1 X86.562 Y79.459 E19.20320
G1 X86.464 Y78.659 E19.22560
G1 X86.469 Y79.642 F8100.000
G1 X75.817 Y68.990 E19.64407 F2688.000
G1 X76.151 Y68.990 E19.65333
G1 X86.397 Y79.237 E20.05586
G1 X86.351 Y78.857 E20.06648
G1 X76.484 Y68.990 E20.45411
G1 X76.817 Y68.990 E20.46337
G1 X86.347 Y78.521 E20.83778
G1 X86.383 Y78.223 E20.84609
G1 X77.150 Y68.990 E21.20882
G1 X77.484 Y68.990 E21.21808
G1 X86.420 Y77.926 E21.56914
G1 X86.487 Y77.660 E21.57676
G1 X77.817 Y68.990 E21.91737
G1 X78.150 Y68.990 E21.92663
G1 X86.578 Y77.419 E22.25774
G1 X86.670 Y77.177 E22.26492
G1 X78.483 Y68.990 E22.58655
G1 X78.817 Y68.990 E22.59581
G1 X86.768 Y76.942 E22.90818
G1 X86.904 Y76.745 E22.91484
G1 X79.150 Y68.990 E23.21947
G1 X79.483 Y68.990 E23.22872
G1 X87.040 Y76.547 E23.52561
G1 X87.176 Y76.350 E23.53226
G1 X79.816 Y68.990 E23.82140
G1 X80.150 Y68.990 E23.83066
G1 X87.330 Y76.171 E24.11277
G1 X87.507 Y76.015 E24.11932
G1 X80.483 Y68.990 E24.39528
G1 X80.816 Y68.990 E24.40454
G1 X87.684 Y75.858 E24.67434
G1 X87.860 Y75.701 E24.68090
G1 X81.149 Y68.990 E24.94455
G1 X81.482 Y68.990 E24.95381
G1 X88.066 Y75.574 E25.21246
G1 X88.285 Y75.459 E25.21932
