; generated by Slic3r 1.2.9 on 2016-08-05 at 12:11:22

; external perimeters extrusion width = 0.42mm
; perimeters extrusion width = 0.53mm
; infill extrusion width = 0.53mm
; solid infill extrusion width = 0.53mm
; top infill extrusion width = 0.53mm

M104 S245 ; set temperature
M220 S100 ; reset speeds
M116 ; wait for all temperatures
G0 Z10 ; drive Z to 10mm height
G28 X0 Y0 ; home X and Y
G0 Z0 X30 Y30 F13000
M109 S245 ; wait for temperature to be reached
G21 ; set units to millimeters
G90 ; use absolute coordinates
M82 ; use absolute distances for extrusion
G92 E0
G1 E-1.00000 F2400.00000
G92 E0
G1 Z0.300 F8100.000
G1 X51.660 Y62.839 F8100.000
G1 E1.00000 F2400.00000
G1 X53.317 Y61.850 E1.05362 F2310.000
G1 X54.850 Y61.593 E1.09680
G1 X116.150 Y61.593 E2.79958
G1 X118.039 Y61.989 E2.85319
G1 X119.611 Y63.110 E2.90681 F2310.000
G1 X120.600 Y64.767 E2.96042
G1 X120.857 Y66.300 E3.00360
G1 X120.857 Y87.000 E3.57860
G1 X120.461 Y88.889 E3.63222
G1 X119.522 Y90.284 E3.67892
G1 X93.522 Y116.984 E4.71414
G1 X91.921 Y118.061 E4.76775
G1 X90.150 Y118.407 E4.81787
G1 X80.850 Y118.407 E5.07620
G1 X78.961 Y118.011 E5.12981
G1 X77.478 Y116.984 E5.17993
G1 X51.478 Y90.284 E6.21515
G1 X50.443 Y88.654 E6.26876
G1 X50.143 Y87.000 E6.31546
G1 X50.143 Y66.300 E6.89046
G1 X50.539 Y64.411 E6.94408
G1 X51.623 Y62.891 E6.99594
G1 X51.861 Y62.988 F8100.000
G1 X51.891 Y62.948 E6.99733 F2310.000
G1 X53.531 Y62.028 E7.04957
G1 X54.850 Y61.829 E7.08662
G1 X116.150 Y61.829 E8.78940
G1 X117.989 Y62.224 E8.84164
G1 X119.502 Y63.341 E8.89388 F2310.000
G1 X120.422 Y64.981 E8.94612
G1 X120.621 Y66.300 E8.98318
G1 X120.621 Y87.000 E9.55818
G1 X120.226 Y88.839 E9.61042
G1 X119.353 Y90.119 E9.65346
G1 X93.353 Y116.819 E10.68868
G1 X91.787 Y117.861 E10.74092
G1 X90.150 Y118.171 E10.78721
G1 X80.850 Y118.171 E11.04555
G1 X79.011 Y117.776 E11.09779
G1 X77.647 Y116.819 E11.14408
G1 X51.647 Y90.119 E12.17930
G1 X50.647 Y88.526 E12.23154
G1 X50.379 Y87.000 E12.27458
G1 X50.379 Y66.300 E12.84958
G1 X50.774 Y64.461 E12.90182
G1 X51.824 Y63.039 E12.95093
G1 X52.060 Y63.140 F8100.000
G1 X52.122 Y63.060 E12.95374 F2310.000
G1 X53.743 Y62.212 E13.00457
G1 X54.850 Y62.064 E13.03559
G1 X116.150 Y62.064 E14.73837
G1 X117.937 Y62.460 E14.78920
G1 X119.390 Y63.572 E14.84003 F2310.000
G1 X120.238 Y65.193 E14.89086
G1 X120.386 Y66.300 E14.92188
G1 X120.386 Y87.000 E15.49688
G1 X119.990 Y88.787 E15.54771
G1 X119.185 Y89.955 E15.58713
G1 X93.185 Y116.655 E16.62235
G1 X91.655 Y117.659 E16.67318
G1 X90.150 Y117.936 E16.71568
G1 X80.850 Y117.936 E16.97401
G1 X79.063 Y117.540 E17.02484
G1 X77.815 Y116.655 E17.06735
G1 X51.815 Y89.955 E18.10256
G1 X50.852 Y88.399 E18.15339
G1 X50.614 Y87.000 E18.19282
G1 X50.614 Y66.300 E18.76782
G1 X51.010 Y64.513 E18.81865
G1 X52.022 Y63.190 E18.86492
G1 E17.86492 F2400.00000
G92 E0
G1 X106.261 Y66.056 F8100.000
G1 E1.00000 F2400.00000
G1 X106.606 Y65.711 E1.01356 F2310.000
G1 X116.394 Y65.711 E1.28544
G1 X116.739 Y66.056 E1.29900
G1 X116.739 Y87.244 E1.88755 F2310.000
G1 X116.394 Y87.589 E1.90111
G1 X106.606 Y87.589 E2.17300
G1 X106.261 Y87.244 E2.18655
G1 X106.261 Y66.119 E2.77336
G1 X106.497 Y66.154 F8100.000
G1 X106.704 Y65.947 E2.78149 F2310.000
G1 X116.296 Y65.947 E3.04796
G1 X116.503 Y66.154 E3.05609
G1 X116.503 Y87.146 E3.63922
G1 X116.296 Y87.353 E3.64736
G1 X106.704 Y87.353 E3.91382
G1 X106.497 Y87.146 E3.92196
G1 X106.497 Y66.217 E4.50334
G1 X106.732 Y66.251 F8100.000
G1 X106.801 Y66.182 E4.50605 F2310.000
G1 X116.199 Y66.182 E4.76709
G1 X116.268 Y66.251 E4.76980
G1 X116.268 Y87.049 E5.34752
G1 X116.199 Y87.118 E5.35023
G1 X106.801 Y87.118 E5.61127
G1 X106.732 Y87.049 E5.61398
G1 X106.732 Y66.314 E6.18994
G1 E5.18994 F2400.00000
G92 E0
G1 X105.000 Y65.886 F8100.000
G1 X100.414 Y64.300 F8100.000
G1 X77.929 Y64.815 F8100.000
G1 X77.000 Y65.886 F8100.000
G1 X75.000 Y65.886 F8100.000
G1 X64.739 Y66.251 F8100.000
G1 E1.00000 F2400.00000
G1 X64.739 Y87.244 E1.58313 F2310.000
G1 X64.394 Y87.589 E1.59669
G1 X54.606 Y87.589 E1.86858
G1 X54.261 Y87.244 E1.88213
G1 X54.261 Y66.056 E2.47069
G1 X54.606 Y65.711 E2.48424
G1 X64.394 Y65.711 E2.75613
G1 X64.739 Y66.056 E2.76969
G1 X64.739 Y66.188 E2.77336 F2310.000
G1 X64.296 Y65.947 F8100.000
G1 X64.503 Y66.154 E2.78149 F2310.000
G1 X64.503 Y87.146 E3.36462
G1 X64.296 Y87.353 E3.37276
G1 X54.704 Y87.353 E3.63922
G1 X54.497 Y87.146 E3.64736
G1 X54.497 Y66.154 E4.23049
G1 X54.704 Y65.947 E4.23862
G1 X64.233 Y65.947 E4.50334
G1 X64.268 Y66.251 F8100.000
G1 X64.268 Y87.049 E5.08105 F2310.000
G1 X64.199 Y87.118 E5.08376
G1 X54.801 Y87.118 E5.34481
G1 X54.732 Y87.049 E5.34752
G1 X54.732 Y66.251 E5.92523
G1 X54.801 Y66.182 E5.92794
G1 X64.199 Y66.182 E6.18898
G1 X64.223 Y66.207 E6.18994
G1 E5.18994 F2400.00000
G92 E0
G1 X74.414 Y65.300 F8100.000
G1 X76.071 Y64.815 F8100.000
G1 X77.000 Y65.886 F8100.000
G1 X79.000 Y65.886 F8100.000
G1 X80.261 Y66.251 F8100.000
G1 E1.00000 F2400.00000
G1 X80.261 Y66.056 E1.00542 F2310.000
G1 X80.606 Y65.711 E1.01898
G1 X90.394 Y65.711 E1.29087
G1 X90.739 Y66.056 E1.30442
G1 X90.739 Y87.244 E1.89298 F2310.000
G1 X90.394 Y87.589 E1.90653
G1 X80.606 Y87.589 E2.17842
G1 X80.261 Y87.244 E2.19197
G1 X80.261 Y66.314 E2.77336
G1 X80.497 Y66.154 F8100.000
G1 X80.704 Y65.947 E2.78149 F2310.000
G1 X90.296 Y65.947 E3.04796
G1 X90.503 Y66.154 E3.05609
G1 X90.503 Y87.146 E3.63922
G1 X90.296 Y87.353 E3.64736
G1 X80.704 Y87.353 E3.91382
G1 X80.497 Y87.146 E3.92196
G1 X80.497 Y66.217 E4.50334
G1 X80.732 Y66.251 F8100.000
G1 X80.801 Y66.182 E4.50605 F2310.000
G1 X90.199 Y66.182 E4.76709
G1 X90.268 Y66.251 E4.76980
G1 X90.268 Y87.049 E5.34752
G1 X90.199 Y87.118 E5.35023
G1 X80.801 Y87.118 E5.61127
G1 X80.732 Y87.049 E5.61398
G1 X80.732 Y66.314 E6.18994
G1 E5.18994 F2400.00000
G92 E0
G1 X79.000 Y87.414 F8100.000
G1 X77.000 Y89.414 F8100.000
G1 X77.586 Y90.000 F8100.000
G1 X79.586 Y92.000 F8100.000
G1 X80.732 Y92.411 F8100.000
G1 E1.00000 F2400.00000
G1 X90.394 Y92.411 E1.26838 F2310.000
G1 X90.739 Y92.756 E1.28194
G1 X90.739 Y113.944 E1.87049 F2310.000
G1 X90.394 Y114.289 E1.88405
G1 X80.606 Y114.289 E2.15594
G1 X80.261 Y113.944 E2.16949
G1 X80.261 Y92.756 E2.75805
G1 X80.606 Y92.411 E2.77160
G1 X80.669 Y92.411 E2.77336
G1 X80.497 Y92.854 F8100.000
G1 X80.704 Y92.647 E2.78149 F2310.000
G1 X90.296 Y92.647 E3.04796
G1 X90.503 Y92.854 E3.05609
G1 X90.503 Y113.846 E3.63922
G1 X90.296 Y114.053 E3.64736
G1 X80.704 Y114.053 E3.91382
G1 X80.497 Y113.846 E3.92196
G1 X80.497 Y92.917 E4.50334
G1 X80.732 Y92.951 F8100.000
G1 X80.801 Y92.882 E4.50605 F2310.000
G1 X90.199 Y92.882 E4.76709
G1 X90.268 Y92.951 E4.76980
G1 X90.268 Y113.749 E5.34752
G1 X90.199 Y113.818 E5.35023
G1 X80.801 Y113.818 E5.61127
G1 X80.732 Y113.749 E5.61398
G1 X80.732 Y93.014 E6.18994
G1 E5.18994 F2400.00000
G92 E0
G1 X90.000 Y86.850 F8100.000
G1 E1.00000 F2400.00000
G1 X81.000 Y86.850 E1.25000 F1470.000
G1 X81.000 Y66.450 E1.81667
G1 X90.000 Y66.450 E2.06667
G1 X90.000 Y86.787 E2.63159
G1 X89.636 Y86.640 F8100.000
G1 X89.764 Y86.614 F8100.000
G1 X81.236 Y86.614 E2.86850 F2100.000
G1 X81.236 Y66.686 E3.42207
G1 X89.764 Y66.686 E3.65898
G1 X89.764 Y86.551 E4.21081
G1 X81.366 Y86.344 F8100.000
G1 X81.506 Y86.484 E4.21637 F2688.000
G1 X81.843 Y86.484 E4.22586
G1 X81.366 Y86.007 E4.24483
G1 X81.366 Y85.670 E4.25431
G1 X82.180 Y86.484 E4.28670
G1 X82.518 Y86.484 E4.29618
G1 X81.366 Y85.332 E4.34198
G1 X81.366 Y84.995 E4.35146
G1 X82.855 Y86.484 E4.41067
G1 X83.192 Y86.484 E4.42015
G1 X81.366 Y84.658 E4.49277
G1 X81.366 Y84.321 E4.50225
G1 X83.529 Y86.484 E4.58828
G1 X83.867 Y86.484 E4.59776
G1 X81.366 Y83.983 E4.69720
G1 X81.366 Y83.646 E4.70668
G1 X84.204 Y86.484 E4.81953
G1 X84.541 Y86.484 E4.82902
G1 X81.366 Y83.309 E4.95528
G1 X81.366 Y82.971 E4.96476
G1 X84.879 Y86.484 E5.10443
G1 X85.216 Y86.484 E5.11391
G1 X81.366 Y82.634 E5.26700
G1 X81.366 Y82.297 E5.27648
G1 X85.553 Y86.484 E5.44297
G1 X85.890 Y86.484 E5.45246
G1 X81.366 Y81.960 E5.63236
G1 X81.366 Y81.622 E5.64184
G1 X86.228 Y86.484 E5.83516
G1 X86.565 Y86.484 E5.84464
G1 X81.366 Y81.285 E6.05137
G1 X81.366 Y80.948 E6.06085
G1 X86.902 Y86.484 E6.28099
G1 X87.239 Y86.484 E6.29047
G1 X81.366 Y80.611 E6.52402
G1 X81.366 Y80.273 E6.53350
G1 X87.577 Y86.484 E6.78046
G1 X87.914 Y86.484 E6.78994
G1 X81.366 Y79.936 E7.05031
G1 X81.366 Y79.599 E7.05979
G1 X88.251 Y86.484 E7.33357
G1 X88.589 Y86.484 E7.34305
G1 X81.366 Y79.261 E7.63025
G1 X81.366 Y78.924 E7.63973
G1 X88.926 Y86.484 E7.94033
G1 X89.263 Y86.484 E7.94981
G1 X81.366 Y78.587 E8.26383
G1 X81.366 Y78.250 E8.27331
G1 X89.597 Y86.481 E8.60061
G1 X89.634 Y86.181 E8.60912
G1 X81.366 Y77.912 E8.93788
G1 X81.366 Y77.575 E8.94736
G1 X89.634 Y85.843 E9.27613
G1 X89.634 Y85.506 E9.28561
G1 X81.366 Y77.238 E9.61437
G1 X81.366 Y76.900 E9.62386
G1 X89.634 Y85.169 E9.95262
G1 X89.634 Y84.831 E9.96210
G1 X81.366 Y76.563 E10.29087
G1 X81.366 Y76.226 E10.30035
G1 X89.634 Y84.494 E10.62911
G1 X89.634 Y84.157 E10.63860
G1 X81.366 Y75.889 E10.96736
G1 X81.366 Y75.551 E10.97684
G1 X89.634 Y83.820 E11.30561
G1 X89.634 Y83.482 E11.31509
G1 X81.366 Y75.214 E11.64385
G1 X81.366 Y74.877 E11.65334
G1 X89.634 Y83.145 E11.98210
G1 X89.634 Y82.808 E11.99158
G1 X81.366 Y74.540 E12.32035
G1 X81.366 Y74.202 E12.32983
G1 X89.634 Y82.471 E12.65859
G1 X89.634 Y82.133 E12.66808
G1 X81.366 Y73.865 E12.99684
G1 X81.366 Y73.528 E13.00632
G1 X89.634 Y81.796 E13.33509
G1 X89.634 Y81.459 E13.34457
G1 X81.366 Y73.190 E13.67333
G1 X81.366 Y72.853 E13.68281
G1 X89.634 Y81.121 E14.01158
G1 X89.634 Y80.784 E14.02106
G1 X81.366 Y72.516 E14.34982
G1 X81.366 Y72.179 E14.35931
G1 X89.634 Y80.447 E14.68807
G1 X89.634 Y80.110 E14.69755
G1 X81.366 Y71.841 E15.02632
G1 X81.366 Y71.504 E15.03580
G1 X89.634 Y79.772 E15.36456
G1 X89.634 Y79.435 E15.37405
G1 X81.366 Y71.167 E15.70281
G1 X81.366 Y70.830 E15.71229
G1 X89.634 Y79.098 E16.04106
G1 X89.634 Y78.760 E16.05054
G1 X81.366 Y70.492 E16.37930
G1 X81.366 Y70.155 E16.38879
G1 X89.634 Y78.423 E16.71755
G1 X89.634 Y78.086 E16.72703
G1 X81.366 Y69.818 E17.05580
G1 X81.366 Y69.480 E17.06528
G1 X89.634 Y77.749 E17.39404
G1 X89.634 Y77.411 E17.40353
G1 X81.366 Y69.143 E17.73229
G1 X81.366 Y68.806 E17.74177
G1 X89.634 Y77.074 E18.07054
G1 X89.634 Y76.737 E18.08002
G1 X81.366 Y68.469 E18.40878
G1 X81.366 Y68.131 E18.41827
G1 X89.634 Y76.400 E18.74703
G1 X89.634 Y76.062 E18.75651
G1 X81.366 Y67.794 E19.08528
G1 X81.366 Y67.457 E19.09476
G1 X89.634 Y75.725 E19.42352
G1 X89.634 Y75.388 E19.43301
G1 X81.366 Y67.120 E19.76177
G1 X81.403 Y66.819 E19.77028
G1 X89.634 Y75.050 E20.09758
G1 X89.634 Y74.713 E20.10706
G1 X81.737 Y66.816 E20.42108
G1 X82.074 Y66.816 E20.43056
G1 X89.634 Y74.376 E20.73116
G1 X89.634 Y74.039 E20.74065
G1 X82.411 Y66.816 E21.02784
G1 X82.749 Y66.816 E21.03732
G1 X89.634 Y73.701 E21.31110
G1 X89.634 Y73.364 E21.32059
G1 X83.086 Y66.816 E21.58096
G1 X83.423 Y66.816 E21.59044
G1 X89.634 Y73.027 E21.83740
G1 X89.634 Y72.690 E21.84688
G1 X83.760 Y66.816 E22.08043
G1 X84.098 Y66.816 E22.08992
G1 X89.634 Y72.352 E22.31006
G1 X89.634 Y72.015 E22.31954
G1 X84.435 Y66.816 E22.52627
G1 X84.772 Y66.816 E22.53575
G1 X89.634 Y71.678 E22.72907
G1 X89.634 Y71.340 E22.73855
G1 X85.110 Y66.816 E22.91846
G1 X85.447 Y66.816 E22.92794
G1 X89.634 Y71.003 E23.09443
G1 X89.634 Y70.666 E23.10392
G1 X85.784 Y66.816 E23.25700
G1 X86.121 Y66.816 E23.26648
G1 X89.634 Y70.329 E23.40616
G1 X89.634 Y69.991 E23.41564
G1 X86.459 Y66.816 E23.54190
G1 X86.796 Y66.816 E23.55139
G1 X89.634 Y69.654 E23.66424
G1 X89.634 Y69.317 E23.67372
G1 X87.133 Y66.816 E23.77316
G1 X87.470 Y66.816 E23.78265
G1 X89.634 Y68.980 E23.86868
G1 X89.634 Y68.642 E23.87816
G1 X87.808 Y66.816 E23.95078
G1 X88.145 Y66.816 E23.96026
G1 X89.634 Y68.305 E24.01947
G1 X89.634 Y67.968 E24.02895
G1 X88.482 Y66.816 E24.07475
G1 X88.820 Y66.816 E24.08423
G1 X89.634 Y67.630 E24.11662
G1 X89.634 Y67.293 E24.12610
G1 X89.157 Y66.816 E24.14508
G1 X89.494 Y66.816 E24.15456
G1 X89.634 Y66.956 E24.16013
G1 E23.16013 F2400.00000
G92 E0
G1 X101.000 Y87.414 F8100.000
G1 X103.000 Y90.000 F8100.000
G1 X103.293 Y90.293 F8100.000
G1 X105.586 Y88.000 F8100.000
G1 X116.000 Y86.850 F8100.000
G1 E1.00000 F2400.00000
G1 X107.000 Y86.850 E1.25000 F1470.000
G1 X107.000 Y66.450 E1.81667
G1 X116.000 Y66.450 E2.06667
G1 X116.000 Y86.787 E2.63159
G1 X115.636 Y86.640 F8100.000
G1 X115.764 Y86.614 F8100.000
G1 X107.236 Y86.614 E2.86850 F2100.000
G1 X107.236 Y66.686 E3.42207
G1 X115.764 Y66.686 E3.65898
G1 X115.764 Y86.551 E4.21081
G1 X107.366 Y86.344 F8100.000
G1 X107.506 Y86.484 E4.21637 F2688.000
G1 X107.843 Y86.484 E4.22586
G1 X107.366 Y86.007 E4.24483
G1 X107.366 Y85.670 E4.25431
G1 X108.180 Y86.484 E4.28670
G1 X108.518 Y86.484 E4.29618
G1 X107.366 Y85.332 E4.34198
G1 X107.366 Y84.995 E4.35146
G1 X108.855 Y86.484 E4.41067
G1 X109.192 Y86.484 E4.42015
G1 X107.366 Y84.658 E4.49277
G1 X107.366 Y84.321 E4.50225
G1 X109.529 Y86.484 E4.58828
G1 X109.867 Y86.484 E4.59776
G1 X107.366 Y83.983 E4.69720
G1 X107.366 Y83.646 E4.70668
G1 X110.204 Y86.484 E4.81953
G1 X110.541 Y86.484 E4.82902
G1 X107.366 Y83.309 E4.95528
G1 X107.366 Y82.971 E4.96476
G1 X110.879 Y86.484 E5.10443
G1 X111.216 Y86.484 E5.11391
G1 X107.366 Y82.634 E5.26700
G1 X107.366 Y82.297 E5.27648
G1 X111.553 Y86.484 E5.44297
G1 X111.890 Y86.484 E5.45246
G1 X107.366 Y81.960 E5.63236
G1 X107.366 Y81.622 E5.64184
G1 X112.228 Y86.484 E5.83516
G1 X112.565 Y86.484 E5.84464
G1 X107.366 Y81.285 E6.05137
G1 X107.366 Y80.948 E6.06085
G1 X112.902 Y86.484 E6.28099
G1 X113.239 Y86.484 E6.29047
G1 X107.366 Y80.611 E6.52402
G1 X107.366 Y80.273 E6.53350
G1 X113.577 Y86.484 E6.78046
G1 X113.914 Y86.484 E6.78994
G1 X107.366 Y79.936 E7.05031
G1 X107.366 Y79.599 E7.05979
G1 X114.251 Y86.484 E7.33357
G1 X114.589 Y86.484 E7.34305
G1 X107.366 Y79.261 E7.63025
G1 X107.366 Y78.924 E7.63973
G1 X114.926 Y86.484 E7.94033
G1 X115.263 Y86.484 E7.94981
G1 X107.366 Y78.587 E8.26383
G1 X107.366 Y78.250 E8.27331
G1 X115.597 Y86.481 E8.60061
G1 X115.634 Y86.181 E8.60912
G1 X107.366 Y77.912 E8.93788
G1 X107.366 Y77.575 E8.94736
G1 X115.634 Y85.843 E9.27613
G1 X115.634 Y85.506 E9.28561
G1 X107.366 Y77.238 E9.61437
G1 X107.366 Y76.900 E9.62386
G1 X115.634 Y85.169 E9.95262
G1 X115.634 Y84.831 E9.96210
G1 X107.366 Y76.563 E10.29087
G1 X107.366 Y76.226 E10.30035
G1 X115.634 Y84.494 E10.62911
G1 X115.634 Y84.157 E10.63860
G1 X107.366 Y75.889 E10.96736
G1 X107.366 Y75.551 E10.97684
G1 X115.634 Y83.820 E11.30561
G1 X115.634 Y83.482 E11.31509
G1 X107.366 Y75.214 E11.64385
G1 X107.366 Y74.877 E11.65334
G1 X115.634 Y83.145 E11.98210
G1 X115.634 Y82.808 E11.99158
G1 X107.366 Y74.540 E12.32035
G1 X107.366 Y74.202 E12.32983
G1 X115.634 Y82.471 E12.65859
G1 X115.634 Y82.133 E12.66808
G1 X107.366 Y73.865 E12.99684
G1 X107.366 Y73.528 E13.00632
G1 X115.634 Y81.796 E13.33509
G1 X115.634 Y81.459 E13.34457
G1 X107.366 Y73.190 E13.67333
G1 X107.366 Y72.853 E13.68281
G1 X115.634 Y81.121 E14.01158
G1 X115.634 Y80.784 E14.02106
G1 X107.366 Y72.516 E14.34982
G1 X107.366 Y72.179 E14.35931
G1 X115.634 Y80.447 E14.68807
G1 X115.634 Y80.110 E14.69755
G1 X107.366 Y71.841 E15.02632
G1 X107.366 Y71.504 E15.03580
G1 X115.634 Y79.772 E15.36456
G1 X115.634 Y79.435 E15.37405
G1 X107.366 Y71.167 E15.70281
G1 X107.366 Y70.830 E15.71229
G1 X115.634 Y79.098 E16.04106
G1 X115.634 Y78.760 E16.05054
G1 X107.366 Y70.492 E16.37930
G1 X107.366 Y70.155 E16.38879
G1 X115.634 Y78.423 E16.71755
G1 X115.634 Y78.086 E16.72703
G1 X107.366 Y69.818 E17.05580
G1 X107.366 Y69.480 E17.06528
G1 X115.634 Y77.749 E17.39404
G1 X115.634 Y77.411 E17.40353
G1 X107.366 Y69.143 E17.73229
G1 X107.366 Y68.806 E17.74177
G1 X115.634 Y77.074 E18.07054
G1 X115.634 Y76.737 E18.08002
G1 X107.366 Y68.469 E18.40878
G1 X107.366 Y68.131 E18.41827
G1 X115.634 Y76.400 E18.74703
G1 X115.634 Y76.062 E18.75651
G1 X107.366 Y67.794 E19.08528
G1 X107.366 Y67.457 E19.09476
G1 X115.634 Y75.725 E19.42352
G1 X115.634 Y75.388 E19.43301
G1 X107.366 Y67.120 E19.76177
G1 X107.403 Y66.819 E19.77028
G1 X115.634 Y75.050 E20.09758
G1 X115.634 Y74.713 E20.10706
G1 X107.737 Y66.816 E20.42108
G1 X108.074 Y66.816 E20.43056
G1 X115.634 Y74.376 E20.73116
