; generated by Slic3r 1.2.9 on 2016-08-04 at 11:08:59

; external perimeters extrusion width = 0.42mm
; perimeters extrusion width = 0.53mm
; infill extrusion width = 0.53mm
; solid infill extrusion width = 0.53mm
; top infill extrusion width = 0.53mm
; support material extrusion width = 0.42mm

M104 S245 ; set temperature
M220 S100 ; reset speeds
M116 ; wait for all temperatures
G0 Z10 ; drive Z to 10mm height
G28 X0 Y0 ; home X and Y
G0 Z0 X30 Y30 F13000
M109 S245 ; wait for temperature to be reached
G21 ; set units to millimeters
G90 ; use absolute coordinates
M82 ; use absolute distances for extrusion
G92 E0
G1 E-1.00000 F2400.00000
G92 E0
G1 Z0.300 F8100.000
G1 X63.774 Y17.661 F8100.000
G1 E1.00000 F2400.00000
G1 X64.891 Y16.148 E1.05224 F2310.000
G1 X66.531 Y15.228 E1.10448
G1 X67.850 Y15.029 E1.14154
G1 X103.150 Y15.029 E2.12209
G1 X104.989 Y15.424 E2.17433
G1 X106.502 Y16.541 E2.22657 F2310.000
G1 X107.422 Y18.181 E2.27882
G1 X107.621 Y19.500 E2.31587
G1 X107.621 Y160.500 E6.23253
G1 X107.226 Y162.339 E6.28478
G1 X106.109 Y163.852 E6.33702
G1 X104.469 Y164.772 E6.38926
G1 X103.150 Y164.971 E6.42631
G1 X67.850 Y164.971 E7.40687
G1 X66.011 Y164.576 E7.45911
G1 X64.498 Y163.459 E7.51135
G1 X63.578 Y161.819 E7.56359
G1 X63.379 Y160.500 E7.60064
G1 X63.379 Y19.500 E11.51731
G1 X63.761 Y17.723 E11.56780
G1 X64.010 Y17.713 F8100.000
G1 X65.122 Y16.260 E11.61864 F2310.000
G1 X66.743 Y15.412 E11.66947
G1 X67.850 Y15.264 E11.70049
G1 X103.150 Y15.264 E12.68104
G1 X104.937 Y15.660 E12.73187
G1 X106.390 Y16.772 E12.78270 F2310.000
G1 X107.238 Y18.393 E12.83353
G1 X107.386 Y19.500 E12.86455
G1 X107.386 Y160.500 E16.78122
G1 X106.990 Y162.287 E16.83205
G1 X105.878 Y163.740 E16.88288
G1 X104.257 Y164.588 E16.93371
G1 X103.150 Y164.736 E16.96473
G1 X67.850 Y164.736 E17.94529
G1 X66.063 Y164.340 E17.99612
G1 X64.610 Y163.228 E18.04695
G1 X63.762 Y161.607 E18.09778
G1 X63.614 Y160.500 E18.12880
G1 X63.614 Y19.500 E22.04547
G1 X63.996 Y17.775 E22.09454
G1 E21.09454 F2400.00000
G92 E0
G1 X67.261 Y19.256 F8100.000
G1 E1.00000 F2400.00000
G1 X67.606 Y18.911 E1.01356 F2310.000
G1 X77.394 Y18.911 E1.28544
G1 X77.739 Y19.256 E1.29900
G1 X77.739 Y160.744 E5.22922 F2310.000
G1 X77.394 Y161.089 E5.24278
G1 X67.606 Y161.089 E5.51466
G1 X67.261 Y160.744 E5.52822
G1 X67.261 Y19.319 E9.45669
G1 X67.497 Y19.354 F8100.000
G1 X67.704 Y19.147 E9.46482 F2310.000
G1 X77.296 Y19.147 E9.73129
G1 X77.503 Y19.354 E9.73942
G1 X77.503 Y160.646 E13.66422
G1 X77.296 Y160.853 E13.67236
G1 X67.704 Y160.853 E13.93882
G1 X67.497 Y160.646 E13.94696
G1 X67.497 Y19.417 E17.87001
G1 X67.732 Y19.451 F8100.000
G1 X67.801 Y19.382 E17.87272 F2310.000
G1 X77.199 Y19.382 E18.13376
G1 X77.268 Y19.451 E18.13647
G1 X77.268 Y160.549 E22.05585
G1 X77.199 Y160.618 E22.05856
G1 X67.801 Y160.618 E22.31961
G1 X67.732 Y160.549 E22.32232
G1 X67.732 Y19.514 E26.23995
G1 E25.23995 F2400.00000
G92 E0
G1 X87.414 Y18.500 F8100.000
G1 X89.071 Y18.015 F8100.000
G1 X90.000 Y19.086 F8100.000
G1 X92.000 Y19.086 F8100.000
G1 X93.261 Y19.451 F8100.000
G1 E1.00000 F2400.00000
G1 X93.261 Y19.256 E1.00542 F2310.000
G1 X93.606 Y18.911 E1.01898
G1 X103.394 Y18.911 E1.29087
G1 X103.739 Y19.256 E1.30442
G1 X103.739 Y160.744 E5.23464 F2310.000
G1 X103.394 Y161.089 E5.24820
G1 X93.606 Y161.089 E5.52009
G1 X93.261 Y160.744 E5.53364
G1 X93.261 Y19.514 E9.45669
G1 X93.497 Y19.354 F8100.000
G1 X93.704 Y19.147 E9.46482 F2310.000
G1 X103.296 Y19.147 E9.73129
G1 X103.503 Y19.354 E9.73942
G1 X103.503 Y160.646 E13.66422
G1 X103.296 Y160.853 E13.67236
G1 X93.704 Y160.853 E13.93882
G1 X93.497 Y160.646 E13.94696
G1 X93.497 Y19.417 E17.87001
G1 X93.732 Y19.451 F8100.000
G1 X93.801 Y19.382 E17.87272 F2310.000
G1 X103.199 Y19.382 E18.13376
G1 X103.268 Y19.451 E18.13647
G1 X103.268 Y160.549 E22.05585
G1 X103.199 Y160.618 E22.05856
G1 X93.801 Y160.618 E22.31961
G1 X93.732 Y160.549 E22.32232
G1 X93.732 Y19.514 E26.23995
G1 E25.23995 F2400.00000
G92 E0
G1 X103.000 Y19.650 F8100.000
G1 E1.00000 F2400.00000
G1 X103.000 Y160.350 E4.90833 F1470.000
G1 X94.000 Y160.350 E5.15833
G1 X94.000 Y19.650 E9.06667
G1 X102.937 Y19.650 E9.31492
G1 X102.790 Y20.014 F8100.000
G1 X102.764 Y19.886 F8100.000
G1 X102.764 Y160.114 E13.21016 F2100.000
G1 X94.236 Y160.114 E13.44707
G1 X94.236 Y19.886 E17.34231
G1 X102.701 Y19.886 E17.57747
G1 X102.634 Y20.156 F8100.000
G1 X102.494 Y20.016 E17.58297 F2688.000
G1 X102.161 Y20.016 E17.59223
G1 X102.634 Y20.489 E17.61082
G1 X102.634 Y20.822 E17.62008
G1 X101.828 Y20.016 E17.65176
G1 X101.494 Y20.016 E17.66102
G1 X102.634 Y21.156 E17.70579
G1 X102.634 Y21.489 E17.71505
G1 X101.161 Y20.016 E17.77291
G1 X100.828 Y20.016 E17.78217
G1 X102.634 Y21.822 E17.85312
G1 X102.634 Y22.155 E17.86238
G1 X100.495 Y20.016 E17.94643
G1 X100.161 Y20.016 E17.95569
G1 X102.634 Y22.489 E18.05283
G1 X102.634 Y22.822 E18.06208
G1 X99.828 Y20.016 E18.17231
G1 X99.495 Y20.016 E18.18157
G1 X102.634 Y23.155 E18.30489
G1 X102.634 Y23.488 E18.31415
G1 X99.162 Y20.016 E18.45056
G1 X98.829 Y20.016 E18.45982
G1 X102.634 Y23.821 E18.60933
G1 X102.634 Y24.155 E18.61858
G1 X98.495 Y20.016 E18.78118
G1 X98.162 Y20.016 E18.79044
G1 X102.634 Y24.488 E18.96613
G1 X102.634 Y24.821 E18.97538
G1 X97.829 Y20.016 E19.16416
G1 X97.496 Y20.016 E19.17342
G1 X102.634 Y25.154 E19.37529
G1 X102.634 Y25.488 E19.38455
G1 X97.162 Y20.016 E19.59951
G1 X96.829 Y20.016 E19.60877
G1 X102.634 Y25.821 E19.83682
G1 X102.634 Y26.154 E19.84608
G1 X96.496 Y20.016 E20.08723
G1 X96.163 Y20.016 E20.09648
G1 X102.634 Y26.487 E20.35072
G1 X102.634 Y26.821 E20.35998
G1 X95.829 Y20.016 E20.62731
G1 X95.496 Y20.016 E20.63657
G1 X102.634 Y27.154 E20.91699
G1 X102.634 Y27.487 E20.92624
G1 X95.163 Y20.016 E21.21976
G1 X94.830 Y20.016 E21.22901
G1 X102.634 Y27.820 E21.53562
G1 X102.634 Y28.154 E21.54487
G1 X94.496 Y20.016 E21.86457
G1 X94.366 Y20.219 E21.87127
G1 X102.634 Y28.487 E22.19609
G1 X102.634 Y28.820 E22.20535
G1 X94.366 Y20.552 E22.53017
G1 X94.366 Y20.885 E22.53943
G1 X102.634 Y29.153 E22.86426
G1 X102.634 Y29.486 E22.87351
G1 X94.366 Y21.218 E23.19834
G1 X94.366 Y21.551 E23.20760
G1 X102.634 Y29.820 E23.53242
G1 X102.634 Y30.153 E23.54168
G1 X94.366 Y21.885 E23.86650
G1 X94.366 Y22.218 E23.87576
G1 X102.634 Y30.486 E24.20059
G1 X102.634 Y30.819 E24.20984
G1 X94.366 Y22.551 E24.53467
G1 X94.366 Y22.884 E24.54392
G1 X102.634 Y31.153 E24.86875
G1 X102.634 Y31.486 E24.87801
G1 X94.366 Y23.218 E25.20283
G1 X94.366 Y23.551 E25.21209
G1 X102.634 Y31.819 E25.53691
G1 X102.634 Y32.152 E25.54617
G1 X94.366 Y23.884 E25.87100
G1 X94.366 Y24.217 E25.88025
G1 X102.634 Y32.486 E26.20508
G1 X102.634 Y32.819 E26.21434
G1 X94.366 Y24.551 E26.53916
G1 X94.366 Y24.884 E26.54842
G1 X102.634 Y33.152 E26.87324
G1 X102.634 Y33.485 E26.88250
G1 X94.366 Y25.217 E27.20733
G1 X94.366 Y25.550 E27.21658
G1 X102.634 Y33.819 E27.54141
G1 X102.634 Y34.152 E27.55067
G1 X94.366 Y25.884 E27.87549
G1 X94.366 Y26.217 E27.88475
G1 X102.634 Y34.485 E28.20957
G1 X102.634 Y34.818 E28.21883
G1 X94.366 Y26.550 E28.54366
G1 X94.366 Y26.883 E28.55291
G1 X102.634 Y35.151 E28.87774
G1 X102.634 Y35.485 E28.88700
G1 X94.366 Y27.217 E29.21182
G1 X94.366 Y27.550 E29.22108
G1 X102.634 Y35.818 E29.54590
G1 X102.634 Y36.151 E29.55516
G1 X94.366 Y27.883 E29.87999
G1 X94.366 Y28.216 E29.88924
G1 X102.634 Y36.484 E30.21407
G1 X102.634 Y36.818 E30.22333
G1 X94.366 Y28.549 E30.54815
G1 X94.366 Y28.883 E30.55741
G1 X102.634 Y37.151 E30.88223
G1 X102.634 Y37.484 E30.89149
G1 X94.366 Y29.216 E31.21632
G1 X94.366 Y29.549 E31.22557
G1 X102.634 Y37.817 E31.55040
G1 X102.634 Y38.151 E31.55966
G1 X94.366 Y29.882 E31.88448
G1 X94.366 Y30.216 E31.89374
G1 X102.634 Y38.484 E32.21856
G1 X102.634 Y38.817 E32.22782
G1 X94.366 Y30.549 E32.55265
G1 X94.366 Y30.882 E32.56190
G1 X102.634 Y39.150 E32.88673
G1 X102.634 Y39.484 E32.89599
G1 X94.366 Y31.215 E33.22081
G1 X94.366 Y31.549 E33.23007
G1 X102.634 Y39.817 E33.55489
G1 X102.634 Y40.150 E33.56415
G1 X94.366 Y31.882 E33.88898
G1 X94.366 Y32.215 E33.89823
G1 X102.634 Y40.483 E34.22306
G1 X102.634 Y40.816 E34.23232
G1 X94.366 Y32.548 E34.55714
G1 X94.366 Y32.882 E34.56640
G1 X102.634 Y41.150 E34.89122
G1 X102.634 Y41.483 E34.90048
G1 X94.366 Y33.215 E35.22531
G1 X94.366 Y33.548 E35.23456
G1 X102.634 Y41.816 E35.55939
G1 X102.634 Y42.149 E35.56865
G1 X94.366 Y33.881 E35.89347
G1 X94.366 Y34.214 E35.90273
G1 X102.634 Y42.483 E36.22755
G1 X102.634 Y42.816 E36.23681
G1 X94.366 Y34.548 E36.56164
G1 X94.366 Y34.881 E36.57089
G1 X102.634 Y43.149 E36.89572
G1 X102.634 Y43.482 E36.90497
G1 X94.366 Y35.214 E37.22980
G1 X94.366 Y35.547 E37.23906
G1 X102.634 Y43.816 E37.56388
G1 X102.634 Y44.149 E37.57314
G1 X94.366 Y35.881 E37.89797
G1 X94.366 Y36.214 E37.90722
G1 X102.634 Y44.482 E38.23205
G1 X102.634 Y44.815 E38.24130
G1 X94.366 Y36.547 E38.56613
G1 X94.366 Y36.880 E38.57539
G1 X102.634 Y45.149 E38.90021
G1 X102.634 Y45.482 E38.90947
G1 X94.366 Y37.214 E39.23429
G1 X94.366 Y37.547 E39.24355
G1 X102.634 Y45.815 E39.56838
G1 X102.634 Y46.148 E39.57763
G1 X94.366 Y37.880 E39.90246
G1 X94.366 Y38.213 E39.91172
G1 X102.634 Y46.481 E40.23654
G1 X102.634 Y46.815 E40.24580
G1 X94.366 Y38.547 E40.57062
G1 X94.366 Y38.880 E40.57988
G1 X102.634 Y47.148 E40.90471
G1 X102.634 Y47.481 E40.91396
G1 X94.366 Y39.213 E41.23879
G1 X94.366 Y39.546 E41.24805
G1 X102.634 Y47.814 E41.57287
G1 X102.634 Y48.148 E41.58213
G1 X94.366 Y39.879 E41.90695
G1 X94.366 Y40.213 E41.91621
G1 X102.634 Y48.481 E42.24104
G1 X102.634 Y48.814 E42.25029
G1 X94.366 Y40.546 E42.57512
G1 X94.366 Y40.879 E42.58438
G1 X102.634 Y49.147 E42.90920
G1 X102.634 Y49.481 E42.91846
G1 X94.366 Y41.212 E43.24328
G1 X94.366 Y41.546 E43.25254
G1 X102.634 Y49.814 E43.57737
G1 X102.634 Y50.147 E43.58662
G1 X94.366 Y41.879 E43.91145
G1 X94.366 Y42.212 E43.92071
G1 X102.634 Y50.480 E44.24553
G1 X102.634 Y50.814 E44.25479
G1 X94.366 Y42.545 E44.57961
G1 X94.366 Y42.879 E44.58887
G1 X102.634 Y51.147 E44.91370
G1 X102.634 Y51.480 E44.92295
G1 X94.366 Y43.212 E45.24778
G1 X94.366 Y43.545 E45.25704
G1 X102.634 Y51.813 E45.58186
G1 X102.634 Y52.147 E45.59112
G1 X94.366 Y43.878 E45.91594
G1 X94.366 Y44.212 E45.92520
G1 X102.634 Y52.480 E46.25003
G1 X102.634 Y52.813 E46.25928
G1 X94.366 Y44.545 E46.58411
G1 X94.366 Y44.878 E46.59337
G1 X102.634 Y53.146 E46.91819
G1 X102.634 Y53.479 E46.92745
G1 X94.366 Y45.211 E47.25227
G1 X94.366 Y45.544 E47.26153
G1 X102.634 Y53.813 E47.58636
G1 X102.634 Y54.146 E47.59561
G1 X94.366 Y45.878 E47.92044
G1 X94.366 Y46.211 E47.92970
G1 X102.634 Y54.479 E48.25452
G1 X102.634 Y54.812 E48.26378
G1 X94.366 Y46.544 E48.58860
G1 X94.366 Y46.877 E48.59786
G1 X102.634 Y55.146 E48.92269
G1 X102.634 Y55.479 E48.93194
G1 X94.366 Y47.211 E49.25677
G1 X94.366 Y47.544 E49.26602
G1 X102.634 Y55.812 E49.59085
G1 X102.634 Y56.145 E49.60011
G1 X94.366 Y47.877 E49.92493
G1 X94.366 Y48.210 E49.93419
G1 X102.634 Y56.479 E50.25902
G1 X102.634 Y56.812 E50.26827
G1 X94.366 Y48.544 E50.59310
G1 X94.366 Y48.877 E50.60235
G1 X102.634 Y57.145 E50.92718
G1 X102.634 Y57.478 E50.93644
G1 X94.366 Y49.210 E51.26126
G1 X94.366 Y49.543 E51.27052
G1 X102.634 Y57.812 E51.59534
G1 X102.634 Y58.145 E51.60460
G1 X94.366 Y49.877 E51.92943
G1 X94.366 Y50.210 E51.93868
G1 X102.634 Y58.478 E52.26351
G1 X102.634 Y58.811 E52.27277
G1 X94.366 Y50.543 E52.59759
G1 X94.366 Y50.876 E52.60685
G1 X102.634 Y59.144 E52.93167
G1 X102.634 Y59.478 E52.94093
G1 X94.366 Y51.209 E53.26576
G1 X94.366 Y51.543 E53.27501
G1 X102.634 Y59.811 E53.59984
G1 X102.634 Y60.144 E53.60910
G1 X94.366 Y51.876 E53.93392
G1 X94.366 Y52.209 E53.94318
G1 X102.634 Y60.477 E54.26800
G1 X102.634 Y60.811 E54.27726
G1 X94.366 Y52.542 E54.60209
G1 X94.366 Y52.876 E54.61134
G1 X102.634 Y61.144 E54.93617
G1 X102.634 Y61.477 E54.94543
G1 X94.366 Y53.209 E55.27025
G1 X94.366 Y53.542 E55.27951
G1 X102.634 Y61.810 E55.60433
G1 X102.634 Y62.144 E55.61359
G1 X94.366 Y53.875 E55.93842
G1 X94.366 Y54.209 E55.94767
G1 X102.634 Y62.477 E56.27250
G1 X102.634 Y62.810 E56.28176
G1 X94.366 Y54.542 E56.60658
G1 X94.366 Y54.875 E56.61584
G1 X102.634 Y63.143 E56.94066
G1 X102.634 Y63.477 E56.94992
G1 X94.366 Y55.208 E57.27475
G1 X94.366 Y55.542 E57.28400
G1 X102.634 Y63.810 E57.60883
G1 X102.634 Y64.143 E57.61809
G1 X94.366 Y55.875 E57.94291
G1 X94.366 Y56.208 E57.95217
G1 X102.634 Y64.476 E58.27699
G1 X102.634 Y64.809 E58.28625
G1 X94.366 Y56.541 E58.61108
G1 X94.366 Y56.875 E58.62033
G1 X102.634 Y65.143 E58.94516
G1 X102.634 Y65.476 E58.95442
G1 X94.366 Y57.208 E59.27924
G1 X94.366 Y57.541 E59.28850
G1 X102.634 Y65.809 E59.61332
G1 X102.634 Y66.142 E59.62258
G1 X94.366 Y57.874 E59.94741
G1 X94.366 Y58.207 E59.95666
G1 X102.634 Y66.476 E60.28149
G1 X102.634 Y66.809 E60.29075
G1 X94.366 Y58.541 E60.61557
G1 X94.366 Y58.874 E60.62483
G1 X102.634 Y67.142 E60.94965
G1 X102.634 Y67.475 E60.95891
G1 X94.366 Y59.207 E61.28374
G1 X94.366 Y59.540 E61.29299
G1 X102.634 Y67.809 E61.61782
G1 X102.634 Y68.142 E61.62707
G1 X94.366 Y59.874 E61.95190
G1 X94.366 Y60.207 E61.96116
G1 X102.634 Y68.475 E62.28598
G1 X102.634 Y68.808 E62.29524
G1 X94.366 Y60.540 E62.62007
G1 X94.366 Y60.873 E62.62932
G1 X102.634 Y69.142 E62.95415
G1 X102.634 Y69.475 E62.96340
G1 X94.366 Y61.207 E63.28823
G1 X94.366 Y61.540 E63.29749
G1 X102.634 Y69.808 E63.62231
G1 X102.634 Y70.141 E63.63157
G1 X94.366 Y61.873 E63.95639
G1 X94.366 Y62.206 E63.96565
G1 X102.634 Y70.474 E64.29048
G1 X102.634 Y70.808 E64.29973
G1 X94.366 Y62.540 E64.62456
G1 X94.366 Y62.873 E64.63382
G1 X102.634 Y71.141 E64.95864
G1 X102.634 Y71.474 E64.96790
G1 X94.366 Y63.206 E65.29272
G1 X94.366 Y63.539 E65.30198
G1 X102.634 Y71.807 E65.62681
G1 X102.634 Y72.141 E65.63606
G1 X94.366 Y63.872 E65.96089
G1 X94.366 Y64.206 E65.97015
G1 X102.634 Y72.474 E66.29497
G1 X102.634 Y72.807 E66.30423
G1 X94.366 Y64.539 E66.62905
G1 X94.366 Y64.872 E66.63831
G1 X102.634 Y73.140 E66.96314
G1 X102.634 Y73.474 E66.97239
G1 X94.366 Y65.205 E67.29722
G1 X94.366 Y65.539 E67.30648
G1 X102.634 Y73.807 E67.63130
G1 X102.634 Y74.140 E67.64056
G1 X94.366 Y65.872 E67.96538
G1 X94.366 Y66.205 E67.97464
G1 X102.634 Y74.473 E68.29947
G1 X102.634 Y74.807 E68.30872
G1 X94.366 Y66.538 E68.63355
G1 X94.366 Y66.872 E68.64281
G1 X102.634 Y75.140 E68.96763
G1 X102.634 Y75.473 E68.97689
G1 X94.366 Y67.205 E69.30171
G1 X94.366 Y67.538 E69.31097
G1 X102.634 Y75.806 E69.63580
G1 X102.634 Y76.140 E69.64505
G1 X94.366 Y67.871 E69.96988
G1 X94.366 Y68.205 E69.97914
G1 X102.634 Y76.473 E70.30396
G1 X102.634 Y76.806 E70.31322
G1 X94.366 Y68.538 E70.63804
G1 X94.366 Y68.871 E70.64730
G1 X102.634 Y77.139 E70.97213
G1 X102.634 Y77.472 E70.98138
G1 X94.366 Y69.204 E71.30621
G1 X94.366 Y69.537 E71.31547
G1 X102.634 Y77.806 E71.64029
G1 X102.634 Y78.139 E71.64955
G1 X94.366 Y69.871 E71.97437
G1 X94.366 Y70.204 E71.98363
G1 X102.634 Y78.472 E72.30846
G1 X102.634 Y78.805 E72.31771
G1 X94.366 Y70.537 E72.64254
G1 X94.366 Y70.870 E72.65180
G1 X102.634 Y79.139 E72.97662
G1 X102.634 Y79.472 E72.98588
G1 X94.366 Y71.204 E73.31070
G1 X94.366 Y71.537 E73.31996
G1 X102.634 Y79.805 E73.64479
G1 X102.634 Y80.138 E73.65404
G1 X94.366 Y71.870 E73.97887
G1 X94.366 Y72.203 E73.98813
G1 X102.634 Y80.472 E74.31295
G1 X102.634 Y80.805 E74.32221
G1 X94.366 Y72.537 E74.64703
G1 X94.366 Y72.870 E74.65629
G1 X102.634 Y81.138 E74.98112
G1 X102.634 Y81.471 E74.99037
G1 X94.366 Y73.203 E75.31520
G1 X94.366 Y73.536 E75.32445
G1 X102.634 Y81.805 E75.64928
G1 X102.634 Y82.138 E75.65854
G1 X94.366 Y73.870 E75.98336
G1 X94.366 Y74.203 E75.99262
G1 X102.634 Y82.471 E76.31745
G1 X102.634 Y82.804 E76.32670
G1 X94.366 Y74.536 E76.65153
G1 X94.366 Y74.869 E76.66078
G1 X102.634 Y83.137 E76.98561
G1 X102.634 Y83.471 E76.99487
G1 X94.366 Y75.202 E77.31969
G1 X94.366 Y75.536 E77.32895
G1 X102.634 Y83.804 E77.65377
G1 X102.634 Y84.137 E77.66303
G1 X94.366 Y75.869 E77.98786
G1 X94.366 Y76.202 E77.99711
G1 X102.634 Y84.470 E78.32194
G1 X102.634 Y84.804 E78.33120
G1 X94.366 Y76.535 E78.65602
G1 X94.366 Y76.869 E78.66528
G1 X102.634 Y85.137 E78.99010
G1 X102.634 Y85.470 E78.99936
G1 X94.366 Y77.202 E79.32419
G1 X94.366 Y77.535 E79.33344
G1 X102.634 Y85.803 E79.65827
