; generated by Slic3r 1.2.9 on 2016-08-14 at 11:20:30

; external perimeters extrusion width = 0.42mm
; perimeters extrusion width = 0.53mm
; infill extrusion width = 0.53mm
; solid infill extrusion width = 0.53mm
; top infill extrusion width = 0.53mm
; support material extrusion width = 0.42mm

M104 S245 ; set temperature
M220 S100 ; reset speeds
M116 ; wait for all temperatures
G0 Z10 ; drive Z to 10mm height
G28 X0 Y0 ; home X and Y
G0 Z0 X30 Y30 F13000
M109 S245 ; wait for temperature to be reached
G21 ; set units to millimeters
G90 ; use absolute coordinates
M82 ; use absolute distances for extrusion
G92 E0
G1 E-1.00000 F2400.00000
G92 E0
G1 Z0.300 F8100.000
G1 X36.042 Y32.272 F8100.000
G1 E1.00000 F2400.00000
G1 X37.334 Y30.871 E1.05295 F2310.000
G1 X42.626 Y25.595 E1.26053
G1 X44.214 Y24.587 E1.31277
G1 X46.076 Y24.320 E1.36501
G1 X47.882 Y24.843 E1.41726
G1 X48.774 Y25.474 E1.44760 F2310.000
G1 X49.288 Y25.948 E1.46702
G1 X154.275 Y130.936 E5.59132
G1 X155.295 Y132.515 E5.64356
G1 X155.576 Y134.375 E5.69580
G1 X155.111 Y136.101 E5.74545
G1 X154.849 Y136.623 E5.76167
G1 X154.013 Y137.781 E5.80135
G1 X148.729 Y143.065 E6.00892
G1 X147.592 Y144.091 E6.05146
G1 X146.891 Y144.603 E6.07559
G1 X146.141 Y145.047 E6.09978
G1 X144.999 Y145.524 E6.13417
G1 X144.161 Y145.737 E6.15819
G1 X105.384 Y153.682 E7.25770
G1 X102.863 Y154.092 E7.32865
G1 X101.431 Y154.217 E7.36858
G1 X100.062 Y154.302 E7.40668
G1 X98.308 Y154.297 E7.45540
G1 X96.957 Y154.241 E7.49297
G1 X94.669 Y153.995 E7.55687
G1 X86.856 Y152.624 E7.77722
G1 X85.725 Y152.264 E7.81021
G1 X84.446 Y151.660 E7.84949
G1 X84.106 Y151.482 E7.86014
G1 X82.065 Y150.293 E7.92575
G1 X81.742 Y150.086 E7.93641
G1 X79.780 Y148.703 E8.00310
G1 X78.376 Y147.543 E8.05368
G1 X78.100 Y147.290 E8.06409
G1 X40.812 Y110.169 E9.52561
G1 X33.797 Y103.131 E9.80164
G1 X33.220 Y102.517 E9.82505
G1 X31.543 Y100.531 E9.89724
G1 X31.311 Y100.230 E9.90782
G1 X29.951 Y98.288 E9.97365
G1 X29.576 Y97.687 E9.99334
G1 X28.651 Y96.094 E10.04452
G1 X28.274 Y95.380 E10.06695
G1 X27.763 Y94.296 E10.10022
G1 X27.402 Y93.161 E10.13331
G1 X26.032 Y85.322 E10.35437
G1 X25.903 Y84.227 E10.38498
G1 X25.796 Y83.082 E10.41693
G1 X25.741 Y81.962 E10.44807
G1 X25.726 Y80.941 E10.47646
G1 X25.755 Y79.473 E10.51725
G1 X25.859 Y78.055 E10.55673
G1 X26.014 Y76.692 E10.59483
G1 X26.328 Y74.748 E10.64953
G1 X34.380 Y35.546 E11.76120
G1 X34.762 Y34.443 E11.79365
G1 X35.338 Y33.293 E11.82936
G1 X36.006 Y32.324 E11.86206
G1 X36.216 Y32.432 F8100.000
G1 X37.501 Y31.038 E11.91472 F2310.000
G1 X42.792 Y25.763 E12.12226
G1 X44.342 Y24.791 E12.17309
G1 X46.158 Y24.563 E12.22392
G1 X48.615 Y25.648 E12.29854
G1 X49.121 Y26.115 E12.31766 F2310.000
G1 X154.108 Y131.102 E16.44195
G1 X155.092 Y132.645 E16.49278
G1 X155.334 Y134.459 E16.54361
G1 X154.900 Y135.995 E16.58795
G1 X154.638 Y136.517 E16.60417
G1 X153.847 Y137.615 E16.64176
G1 X148.563 Y142.898 E16.84933
G1 X147.435 Y143.915 E16.89150
G1 X146.771 Y144.401 E16.91436
G1 X146.021 Y144.844 E16.93855
G1 X144.939 Y145.296 E16.97112
G1 X144.113 Y145.507 E16.99480
G1 X105.337 Y153.451 E18.09430
G1 X102.827 Y153.859 E18.16492
G1 X100.807 Y154.026 E18.22122
G1 X100.059 Y154.067 E18.24204
G1 X99.428 Y154.074 E18.25957
G1 X98.314 Y154.061 E18.29051
G1 X97.198 Y154.022 E18.32155
G1 X95.442 Y153.853 E18.37054
G1 X94.707 Y153.763 E18.39110
G1 X94.161 Y153.674 E18.40646
G1 X86.897 Y152.392 E18.61136
G1 X85.825 Y152.051 E18.64261
G1 X84.225 Y151.278 E18.69197
G1 X82.183 Y150.090 E18.75759
G1 X81.878 Y149.894 E18.76768
G1 X79.916 Y148.511 E18.83434
G1 X78.528 Y147.362 E18.88439
G1 X78.266 Y147.123 E18.89425
G1 X40.979 Y110.003 E20.35575
G1 X33.964 Y102.965 E20.63177
G1 X33.399 Y102.364 E20.65469
G1 X31.724 Y100.379 E20.72683
G1 X31.503 Y100.094 E20.73685
G1 X30.151 Y98.163 E20.80234
G1 X29.779 Y97.569 E20.82180
G1 X28.859 Y95.982 E20.87275
G1 X28.487 Y95.279 E20.89484
G1 X27.976 Y94.196 E20.92812
G1 X27.634 Y93.121 E20.95945
G1 X26.265 Y85.283 E21.18046
G1 X26.138 Y84.201 E21.21072
G1 X26.031 Y83.070 E21.24228
G1 X25.976 Y81.959 E21.27318
G1 X25.961 Y80.937 E21.30156
G1 X25.990 Y79.489 E21.34180
G1 X26.093 Y78.082 E21.38100
G1 X26.249 Y76.719 E21.41909
G1 X26.559 Y74.796 E21.47322
G1 X34.610 Y35.594 E22.58489
G1 X34.973 Y34.548 E22.61563
G1 X35.549 Y33.399 E22.65134
G1 X36.180 Y32.484 E22.68222
G1 E21.68222 F2400.00000
G92 E0
G1 X52.718 Y52.699 F8100.000
G1 E1.00000 F2400.00000
G1 X49.650 Y49.607 E1.12100 F2310.000
G1 X49.569 Y49.571 E1.12347
G1 X49.159 Y49.552 E1.13487
G1 X49.101 Y49.517 E1.13676
G1 X48.994 Y49.507 E1.13973
G1 X48.773 Y49.396 E1.14660
G1 X48.669 Y49.393 E1.14951
G1 X48.586 Y49.429 E1.15200
G1 X48.379 Y49.442 E1.15776
G1 X47.576 Y49.204 E1.18103
G1 X47.390 Y49.040 E1.18793
G1 X47.266 Y49.015 E1.19143
G1 X47.106 Y49.068 E1.19612
G1 X46.601 Y48.815 E1.21181
G1 X46.322 Y48.736 E1.21987
G1 X44.851 Y47.445 E1.27425
G1 X44.222 Y46.875 E1.29782
G1 X44.194 Y46.827 E1.29937
G1 X44.102 Y46.763 E1.30248
G1 X41.372 Y44.015 E1.41008
G1 X41.283 Y43.948 E1.41318
G1 X40.672 Y43.301 E1.43790
G1 X40.564 Y43.225 E1.44157
G1 X39.985 Y42.579 E1.46565
G1 X39.911 Y42.418 E1.47058
G1 X39.900 Y42.331 E1.47303
G1 X39.832 Y42.235 E1.47628
G1 X39.549 Y42.083 E1.48519
G1 X38.975 Y41.432 E1.50932
G1 X38.953 Y41.383 E1.51082
G1 X38.840 Y41.299 E1.51472
G1 X38.300 Y40.599 E1.53929
G1 X38.234 Y40.395 E1.54525
G1 X38.165 Y40.294 E1.54862
G1 X38.010 Y40.216 E1.55344
G1 X37.856 Y39.753 E1.56700
G1 X38.070 Y39.327 E1.58026
G1 X38.077 Y39.233 E1.58286
G1 X37.883 Y38.649 E1.59997
G1 X37.989 Y38.436 E1.60657
G1 X37.996 Y38.343 E1.60918
G1 X37.802 Y37.758 E1.62628
G1 X38.177 Y37.011 E1.64951
G1 X38.183 Y36.917 E1.65211
G1 X37.989 Y36.333 E1.66922
G1 X38.784 Y34.747 E1.71848
G1 X39.368 Y34.553 E1.73558
G1 X39.439 Y34.492 E1.73819
G1 X39.945 Y33.484 E1.76952
G1 X40.529 Y33.289 E1.78662
G1 X40.600 Y33.228 E1.78922
G1 X41.001 Y32.427 E1.81412
G1 X41.586 Y32.233 E1.83122
G1 X41.656 Y32.171 E1.83383
G1 X42.058 Y31.370 E1.85872
G1 X42.642 Y31.176 E1.87583
G1 X42.713 Y31.115 E1.87843
G1 X43.115 Y30.313 E1.90333
G1 X43.699 Y30.119 E1.92043
G1 X43.770 Y30.058 E1.92303
G1 X44.172 Y29.257 E1.94793
G1 X44.756 Y29.062 E1.96503
G1 X44.827 Y29.001 E1.96764
G1 X45.213 Y28.231 E1.99156
G1 X45.676 Y28.077 E2.00511
G1 X46.179 Y28.330 E2.02075
G1 X46.494 Y28.433 E2.02996
G1 X59.038 Y40.977 E2.52273
G1 X59.122 Y41.142 E2.52789
G1 X59.168 Y41.421 E2.53574
G1 X59.139 Y41.604 E2.54089
G1 X58.989 Y41.905 E2.55024
G1 X59.013 Y42.055 E2.55447
G1 X59.389 Y42.447 E2.56955
G1 X137.339 Y120.398 E5.63173
G1 X137.824 Y120.866 E5.65044
G1 X137.954 Y120.897 E5.65416
G1 X138.384 Y120.754 E5.66677
G1 X139.029 Y121.077 E5.68679
G1 X139.192 Y121.131 E5.69156
G1 X151.736 Y133.675 E6.18433
G1 X151.820 Y133.840 E6.18949
G1 X151.865 Y134.119 E6.19734
G1 X151.837 Y134.302 E6.20249
G1 X151.403 Y135.169 E6.22942
G1 X150.819 Y135.363 E6.24652
G1 X150.748 Y135.424 E6.24913
G1 X150.346 Y136.226 E6.27402
G1 X149.762 Y136.420 E6.29113
G1 X149.691 Y136.481 E6.29373
G1 X149.289 Y137.282 E6.31863
G1 X148.705 Y137.477 E6.33573
G1 X148.634 Y137.538 E6.33833
G1 X148.233 Y138.339 E6.36323
G1 X147.648 Y138.533 E6.38033
G1 X147.578 Y138.595 E6.38294
G1 X147.176 Y139.396 E6.40783
G1 X146.592 Y139.590 E6.42494
G1 X146.521 Y139.651 E6.42754
G1 X146.119 Y140.453 E6.45244
G1 X145.535 Y140.647 E6.46954
G1 X145.464 Y140.708 E6.47214
G1 X145.165 Y141.305 E6.49068
G1 X144.581 Y141.499 E6.50779
G1 X144.510 Y141.560 E6.51039
G1 X144.404 Y141.713 E6.51556
G1 X144.256 Y141.833 E6.52084
G1 X144.144 Y141.890 E6.52433
G1 X143.183 Y142.142 E6.55191
G1 X143.119 Y142.121 E6.55378
G1 X143.018 Y142.132 E6.55661
G1 X142.934 Y142.182 E6.55933
G1 X142.769 Y142.223 E6.56405
G1 X141.892 Y142.188 E6.58845
G1 X141.830 Y142.152 E6.59044
G1 X141.724 Y142.142 E6.59340
G1 X141.521 Y142.040 E6.59970
G1 X141.416 Y142.037 E6.60261
G1 X141.305 Y142.086 E6.60599
G1 X141.098 Y142.098 E6.61175
G1 X140.628 Y141.960 E6.62535
G1 X140.518 Y141.980 E6.62847
G1 X140.448 Y142.033 E6.63091
G1 X140.034 Y142.113 E6.64262
G1 X139.769 Y142.041 E6.65023
G1 X139.119 Y141.468 E6.67433
G1 X139.022 Y141.429 E6.67722
G1 X138.387 Y140.869 E6.70074
G1 X138.315 Y140.772 E6.70410
G1 X137.684 Y140.371 E6.72487
G1 X137.562 Y140.206 E6.73058
G1 X133.386 Y136.046 E6.89431
G1 X133.361 Y135.998 E6.89580
G1 X133.265 Y135.928 E6.89910
G1 X132.683 Y135.288 E6.92314
G1 X132.607 Y135.127 E6.92810
G1 X132.594 Y135.034 E6.93070
G1 X132.526 Y134.939 E6.93394
G1 X132.244 Y134.787 E6.94285
G1 X131.670 Y134.135 E6.96698
G1 X131.650 Y134.092 E6.96830
G1 X130.998 Y133.372 E6.99528
G1 X130.925 Y133.212 E7.00017
G1 X130.891 Y132.946 E7.00761
G1 X130.913 Y132.744 E7.01327
G1 X130.589 Y131.648 E7.04501
G1 X130.578 Y131.537 E7.04810
G1 X130.632 Y131.153 E7.05889
G1 X130.440 Y130.575 E7.07580
G1 X130.475 Y130.507 E7.07792
G1 X130.390 Y130.307 E7.08395
G1 X130.331 Y130.288 E7.08568
G1 X127.173 Y127.155 E7.20924
G1 X126.936 Y127.194 E7.21592
G1 X126.730 Y127.605 E7.22870
G1 X126.723 Y127.699 E7.23130
G1 X126.917 Y128.283 E7.24840
G1 X126.148 Y129.817 E7.29607
G1 X125.564 Y130.011 E7.31317
G1 X125.493 Y130.073 E7.31578
G1 X124.677 Y131.701 E7.36636
G1 X124.670 Y131.794 E7.36897
G1 X124.864 Y132.379 E7.38607
G1 X121.799 Y138.495 E7.57611
G1 X121.215 Y138.689 E7.59322
G1 X121.144 Y138.750 E7.59582
G1 X120.173 Y140.686 E7.65597
G1 X119.589 Y140.880 E7.67307
G1 X119.518 Y140.942 E7.67568
G1 X118.935 Y142.106 E7.71185
G1 X118.350 Y142.300 E7.72895
G1 X118.280 Y142.362 E7.73156
G1 X117.903 Y143.113 E7.75490
G1 X117.319 Y143.307 E7.77201
G1 X117.248 Y143.368 E7.77461
G1 X116.931 Y144.001 E7.79425
G1 X116.347 Y144.195 E7.81136
G1 X116.276 Y144.256 E7.81396
G1 X116.044 Y144.719 E7.82836
G1 X115.459 Y144.914 E7.84546
G1 X115.388 Y144.975 E7.84806
G1 X115.229 Y145.272 E7.85744
G1 X115.097 Y145.408 E7.86270
G1 X113.990 Y146.156 E7.89980
G1 X113.835 Y146.146 E7.90412
G1 X113.712 Y146.216 E7.90806
G1 X113.625 Y146.362 E7.91276
G1 X113.465 Y146.511 E7.91882
G1 X112.406 Y147.111 E7.95264
G1 X112.310 Y147.099 E7.95533
G1 X112.206 Y147.136 E7.95840
G1 X111.989 Y147.339 E7.96666
G1 X110.940 Y147.905 E7.99976
G1 X110.818 Y147.888 E8.00318
G1 X110.715 Y147.921 E8.00618
G1 X110.548 Y148.057 E8.01218
G1 X109.532 Y148.510 E8.04307
G1 X109.465 Y148.497 E8.04495
G1 X109.360 Y148.525 E8.04800
G1 X109.244 Y148.627 E8.05227
G1 X109.145 Y148.684 E8.05544
G1 X108.161 Y149.025 E8.08439
G1 X108.058 Y149.018 E8.08724
G1 X107.634 Y149.159 E8.09965
G1 X107.474 Y149.165 E8.10409
G1 X107.311 Y149.301 E8.10998
G1 X107.203 Y149.358 E8.11337
G1 X106.236 Y149.637 E8.14135
G1 X106.098 Y149.630 E8.14517
G1 X105.963 Y149.697 E8.14937
G1 X105.006 Y149.937 E8.17677
G1 X104.899 Y149.933 E8.17976
G1 X104.716 Y150.012 E8.18529
G1 X103.780 Y150.173 E8.21166
G1 X103.662 Y150.164 E8.21495
G1 X103.557 Y150.208 E8.21812
G1 X102.625 Y150.355 E8.24433
G1 X102.519 Y150.345 E8.24727
G1 X102.369 Y150.399 E8.25171
G1 X101.457 Y150.475 E8.27711
G1 X101.345 Y150.460 E8.28026
G1 X101.264 Y150.488 E8.28265
G1 X100.355 Y150.553 E8.30794
G1 X100.248 Y150.536 E8.31096
G1 X100.137 Y150.569 E8.31419
G1 X99.244 Y150.581 E8.33897
G1 X99.128 Y150.556 E8.34227
G1 X99.067 Y150.573 E8.34404
G1 X98.181 Y150.564 E8.36864
G1 X98.072 Y150.540 E8.37174
G1 X98.001 Y150.558 E8.37378
G1 X97.125 Y150.518 E8.39814
G1 X96.999 Y150.480 E8.40179
G1 X96.950 Y150.490 E8.40318
G1 X96.089 Y150.406 E8.42721
G1 X95.986 Y150.380 E8.43016
G1 X95.934 Y150.390 E8.43163
G1 X95.078 Y150.290 E8.45556
G1 X94.961 Y150.248 E8.45902
G1 X94.907 Y150.256 E8.46055
G1 X93.974 Y150.072 E8.48694
G1 X93.931 Y150.078 E8.48814
G1 X93.100 Y149.910 E8.51169
G1 X93.005 Y149.876 E8.51450
G1 X92.933 Y149.882 E8.51651
G1 X91.195 Y149.405 E8.56658
G1 X90.263 Y149.112 E8.59371
G1 X90.231 Y149.083 E8.59490
G1 X89.220 Y148.719 E8.62474
G1 X88.497 Y148.427 E8.64643
G1 X88.324 Y148.492 E8.65155
G1 X88.185 Y148.770 E8.66019
G1 X87.722 Y148.924 E8.67374
G1 X87.413 Y148.769 E8.68333
G1 X87.051 Y148.763 E8.69338
G1 X86.215 Y148.358 E8.71920
G1 X86.145 Y148.350 E8.72116
G1 X83.794 Y146.981 E8.79671
G1 X83.745 Y146.920 E8.79890
G1 X82.182 Y145.821 E8.85197
G1 X82.112 Y145.772 E8.85436
G1 X82.050 Y145.756 E8.85612
G1 X80.663 Y144.589 E8.90648
G1 X80.561 Y144.418 E8.91200
G1 X80.500 Y144.122 E8.92041
G1 X80.526 Y143.925 E8.92592
G1 X80.700 Y143.578 E8.93670
G1 X80.665 Y143.416 E8.94130
G1 X80.319 Y143.118 E8.95399
G1 X80.201 Y143.050 E8.95779
G1 X79.582 Y142.463 E8.98146
G1 X79.556 Y142.414 E8.98302
G1 X73.955 Y136.830 E9.20270
G1 X57.824 Y120.567 E9.83898
G1 X48.696 Y111.438 E10.19759
G1 X48.201 Y110.958 E10.21674
G1 X48.070 Y110.928 E10.22046
G1 X47.660 Y111.064 E10.23247
G1 X47.335 Y110.901 E10.24258
G1 X47.261 Y110.889 E10.24465
G1 X47.050 Y110.924 E10.25060
G1 X46.780 Y110.838 E10.25847
G1 X41.953 Y106.026 E10.44778
G1 X41.869 Y105.861 E10.45293
G1 X41.824 Y105.583 E10.46076
G1 X41.852 Y105.400 E10.46591
G1 X42.061 Y104.983 E10.47887
G1 X42.036 Y104.831 E10.48313
G1 X41.663 Y104.449 E10.49796
G1 X38.415 Y101.273 E10.62415
G1 X38.285 Y101.243 E10.62785
G1 X37.641 Y101.460 E10.64675
G1 X37.295 Y101.367 E10.65669
G1 X37.010 Y101.038 E10.66878
G1 X36.953 Y101.002 E10.67066
G1 X36.344 Y100.401 E10.69442
G1 X36.313 Y100.341 E10.69631
G1 X36.205 Y100.266 E10.69994
G1 X34.976 Y98.814 E10.75280
G1 X34.955 Y98.766 E10.75424
G1 X34.878 Y98.697 E10.75713
G1 X34.315 Y98.028 E10.78140
G1 X34.262 Y97.905 E10.78513
G1 X34.191 Y97.838 E10.78784
G1 X33.675 Y97.105 E10.81274
G1 X33.651 Y97.039 E10.81469
G1 X33.575 Y96.963 E10.81767
G1 X33.059 Y96.230 E10.84258
G1 X33.017 Y96.111 E10.84608
G1 X32.928 Y96.027 E10.84948
G1 X32.462 Y95.227 E10.87520
G1 X32.436 Y95.136 E10.87782
G1 X32.361 Y95.054 E10.88091
G1 X31.895 Y94.254 E10.90663
G1 X31.855 Y94.113 E10.91071
G1 X31.850 Y93.970 E10.91468
G1 X31.780 Y93.860 E10.91828
G1 X31.701 Y93.821 E10.92075
G1 X31.625 Y93.591 E10.92747
G1 X31.575 Y93.527 E10.92972
G1 X31.506 Y93.482 E10.93202
G1 X31.094 Y92.611 E10.95878
G1 X31.066 Y92.480 E10.96250
G1 X31.068 Y92.277 E10.96814
G1 X31.100 Y92.147 E10.97186
G1 X31.491 Y91.366 E10.99613
G1 X31.495 Y91.264 E10.99895
G1 X31.370 Y90.955 E11.00821
G1 X31.339 Y90.775 E11.01330
G1 X31.268 Y90.680 E11.01660
G1 X30.916 Y89.732 E11.04468
G1 X30.901 Y89.556 E11.04959
G1 X30.856 Y89.453 E11.05272
G1 X30.802 Y89.409 E11.05464
G1 X30.503 Y88.394 E11.08402
G1 X30.500 Y88.201 E11.08939
G1 X30.457 Y88.096 E11.09255
G1 X30.405 Y88.051 E11.09445
G1 X30.134 Y87.000 E11.12461
G1 X30.143 Y86.737 E11.13191
G1 X30.106 Y86.634 E11.13495
G1 X30.044 Y86.575 E11.13734
G1 X29.834 Y85.443 E11.16931
G1 X29.858 Y85.168 E11.17698
G1 X29.826 Y85.066 E11.17996
G1 X29.743 Y84.977 E11.18332
G1 X29.605 Y83.748 E11.21767
G1 X29.631 Y83.537 E11.22359
G1 X29.663 Y83.440 E11.22641
G1 X29.639 Y83.319 E11.22986
G1 X29.540 Y83.203 E11.23409
G1 X29.470 Y81.878 E11.27095
G1 X29.500 Y81.689 E11.27626
G1 X29.614 Y81.440 E11.28387
G1 X29.621 Y81.346 E11.28648
G1 X29.426 Y80.762 E11.30358
G1 X29.632 Y80.351 E11.31633
G1 X29.639 Y80.258 E11.31893
G1 X29.445 Y79.674 E11.33604
G1 X29.718 Y79.128 E11.35300
G1 X29.725 Y79.034 E11.35560
G1 X29.531 Y78.450 E11.37270
G1 X29.874 Y77.765 E11.39398
G1 X29.881 Y77.672 E11.39658
G1 X29.687 Y77.087 E11.41369
G1 X30.125 Y76.212 E11.44087
G1 X30.132 Y76.119 E11.44348
G1 X29.938 Y75.535 E11.46058
G1 X30.641 Y74.132 E11.50417
G1 X30.648 Y74.038 E11.50677
G1 X30.453 Y73.454 E11.52387
G1 X35.074 Y64.236 E11.81030
G1 X35.658 Y64.042 E11.82740
G1 X35.729 Y63.980 E11.83001
G1 X36.433 Y62.575 E11.87368
G1 X37.018 Y62.381 E11.89078
G1 X37.089 Y62.319 E11.89339
G1 X37.535 Y61.429 E11.92105
G1 X38.119 Y61.235 E11.93815
G1 X38.190 Y61.174 E11.94075
G1 X38.530 Y60.495 E11.96183
G1 X39.114 Y60.301 E11.97893
G1 X39.185 Y60.240 E11.98153
G1 X39.463 Y59.686 E11.99875
G1 X40.047 Y59.492 E12.01585
G1 X40.118 Y59.430 E12.01846
G1 X40.273 Y59.139 E12.02762
G1 X40.393 Y59.010 E12.03251
G1 X41.526 Y58.186 E12.07143
G1 X41.709 Y58.193 E12.07650
G1 X41.828 Y58.122 E12.08035
G1 X41.904 Y57.995 E12.08449
G1 X42.052 Y57.851 E12.09021
G1 X43.130 Y57.192 E12.12530
G1 X43.253 Y57.204 E12.12873
G1 X43.368 Y57.152 E12.13223
