; generated by Slic3r 1.2.9 on 2016-08-04 at 11:24:08

; external perimeters extrusion width = 0.42mm
; perimeters extrusion width = 0.53mm
; infill extrusion width = 0.53mm
; solid infill extrusion width = 0.53mm
; top infill extrusion width = 0.53mm
; support material extrusion width = 0.42mm

M104 S245 ; set temperature
M220 S100 ; reset speeds
M116 ; wait for all temperatures
G0 Z10 ; drive Z to 10mm height
G28 X0 Y0 ; home X and Y
G0 Z0 X30 Y30 F13000
M109 S245 ; wait for temperature to be reached
G21 ; set units to millimeters
G90 ; use absolute coordinates
M82 ; use absolute distances for extrusion
G92 E0
G1 E-1.00000 F2400.00000
G92 E0
G1 Z0.300 F8100.000
G1 X33.303 Y33.476 F8100.000
G1 E1.00000 F2400.00000
G1 X34.883 Y32.455 E1.05224 F2310.000
G1 X36.464 Y32.166 E1.09691
G1 X123.464 Y32.166 E3.51358
G1 X125.951 Y32.921 E3.58577
G1 X156.022 Y53.047 E4.59089 F2310.000
G1 X157.330 Y54.398 E4.64313
G1 X158.007 Y56.763 E4.71145
G1 X158.007 Y133.363 E6.83923
G1 X157.611 Y135.201 E6.89147
G1 X156.697 Y136.524 E6.93614
G1 X146.697 Y146.524 E7.32898
G1 X145.117 Y147.545 E7.38122
G1 X143.536 Y147.834 E7.42589
G1 X56.536 Y147.834 E9.84255
G1 X54.697 Y147.438 E9.89479
G1 X53.870 Y146.953 E9.92143
G1 X23.799 Y124.627 E10.96178
G1 X22.559 Y123.214 E11.01402
G1 X21.993 Y121.037 E11.07648
G1 X21.993 Y46.637 E13.14315
G1 X22.389 Y44.799 E13.19539
G1 X23.303 Y43.476 E13.24006
G1 X33.258 Y33.520 E13.63115
G1 X33.469 Y33.642 F8100.000
G1 X35.012 Y32.658 E13.68198 F2310.000
G1 X36.464 Y32.402 E13.72294
G1 X123.464 Y32.402 E16.13961
G1 X125.820 Y33.117 E16.20800
G1 X155.891 Y53.243 E17.21312 F2310.000
G1 X157.156 Y54.565 E17.26395
G1 X157.771 Y56.763 E17.32734
G1 X157.771 Y133.363 E19.45512
G1 X157.376 Y135.149 E19.50595
G1 X156.531 Y136.358 E19.54691
G1 X146.531 Y146.358 E19.93975
G1 X144.988 Y147.342 E19.99058
G1 X143.536 Y147.598 E20.03154
G1 X56.536 Y147.598 E22.44821
G1 X54.011 Y146.763 E22.52208
G1 X23.940 Y124.438 E23.56243
G1 X22.741 Y123.056 E23.61326
G1 X22.229 Y121.037 E23.67110
G1 X22.229 Y46.637 E25.73777
G1 X22.624 Y44.851 E25.78860
G1 X23.469 Y43.642 E25.82956
G1 X33.425 Y33.687 E26.22065
G1 E25.22065 F2400.00000
G92 E0
G1 X42.053 Y52.364 F8100.000
G1 E1.00000 F2400.00000
G1 X42.053 Y121.281 E2.91436 F2310.000
G1 X41.708 Y121.626 E2.92791
G1 X26.220 Y121.626 E3.35814
G1 X25.875 Y121.281 E3.37169
G1 X25.875 Y46.520 E5.44839
G1 X25.965 Y46.304 E5.45490
G1 X36.131 Y36.138 E5.85425
G1 X36.347 Y36.048 E5.86076
G1 X123.582 Y36.048 E8.28393
G1 X123.798 Y36.138 E8.29044
G1 X133.964 Y46.304 E8.68979
G1 X134.053 Y46.520 E8.69630
G1 X134.053 Y121.281 E10.77300
G1 X133.708 Y121.626 E10.78655
G1 X118.220 Y121.626 E11.21677
G1 X117.875 Y121.281 E11.23033
G1 X117.875 Y52.364 E13.14469
G1 X117.737 Y52.226 E13.15011
G1 X47.010 Y52.226 E15.11476
G1 X46.695 Y51.990 E15.12569
G1 X46.602 Y51.685 E15.13456
G1 X46.544 Y51.585 E15.13775
G1 X46.449 Y51.481 E15.14168
G1 X46.314 Y51.379 E15.14638
G1 X46.137 Y51.287 E15.15193
G1 X45.950 Y51.222 E15.15740
G1 X45.441 Y51.159 E15.17165
G1 X44.963 Y51.222 E15.18506
G1 X44.777 Y51.287 E15.19054
G1 X44.599 Y51.379 E15.19610
G1 X44.464 Y51.481 E15.20079
G1 X44.369 Y51.585 E15.20470
G1 X44.311 Y51.685 E15.20793
G1 X44.218 Y51.990 E15.21678
G1 X43.903 Y52.226 E15.22771
G1 X42.191 Y52.226 E15.27526
G1 X42.098 Y52.320 E15.27893
G1 X41.818 Y52.129 F8100.000
G1 X41.818 Y121.184 E17.19712 F2310.000
G1 X41.611 Y121.391 E17.20525
G1 X26.318 Y121.391 E17.63005
G1 X26.111 Y121.184 E17.63819
G1 X26.111 Y46.567 E19.71087
G1 X26.165 Y46.437 E19.71478
G1 X36.264 Y36.338 E20.11152
G1 X36.394 Y36.284 E20.11543
G1 X123.535 Y36.284 E22.53600
G1 X123.665 Y36.338 E22.53991
G1 X133.764 Y46.437 E22.93665
G1 X133.818 Y46.567 E22.94055
G1 X133.818 Y121.184 E25.01324
G1 X133.611 Y121.391 E25.02137
G1 X118.318 Y121.391 E25.44617
G1 X118.111 Y121.184 E25.45431
G1 X118.111 Y52.129 E27.37250
G1 X117.973 Y51.991 E27.37792
G1 X47.089 Y51.991 E29.34693
G1 X46.900 Y51.849 E29.35349
G1 X46.817 Y51.585 E29.36118
G1 X46.718 Y51.422 E29.36648
G1 X46.590 Y51.289 E29.37159
G1 X46.438 Y51.178 E29.37683
G1 X46.229 Y51.069 E29.38338
G1 X46.004 Y50.992 E29.38999
G1 X45.441 Y50.921 E29.40573
G1 X44.910 Y50.992 E29.42062
G1 X44.685 Y51.069 E29.42724
G1 X44.475 Y51.178 E29.43381
G1 X44.323 Y51.289 E29.43903
G1 X44.196 Y51.421 E29.44413
G1 X44.096 Y51.585 E29.44946
G1 X44.013 Y51.849 E29.45713
G1 X43.824 Y51.991 E29.46369
G1 X41.956 Y51.991 E29.51560
G1 X41.862 Y52.084 E29.51927
G1 X41.582 Y51.893 F8100.000
G1 X41.582 Y121.086 E31.44130 F2310.000
G1 X41.513 Y121.155 E31.44401
G1 X26.416 Y121.155 E31.86339
G1 X26.347 Y121.086 E31.86610
G1 X26.347 Y46.614 E33.93477
G1 X26.365 Y46.571 E33.93607
G1 X36.398 Y36.537 E34.33021
G1 X36.441 Y36.520 E34.33151
G1 X123.488 Y36.520 E36.74948
G1 X123.531 Y36.537 E36.75078
G1 X133.564 Y46.571 E37.14492
G1 X133.582 Y46.614 E37.14623
G1 X133.582 Y121.086 E39.21490
G1 X133.513 Y121.155 E39.21761
G1 X118.416 Y121.155 E39.63699
G1 X118.347 Y121.086 E39.63970
G1 X118.347 Y51.893 E41.56173
G1 X118.209 Y51.755 E41.56715
G1 X47.167 Y51.755 E43.54052
G1 X47.104 Y51.708 E43.54270
G1 X47.032 Y51.485 E43.54923
G1 X46.906 Y51.278 E43.55595
G1 X46.747 Y51.112 E43.56234
G1 X46.562 Y50.977 E43.56870
G1 X46.320 Y50.851 E43.57625
G1 X46.057 Y50.761 E43.58399
G1 X45.441 Y50.684 E43.60123
G1 X44.857 Y50.761 E43.61761
G1 X44.593 Y50.851 E43.62535
G1 X44.351 Y50.977 E43.63293
G1 X44.167 Y51.112 E43.63927
G1 X44.008 Y51.277 E43.64565
G1 X43.881 Y51.485 E43.65241
G1 X43.809 Y51.708 E43.65891
G1 X43.746 Y51.755 E43.66110
G1 X41.720 Y51.755 E43.71736
G1 X41.627 Y51.849 E43.72103
G1 E42.72103 F2400.00000
G92 E0
G1 X59.311 Y56.174 F8100.000
G1 E1.00000 F2400.00000
G1 X59.451 Y55.960 E1.00710 F2310.000
G1 X59.409 Y55.865 E1.00996
G1 X59.384 Y55.738 E1.01358
G1 X59.388 Y55.540 E1.01906
G1 X59.420 Y55.414 E1.02267
G1 X59.813 Y54.630 E1.04703
G1 X60.276 Y54.476 E1.06058
G1 X60.405 Y54.541 E1.06459
G1 X60.527 Y54.536 E1.06800
G1 X60.609 Y54.485 E1.07066
G1 X60.767 Y54.440 E1.07522
G1 X61.655 Y54.440 E1.09990
G1 X61.760 Y54.458 E1.10284
G1 X61.821 Y54.440 E1.10461
G1 X62.713 Y54.440 E1.12940
G1 X62.830 Y54.397 E1.13285
G1 X63.438 Y54.509 E1.15004
G1 X63.704 Y54.798 E1.16096
G1 X63.829 Y56.046 E1.19578
G1 X63.803 Y56.253 E1.20157
G1 X63.670 Y56.543 E1.21046
G1 X63.663 Y56.637 E1.21306
G1 X63.857 Y57.221 E1.23016
G1 X63.670 Y57.595 E1.24178
G1 X63.663 Y57.689 E1.24438
G1 X63.857 Y58.273 E1.26149
G1 X63.672 Y58.642 E1.27296
G1 X63.684 Y58.775 E1.27667
G1 X63.835 Y58.979 E1.28371
G1 X63.864 Y59.311 E1.29298
G1 X63.468 Y60.101 E1.31753
G1 X63.005 Y60.255 E1.33108
G1 X62.628 Y60.066 E1.34279
G1 X62.553 Y60.055 E1.34490
G1 X62.235 Y60.111 E1.35387
G1 X62.125 Y60.242 E1.35864
G1 X62.125 Y127.636 E3.23068
G1 X62.263 Y127.774 E3.23610
G1 X63.974 Y127.774 E3.28365
G1 X64.289 Y128.010 E3.29458
G1 X64.382 Y128.315 E3.30342
G1 X64.440 Y128.415 E3.30666
G1 X64.535 Y128.519 E3.31057
G1 X64.670 Y128.621 E3.31525
G1 X64.848 Y128.713 E3.32082
G1 X65.034 Y128.778 E3.32630
G1 X65.512 Y128.841 E3.33970
G1 X66.022 Y128.778 E3.35395
G1 X66.208 Y128.713 E3.35943
G1 X66.385 Y128.621 E3.36498
G1 X66.520 Y128.519 E3.36968
G1 X66.616 Y128.415 E3.37360
G1 X66.673 Y128.315 E3.37680
G1 X66.767 Y128.010 E3.38567
G1 X67.081 Y127.774 E3.39660
G1 X137.809 Y127.774 E5.36125
G1 X137.947 Y127.636 E5.36667
G1 X137.947 Y56.519 E7.34214
G1 X138.292 Y56.174 E7.35569
G1 X153.780 Y56.174 E7.78592
G1 X154.125 Y56.519 E7.79947
G1 X154.125 Y133.480 E9.93728
G1 X154.035 Y133.696 E9.94379
G1 X143.869 Y143.862 E10.34313
G1 X143.653 Y143.952 E10.34965
G1 X56.418 Y143.952 E12.77282
G1 X56.202 Y143.862 E12.77933
G1 X46.036 Y133.696 E13.17868
G1 X45.947 Y133.480 E13.18519
G1 X45.947 Y56.519 E15.32300
G1 X46.292 Y56.174 E15.33655
G1 X59.248 Y56.174 E15.69646
G1 X59.673 Y56.409 F8100.000
G1 X59.812 Y56.195 E15.70356 F2310.000
G1 X59.635 Y55.794 E15.71574
G1 X59.623 Y55.572 E15.72191
G1 X59.642 Y55.496 E15.72408
G1 X59.980 Y54.823 E15.74500
G1 X60.258 Y54.731 E15.75313
G1 X60.417 Y54.811 E15.75809
G1 X60.539 Y54.805 E15.76149
G1 X60.705 Y54.703 E15.76690
G1 X60.800 Y54.676 E15.76963
G1 X61.594 Y54.676 E15.79170
G1 X61.637 Y54.700 E15.79307
G1 X61.730 Y54.711 E15.79568
G1 X61.854 Y54.676 E15.79924
G1 X62.777 Y54.686 E15.82490
G1 X62.864 Y54.643 E15.82759
G1 X63.318 Y54.726 E15.84041
G1 X63.478 Y54.900 E15.84696
G1 X63.591 Y56.102 E15.88051
G1 X63.558 Y56.241 E15.88446
G1 X63.336 Y56.683 E15.89821
G1 X63.398 Y56.868 E15.90363
G1 X63.511 Y56.925 E15.90714
G1 X63.603 Y57.203 E15.91527
G1 X63.336 Y57.735 E15.93180
G1 X63.398 Y57.920 E15.93723
G1 X63.511 Y57.977 E15.94073
G1 X63.603 Y58.255 E15.94886
G1 X63.397 Y58.666 E15.96166
G1 X63.408 Y58.799 E15.96537
G1 X63.606 Y59.066 E15.97458
G1 X63.624 Y59.265 E15.98015
G1 X63.301 Y59.908 E16.00013
G1 X63.023 Y60.001 E16.00826
G1 X62.664 Y59.821 E16.01942
G1 X62.589 Y59.810 E16.02152
G1 X62.407 Y59.841 E16.02668
G1 X62.096 Y59.718 E16.03597
G1 X61.889 Y59.858 E16.04291
G1 X61.889 Y127.871 E17.93217
G1 X62.027 Y128.009 E17.93759
G1 X63.896 Y128.009 E17.98950
G1 X64.084 Y128.151 E17.99605
G1 X64.167 Y128.415 E18.00373
G1 X64.267 Y128.579 E18.00906
G1 X64.394 Y128.711 E18.01416
G1 X64.546 Y128.822 E18.01938
G1 X64.756 Y128.931 E18.02595
G1 X64.981 Y129.008 E18.03256
G1 X65.512 Y129.079 E18.04746
G1 X66.075 Y129.008 E18.06320
G1 X66.300 Y128.931 E18.06981
G1 X66.509 Y128.822 E18.07636
G1 X66.661 Y128.711 E18.08160
G1 X66.789 Y128.578 E18.08671
G1 X66.888 Y128.415 E18.09201
G1 X66.971 Y128.151 E18.09970
G1 X67.160 Y128.009 E18.10626
G1 X138.044 Y128.009 E20.07527
G1 X138.182 Y127.871 E20.08069
G1 X138.182 Y56.616 E22.06000
G1 X138.389 Y56.409 E22.06813
G1 X153.682 Y56.409 E22.49293
G1 X153.889 Y56.616 E22.50106
G1 X153.889 Y133.433 E24.63486
G1 X153.835 Y133.563 E24.63876
G1 X143.736 Y143.662 E25.03550
G1 X143.606 Y143.716 E25.03941
G1 X56.465 Y143.716 E27.45999
G1 X56.335 Y143.662 E27.46389
G1 X46.236 Y133.563 E27.86063
G1 X46.182 Y133.433 E27.86454
G1 X46.182 Y56.616 E29.99834
G1 X46.389 Y56.409 E30.00647
G1 X59.610 Y56.409 E30.37371
G1 X60.035 Y56.645 F8100.000
G1 X60.174 Y56.431 E30.38081 F2310.000
G1 X59.861 Y55.722 E30.40232
G1 X59.858 Y55.604 E30.40562
G1 X60.147 Y55.016 E30.42381
G1 X60.239 Y54.985 E30.42652
G1 X60.465 Y55.098 E30.43354
G1 X60.621 Y55.070 E30.43793
G1 X60.700 Y54.983 E30.44121
G1 X60.832 Y54.912 E30.44537
G1 X61.533 Y54.912 E30.46483
G1 X61.645 Y54.974 E30.46839
G1 X61.773 Y54.971 E30.47195
G1 X61.887 Y54.912 E30.47552
G1 X62.587 Y54.912 E30.49497
G1 X62.654 Y54.949 E30.49712
G1 X62.771 Y54.952 E30.50036
G1 X62.899 Y54.889 E30.50432
G1 X63.198 Y54.944 E30.51277
G1 X63.251 Y55.002 E30.51495
G1 X63.356 Y56.076 E30.54494
G1 X63.340 Y56.150 E30.54704
G1 X63.020 Y56.788 E30.56688
G1 X63.082 Y56.974 E30.57230
G1 X63.318 Y57.092 E30.57964
G1 X63.349 Y57.185 E30.58235
G1 X63.020 Y57.840 E30.60272
G1 X63.082 Y58.025 E30.60814
G1 X63.318 Y58.144 E30.61548
G1 X63.349 Y58.236 E30.61819
G1 X63.098 Y58.735 E30.63370
G1 X63.172 Y58.929 E30.63945
G1 X63.227 Y58.951 E30.64109
G1 X63.377 Y59.153 E30.64808
G1 X63.383 Y59.219 E30.64994
G1 X63.134 Y59.715 E30.66535
G1 X63.042 Y59.746 E30.66807
G1 X62.700 Y59.575 E30.67867
G1 X62.625 Y59.564 E30.68078
G1 X62.432 Y59.598 E30.68624
G1 X62.370 Y59.573 E30.68809
G1 X62.220 Y59.371 E30.69508
G1 X62.213 Y59.299 E30.69710
G1 X62.144 Y59.197 E30.70051
G1 X61.877 Y59.063 E30.70882
G1 X61.653 Y59.201 E30.71612
G1 X61.653 Y128.107 E32.63016
G1 X61.791 Y128.245 E32.63558
G1 X63.817 Y128.245 E32.69185
G1 X63.880 Y128.292 E32.69403
G1 X63.952 Y128.515 E32.70053
G1 X64.079 Y128.723 E32.70729
G1 X64.238 Y128.888 E32.71367
G1 X64.422 Y129.023 E32.72001
G1 X64.664 Y129.149 E32.72759
G1 X64.928 Y129.239 E32.73533
G1 X65.512 Y129.316 E32.75172
G1 X66.128 Y129.239 E32.76895
G1 X66.392 Y129.149 E32.77669
G1 X66.633 Y129.023 E32.78425
G1 X66.818 Y128.888 E32.79061
G1 X66.977 Y128.722 E32.79699
G1 X67.103 Y128.515 E32.80372
G1 X67.176 Y128.292 E32.81024
G1 X67.238 Y128.245 E32.81243
G1 X138.280 Y128.245 E34.78580
G1 X138.418 Y128.107 E34.79122
G1 X138.418 Y56.714 E36.77436
G1 X138.487 Y56.645 E36.77707
G1 X153.584 Y56.645 E37.19644
G1 X153.653 Y56.714 E37.19916
G1 X153.653 Y133.386 E39.32894
G1 X153.635 Y133.429 E39.33024
G1 X143.602 Y143.463 E39.72438
G1 X143.559 Y143.480 E39.72568
G1 X56.512 Y143.480 E42.14365
G1 X56.469 Y143.463 E42.14495
G1 X46.436 Y133.429 E42.53909
G1 X46.418 Y133.386 E42.54039
G1 X46.418 Y56.714 E44.67018
G1 X46.487 Y56.645 E44.67289
G1 X59.972 Y56.645 E45.04747
G1 E44.04747 F2400.00000
G92 E0
G1 X61.877 Y58.012 F8100.000
G1 E1.00000 F2400.00000
G1 X62.120 Y58.133 E1.00754 F2310.000
G1 X62.181 Y58.318 E1.01296
G1 X62.016 Y58.648 E1.02319
G1 X61.653 Y58.562 E1.03354
G1 X61.653 Y58.150 E1.04499
G1 X61.824 Y58.045 E1.05054
G1 E0.05054 F2400.00000
G92 E0
G1 X118.614 Y51.487 F8100.000
G1 E1.00000 F2400.00000
G1 X47.315 Y51.487 E2.98054 F1470.000
G1 X47.272 Y51.359 E2.98430
G1 X47.128 Y51.123 E2.99199
G1 X46.929 Y50.914 E3.00000
G1 X46.697 Y50.744 E3.00799
G1 X46.417 Y50.600 E3.01673
G1 X46.103 Y50.494 E3.02595
G1 X45.457 Y50.413 E3.04404
G1 X44.811 Y50.494 E3.06210
G1 X44.496 Y50.600 E3.07134
G1 X44.215 Y50.744 E3.08012
G1 X43.986 Y50.912 E3.08801
G1 X43.786 Y51.122 E3.09607
G1 X43.640 Y51.360 E3.10382
G1 X43.598 Y51.487 E3.10754
G1 X41.314 Y51.487 E3.17097
G1 X41.314 Y120.887 E5.09875
G1 X26.614 Y120.887 E5.50708
G1 X26.614 Y46.699 E7.56786
G1 X36.527 Y36.787 E7.95724
G1 X123.402 Y36.787 E10.37046
G1 X133.314 Y46.699 E10.75984
G1 X133.314 Y120.887 E12.82062
G1 X118.614 Y120.887 E13.22895
G1 X118.614 Y51.550 E15.15498
G1 X118.614 Y51.067 F8100.000
G1 X118.850 Y51.252 F8100.000
G1 X47.483 Y51.252 E17.13740 F2100.000
G1 X47.316 Y50.979 E17.14629
G1 X47.085 Y50.736 E17.15558
G1 X46.821 Y50.542 E17.16468
G1 X46.509 Y50.382 E17.17443
G1 X46.155 Y50.264 E17.18479
G1 X45.457 Y50.175 E17.20436
G1 X44.759 Y50.263 E17.22390
G1 X44.404 Y50.382 E17.23428
G1 X44.090 Y50.543 E17.24408
G1 X43.830 Y50.735 E17.25307
G1 X43.598 Y50.978 E17.26240
G1 X43.430 Y51.252 E17.27131
G1 X41.079 Y51.252 E17.33663
G1 X41.079 Y120.652 E19.26441
G1 X26.850 Y120.652 E19.65966
G1 X26.850 Y46.797 E21.71117
G1 X36.624 Y37.023 E22.09514
G1 X123.305 Y37.023 E24.50293
G1 X133.079 Y46.797 E24.88689
G1 X133.079 Y120.652 E26.93841
G1 X118.850 Y120.652 E27.33365
G1 X118.850 Y51.315 E29.25968
G1 X47.827 Y50.637 F8100.000
G1 X46.136 Y43.617 F8100.000
G1 X40.991 Y44.137 F8100.000
G1 X33.964 Y63.244 F8100.000
G1 X35.572 Y65.800 F8100.000
G1 X35.863 Y66.390 F8100.000
G1 X33.061 Y70.040 F8100.000
G1 X32.818 Y71.275 F8100.000
G1 X32.866 Y71.637 E29.26984 F2100.000
G1 X32.818 Y72.000 E29.28000
G1 X32.678 Y72.338 E29.29017
G1 X32.455 Y72.628 E29.30033
G1 X32.165 Y72.851 E29.31049
G1 X31.827 Y72.991 E29.32065
G1 X31.464 Y73.039 E29.33081
G1 X31.102 Y72.991 E29.34097
G1 X30.764 Y72.851 E29.35113
G1 X30.474 Y72.628 E29.36130
G1 X30.251 Y72.338 E29.37146
G1 X30.111 Y72.000 E29.38162
G1 X30.063 Y71.637 E29.39178
G1 X30.111 Y71.275 E29.40194
G1 X30.247 Y70.946 E29.41182
G1 X30.473 Y70.647 E29.42224
G1 X30.764 Y70.424 E29.43242
G1 X31.102 Y70.284 E29.44258
G1 X31.454 Y70.237 E29.45245 F2100.000
G1 X31.827 Y70.284 E29.46288
G1 X32.165 Y70.424 E29.47305
G1 X32.455 Y70.646 E29.48322
G1 X32.678 Y70.937 E29.49338
G1 X32.794 Y71.216 E29.50179
G1 X33.167 Y71.385 F8100.000
G1 X33.052 Y71.244 F8100.000
G1 X33.103 Y71.637 E29.51281 F2100.000
G1 X33.047 Y72.062 E29.52470
G1 X32.884 Y72.457 E29.53658
G1 X32.623 Y72.796 E29.54847
G1 X32.284 Y73.057 E29.56035
G1 X31.889 Y73.220 E29.57224
G1 X31.464 Y73.276 E29.58412
G1 X31.040 Y73.220 E29.59600
G1 X30.645 Y73.057 E29.60789
G1 X30.305 Y72.796 E29.61977
G1 X30.045 Y72.457 E29.63166
G1 X29.881 Y72.062 E29.64354
G1 X29.825 Y71.637 E29.65543
G1 X29.881 Y71.213 E29.66731
G1 X30.041 Y70.828 E29.67888
G1 X30.304 Y70.479 E29.69103
G1 X30.645 Y70.218 E29.70296
G1 X31.040 Y70.054 E29.71484
G1 X31.453 Y70.000 E29.72641 F2100.000
G1 X31.887 Y70.054 E29.73856
G1 X32.284 Y70.218 E29.75049
G1 X32.623 Y70.478 E29.76237
G1 X32.884 Y70.818 E29.77426
G1 X33.035 Y71.184 E29.78525
G1 X33.420 Y70.508 F8100.000
G1 X33.964 Y50.637 F8100.000
