; generated by Slic3r 1.2.9 on 2016-08-04 at 11:27:08

; external perimeters extrusion width = 0.42mm
; perimeters extrusion width = 0.53mm
; infill extrusion width = 0.53mm
; solid infill extrusion width = 0.53mm
; top infill extrusion width = 0.53mm
; support material extrusion width = 0.42mm

M104 S245 ; set temperature
M220 S100 ; reset speeds
M116 ; wait for all temperatures
G0 Z10 ; drive Z to 10mm height
G28 X0 Y0 ; home X and Y
G0 Z0 X30 Y30 F13000
M109 S245 ; wait for temperature to be reached
G21 ; set units to millimeters
G90 ; use absolute coordinates
M82 ; use absolute distances for extrusion
G92 E0
G1 E-1.00000 F2400.00000
G92 E0
G1 Z0.300 F8100.000
G1 X32.451 Y53.650 F8100.000
G1 E1.00000 F2400.00000
G1 X34.453 Y52.493 E1.06422 F2310.000
G1 X95.228 Y36.171 E2.81224
G1 X96.387 Y36.018 E2.84473
G1 X144.387 Y36.018 E4.17806
G1 X146.226 Y36.413 E4.23031
G1 X147.549 Y37.327 E4.27497 F2310.000
G1 X156.699 Y46.477 E4.63442
G1 X157.719 Y48.057 E4.68666
G1 X158.009 Y49.639 E4.73133
G1 X158.009 Y126.239 E6.85911
G1 X157.613 Y128.077 E6.91135
G1 X156.497 Y129.591 E6.96359
G1 X154.423 Y130.622 E7.02792
G1 X84.498 Y144.744 E9.00950
G1 X83.613 Y144.832 E9.03421
G1 X26.463 Y144.832 E10.62171
G1 X24.624 Y144.437 E10.67395
G1 X23.111 Y143.320 E10.72619
G1 X22.190 Y141.680 E10.77843
G1 X21.991 Y140.361 E10.81549
G1 X21.991 Y65.961 E12.88215
G1 X22.387 Y64.123 E12.93439
G1 X23.301 Y62.800 E12.97906
G1 X32.406 Y53.694 E13.33676
G1 X32.618 Y53.816 F8100.000
G1 X34.514 Y52.721 E13.39760 F2310.000
G1 X95.289 Y36.398 E15.14561
G1 X96.387 Y36.253 E15.17639
G1 X144.387 Y36.253 E16.50973
G1 X146.174 Y36.648 E16.56056
G1 X147.382 Y37.494 E16.60152 F2310.000
G1 X156.532 Y46.644 E16.96097
G1 X157.516 Y48.187 E17.01180
G1 X157.773 Y49.639 E17.05276
G1 X157.773 Y126.239 E19.18054
G1 X157.378 Y128.025 E19.23137
G1 X156.266 Y129.479 E19.28220
G1 X154.376 Y130.391 E19.34048
G1 X84.451 Y144.513 E21.32206
G1 X83.613 Y144.597 E21.34547
G1 X26.463 Y144.597 E22.93297
G1 X24.676 Y144.202 E22.98380
G1 X23.223 Y143.090 E23.03463
G1 X22.374 Y141.468 E23.08546
G1 X22.227 Y140.361 E23.11648
G1 X22.227 Y65.961 E25.18315
G1 X22.622 Y64.175 E25.23398
G1 X23.468 Y62.966 E25.27494
G1 X32.573 Y53.861 E25.63264
G1 E24.63264 F2400.00000
G92 E0
G1 X90.189 Y128.203 F8100.000
G1 E1.00000 F2400.00000
G1 X90.065 Y126.955 E1.03484 F2310.000
G1 X90.091 Y126.748 E1.04063
G1 X90.201 Y126.503 E1.04808
G1 X90.187 Y126.367 E1.05189
G1 X90.068 Y126.216 E1.05723
G1 X90.068 Y124.789 E1.09687
G1 X90.100 Y124.620 E1.10164
G1 X90.224 Y124.354 E1.10981
G1 X90.231 Y124.260 E1.11241
G1 X90.037 Y123.676 E1.12952
G1 X90.391 Y122.968 E1.15150
G1 X90.569 Y122.815 E1.15801
G1 X90.909 Y122.702 E1.16797
G1 X91.143 Y122.719 E1.17448
G1 X91.885 Y123.091 E1.19753
G1 X92.729 Y123.553 E1.22429
G1 X92.825 Y123.651 E1.22809
G1 X93.527 Y123.974 E1.24956
G1 X93.688 Y124.151 E1.25621
G1 X93.810 Y124.497 E1.26639
G1 X93.794 Y124.736 E1.27304
G1 X93.713 Y124.898 E1.27806
G1 X93.707 Y124.991 E1.28067
G1 X93.901 Y125.576 E1.29777
G1 X93.772 Y125.833 E1.30577
G1 X93.833 Y126.019 E1.31120
G1 X94.665 Y126.436 E1.33705
G1 X94.819 Y126.899 E1.35060
G1 X94.081 Y128.371 E1.39636
G1 X93.618 Y128.525 E1.40991
G1 X93.489 Y128.460 E1.41392
G1 X93.366 Y128.466 E1.41733
G1 X93.285 Y128.516 E1.41999
G1 X93.127 Y128.561 E1.42455
G1 X92.238 Y128.561 E1.44923
G1 X92.134 Y128.544 E1.45218
G1 X92.073 Y128.561 E1.45394
G1 X91.180 Y128.561 E1.47873
G1 X91.064 Y128.605 E1.48219
G1 X90.455 Y128.492 E1.49937
G1 X90.232 Y128.249 E1.50855
G1 E0.50855 F2400.00000
G92 E0
G1 X93.441 Y126.275 F8100.000
G1 E1.00000 F2400.00000
G1 X93.670 Y126.389 E1.00711 F2310.000
G1 X93.764 Y126.396 E1.00972
G1 X93.942 Y126.337 E1.01495
G1 X94.472 Y126.602 E1.03142
G1 X94.565 Y126.880 E1.03955
G1 X93.914 Y128.178 E1.07988
G1 X93.636 Y128.271 E1.08802
G1 X93.477 Y128.191 E1.09297
G1 X93.354 Y128.196 E1.09637
G1 X93.189 Y128.299 E1.10178
G1 X93.094 Y128.325 E1.10451
G1 X92.300 Y128.325 E1.12658
G1 X92.256 Y128.301 E1.12795
G1 X92.163 Y128.290 E1.13056
G1 X92.040 Y128.325 E1.13412
G1 X91.116 Y128.316 E1.15978
G1 X91.029 Y128.359 E1.16248
G1 X90.576 Y128.275 E1.17530
G1 X90.416 Y128.101 E1.18185
G1 X90.301 Y126.948 E1.21405
G1 X90.336 Y126.760 E1.21936
G1 X90.479 Y126.475 E1.22822
G1 X90.465 Y126.338 E1.23203
G1 X90.303 Y126.134 E1.23927
G1 X90.303 Y124.803 E1.27625
G1 X90.340 Y124.649 E1.28063
G1 X90.558 Y124.214 E1.29415
G1 X90.496 Y124.029 E1.29957
G1 X90.383 Y123.972 E1.30308
G1 X90.291 Y123.694 E1.31121
G1 X90.581 Y123.116 E1.32918
G1 X90.687 Y123.024 E1.33309
G1 X90.939 Y122.940 E1.34045
G1 X91.079 Y122.950 E1.34435
G1 X91.737 Y123.280 E1.36480
G1 X91.789 Y123.340 E1.36699
G1 X91.869 Y123.382 E1.36951
G1 X91.929 Y123.387 E1.37119
G1 X92.577 Y123.739 E1.39164
G1 X92.678 Y123.842 E1.39567
G1 X93.385 Y124.168 E1.41730
G1 X93.482 Y124.275 E1.42129
G1 X93.571 Y124.530 E1.42882
G1 X93.562 Y124.673 E1.43281
G1 X93.380 Y125.038 E1.44412
G1 X93.441 Y125.223 E1.44955
G1 X93.554 Y125.280 E1.45305
G1 X93.646 Y125.557 E1.46118
G1 X93.380 Y126.089 E1.47772
G1 X93.421 Y126.215 E1.48139
G1 X93.444 Y126.746 F8100.000
G1 X93.758 Y126.769 E1.49013 F2310.000
G1 X93.831 Y126.622 E1.49470
G1 X93.924 Y126.591 E1.49742
G1 X94.279 Y126.769 E1.50846
G1 X94.310 Y126.862 E1.51117
G1 X93.747 Y127.986 E1.54608
G1 X93.654 Y128.016 E1.54879
G1 X93.428 Y127.903 E1.55582
G1 X93.273 Y127.932 E1.56021
G1 X93.193 Y128.019 E1.56349
G1 X93.061 Y128.090 E1.56765
G1 X92.361 Y128.090 E1.58710
G1 X92.249 Y128.027 E1.59067
G1 X92.121 Y128.030 E1.59423
G1 X92.007 Y128.090 E1.59779
G1 X91.307 Y128.090 E1.61725
G1 X91.239 Y128.052 E1.61940
G1 X91.123 Y128.049 E1.62264
G1 X90.995 Y128.113 E1.62660
G1 X90.696 Y128.058 E1.63505
G1 X90.642 Y128.000 E1.63724
G1 X90.538 Y126.925 E1.66724
G1 X90.554 Y126.851 E1.66934
G1 X90.805 Y126.351 E1.68487
G1 X90.708 Y126.144 E1.69121
G1 X90.590 Y126.116 E1.69458
G1 X90.539 Y126.052 E1.69686
G1 X90.539 Y124.816 E1.73118
G1 X90.556 Y124.742 E1.73329
G1 X90.874 Y124.109 E1.75298
G1 X90.813 Y123.924 E1.75840
G1 X90.576 Y123.805 E1.76574
G1 X90.546 Y123.713 E1.76845
G1 X90.771 Y123.263 E1.78241
G1 X90.806 Y123.233 E1.78371
G1 X90.969 Y123.179 E1.78846
G1 X91.015 Y123.182 E1.78976
G1 X91.590 Y123.470 E1.80761
G1 X91.672 Y123.565 E1.81111
G1 X91.753 Y123.607 E1.81363
G1 X91.859 Y123.617 E1.81660
G1 X92.424 Y123.924 E1.83445
G1 X92.466 Y123.999 E1.83685
G1 X92.583 Y124.090 E1.84097
G1 X92.659 Y124.093 E1.84309
G1 X93.243 Y124.362 E1.86094
G1 X93.275 Y124.398 E1.86227
G1 X93.333 Y124.563 E1.86713
G1 X93.330 Y124.611 E1.86846
G1 X93.063 Y125.143 E1.88500
G1 X93.125 Y125.328 E1.89042
G1 X93.361 Y125.446 E1.89776
G1 X93.392 Y125.539 E1.90047
G1 X93.063 Y126.195 E1.92083
G1 X93.125 Y126.380 E1.92626
G1 X93.361 Y126.498 E1.93359
G1 X93.424 Y126.687 E1.93911
G1 E0.93911 F2400.00000
G92 E0
G1 X131.889 Y124.760 F8100.000
G1 E1.00000 F2400.00000
G1 X131.745 Y124.423 E1.01018 F2310.000
G1 X131.541 Y124.157 E1.01951
G1 X131.253 Y123.931 E1.02969
G1 X130.886 Y123.779 E1.04072
G1 X130.491 Y123.728 E1.05178
G1 X110.584 Y123.728 E1.60476
G1 X110.189 Y123.779 E1.61581
G1 X109.849 Y123.915 E1.62600
G1 X109.556 Y124.135 E1.63618
G1 X109.314 Y124.450 E1.64721
G1 X109.177 Y124.790 E1.65739
G1 X109.134 Y125.123 E1.66672
G1 X109.177 Y125.487 E1.67690
G1 X109.329 Y125.854 E1.68793
G1 X109.572 Y126.171 E1.69902
G1 X109.248 Y126.828 E1.71937
G1 X96.143 Y126.828 E2.08339
G1 X95.798 Y126.483 E2.09695
G1 X95.798 Y40.245 E4.49245
G1 X96.143 Y39.900 E4.50600
G1 X144.505 Y39.900 E5.84937
G1 X144.721 Y39.989 E5.85588
G1 X154.037 Y49.305 E6.22183
G1 X154.126 Y49.522 E6.22834
G1 X154.126 Y126.483 E8.36615
G1 X153.781 Y126.828 E8.37971
G1 X131.826 Y126.828 E8.98957
G1 X131.502 Y126.171 E9.00992
G1 X131.745 Y125.854 E9.02101
G1 X131.889 Y125.517 E9.03119
G1 X131.941 Y125.154 E9.04137
G1 X131.902 Y124.822 E9.05066
G1 X131.973 Y126.592 F8100.000
G1 X131.779 Y126.198 E9.06287 F2310.000
G1 X131.967 Y125.946 E9.07160
G1 X132.119 Y125.579 E9.08265
G1 X132.179 Y125.123 E9.09541
G1 X132.127 Y124.729 E9.10646
G1 X131.967 Y124.331 E9.11836
G1 X131.709 Y123.989 E9.13027
G1 X131.345 Y123.709 E9.14302
G1 X130.947 Y123.549 E9.15492
G1 X130.507 Y123.492 E9.16727
G1 X110.553 Y123.493 E9.72154
G1 X110.098 Y123.557 E9.73431
G1 X109.703 Y123.725 E9.74621
G1 X109.366 Y123.989 E9.75811
G1 X109.108 Y124.331 E9.77002
G1 X108.956 Y124.699 E9.78107
G1 X108.896 Y125.123 E9.79297
G1 X108.956 Y125.579 E9.80573
G1 X109.108 Y125.946 E9.81678
G1 X109.296 Y126.198 E9.82551
G1 X109.102 Y126.592 E9.83772
G1 X96.241 Y126.592 E10.19497
G1 X96.034 Y126.385 E10.20310
G1 X96.034 Y40.342 E12.59318
G1 X96.241 Y40.135 E12.60131
G1 X144.458 Y40.135 E13.94067
G1 X144.588 Y40.189 E13.94457
G1 X153.740 Y49.341 E14.30410
G1 X153.837 Y49.439 E14.30792
G1 X153.891 Y49.568 E14.31183
G1 X153.891 Y126.385 E16.44563
G1 X153.684 Y126.592 E16.45376
G1 X132.036 Y126.592 E17.05509
G1 X132.119 Y126.357 F8100.000
G1 X132.055 Y126.225 E17.05916 F2310.000
G1 X132.173 Y126.065 E17.06468
G1 X132.349 Y125.640 E17.07746
G1 X132.417 Y125.154 E17.09109
G1 X132.357 Y124.667 E17.10471
G1 X132.173 Y124.213 E17.11834
G1 X131.877 Y123.821 E17.13197
G1 X131.490 Y123.519 E17.14559
G1 X131.039 Y123.328 E17.15922
G1 X130.522 Y123.257 E17.17371
G1 X110.537 Y123.258 E17.72883
G1 X110.036 Y123.328 E17.74290
G1 X109.584 Y123.519 E17.75652
G1 X109.198 Y123.821 E17.77015
G1 X108.902 Y124.213 E17.78378
G1 X108.718 Y124.667 E17.79740
G1 X108.658 Y125.154 E17.81103
G1 X108.726 Y125.640 E17.82466
G1 X108.902 Y126.065 E17.83743
G1 X109.020 Y126.225 E17.84296
G1 X108.955 Y126.357 E17.84703
G1 X96.339 Y126.357 E18.19749
G1 X96.270 Y126.288 E18.20020
G1 X96.270 Y40.440 E20.58486
G1 X96.339 Y40.371 E20.58757
G1 X144.411 Y40.371 E21.92291
G1 X144.454 Y40.389 E21.92421
G1 X153.637 Y49.572 E22.28496
G1 X153.655 Y49.615 E22.28626
G1 X153.655 Y126.288 E24.41605
G1 X153.586 Y126.357 E24.41876
G1 X132.182 Y126.357 E25.01331
G1 E24.01331 F2400.00000
G92 E0
G1 X84.202 Y126.357 F8100.000
G1 E1.00000 F2400.00000
G1 X84.202 Y140.605 E1.39580 F2310.000
G1 X83.857 Y140.950 E1.40935
G1 X70.981 Y140.950 E1.76702
G1 X70.734 Y140.829 E1.77465
G1 X70.466 Y140.480 E1.78688
G1 X70.151 Y140.238 E1.79791
G1 X69.811 Y140.101 E1.80809
G1 X69.416 Y140.050 E1.81915
G1 X49.509 Y140.050 E2.37213
G1 X49.114 Y140.101 E2.38318
G1 X48.774 Y140.238 E2.39336
G1 X48.459 Y140.480 E2.40440
G1 X48.191 Y140.829 E2.41662
G1 X47.945 Y140.950 E2.42426
G1 X26.219 Y140.950 E3.02776
G1 X25.874 Y140.605 E3.04131
G1 X25.874 Y65.844 E5.11801
G1 X25.963 Y65.628 E5.12452
G1 X35.279 Y56.312 E5.49047
G1 X35.495 Y56.222 E5.49698
G1 X83.857 Y56.222 E6.84035
G1 X84.202 Y56.567 E6.85390
G1 X84.202 Y126.294 E8.79075 F2310.000
G1 E7.79075 F2400.00000
G92 E0
G1 X83.966 Y140.508 F8100.000
G1 E1.00000 F2400.00000
G1 X83.759 Y140.715 E1.00813 F2310.000
G1 X71.035 Y140.715 E1.36156
G1 X70.888 Y140.642 E1.36614
G1 X70.612 Y140.290 E1.37856
G1 X70.270 Y140.032 E1.39046
G1 X69.873 Y139.872 E1.40237
G1 X69.432 Y139.815 E1.41471
G1 X49.493 Y139.815 E1.96855
G1 X49.053 Y139.872 E1.98090
G1 X48.655 Y140.032 E1.99280
G1 X48.313 Y140.290 E2.00471
G1 X48.038 Y140.642 E2.01712
G1 X47.890 Y140.715 E2.02170
G1 X26.316 Y140.715 E2.62096
G1 X26.109 Y140.508 E2.62910
G1 X26.109 Y65.891 E4.70178
G1 X26.163 Y65.761 E4.70569
G1 X35.412 Y56.512 E5.06904
G1 X35.542 Y56.458 E5.07295
G1 X83.759 Y56.458 E6.41230
G1 X83.966 Y56.665 E6.42043
G1 X83.966 Y140.445 E8.74765
G1 X83.730 Y140.410 F8100.000
G1 X83.661 Y140.479 E8.75036 F2310.000
G1 X71.090 Y140.479 E9.09955
G1 X71.041 Y140.455 E9.10108
G1 X70.780 Y140.122 E9.11283
G1 X70.389 Y139.826 E9.12646
G1 X69.934 Y139.642 E9.14008
G1 X69.447 Y139.579 E9.15372
G1 X49.478 Y139.579 E9.70842
G1 X48.991 Y139.642 E9.72206
G1 X48.536 Y139.826 E9.73568
G1 X48.145 Y140.122 E9.74931
G1 X47.884 Y140.455 E9.76106
G1 X47.835 Y140.479 E9.76259
G1 X26.414 Y140.479 E10.35762
G1 X26.345 Y140.410 E10.36033
G1 X26.345 Y65.938 E12.42900
G1 X26.363 Y65.895 E12.43030
G1 X35.546 Y56.711 E12.79105
G1 X35.589 Y56.693 E12.79235
G1 X83.661 Y56.693 E14.12769
G1 X83.730 Y56.762 E14.13040
G1 X83.730 Y140.347 E16.45220
G1 X83.463 Y140.211 F8100.000
G1 X71.192 Y140.211 E16.79305 F1470.000
G1 X70.984 Y139.940 E16.80254
G1 X70.538 Y139.598 E16.81814
G1 X70.019 Y139.383 E16.83374
G1 X69.472 Y139.311 E16.84907
G1 X49.453 Y139.311 E17.40517
G1 X48.906 Y139.383 E17.42050
G1 X48.387 Y139.598 E17.43610
G1 X47.941 Y139.940 E17.45170
G1 X47.733 Y140.211 E17.46119
G1 X26.613 Y140.211 E18.04788
G1 X26.613 Y66.023 E20.10865
G1 X35.675 Y56.961 E20.46464
G1 X83.463 Y56.961 E21.79209
G1 X83.463 Y140.148 E24.10284
G1 X83.099 Y140.001 F8100.000
G1 X83.227 Y139.976 F8100.000
G1 X71.308 Y139.976 E24.43392 F2100.000
G1 X71.152 Y139.772 E24.44105
G1 X70.657 Y139.392 E24.45837
G1 X70.081 Y139.154 E24.47569
G1 X69.488 Y139.076 E24.49231
G1 X49.437 Y139.076 E25.04927
G1 X48.844 Y139.154 E25.06588
G1 X48.268 Y139.392 E25.08321
G1 X47.773 Y139.772 E25.10053
G1 X47.617 Y139.976 E25.10766
G1 X26.848 Y139.976 E25.68457
G1 X26.848 Y66.121 E27.73609
G1 X35.772 Y57.197 E28.08666
G1 X83.227 Y57.197 E29.40485
G1 X83.227 Y139.913 E31.70251
G1 X70.019 Y68.539 F8100.000
G1 X69.472 Y68.611 E31.71783 F1470.000
G1 X49.453 Y68.611 E32.27393
G1 X48.906 Y68.539 E32.28926
G1 X48.387 Y68.324 E32.30486
G1 X47.941 Y67.982 E32.32046
G1 X47.600 Y67.537 E32.33606
G1 X47.391 Y67.033 E32.35121
G1 X47.311 Y66.462 E32.36723
G1 X47.385 Y65.904 E32.38284
G1 X47.600 Y65.386 E32.39844
G1 X47.941 Y64.940 E32.41404
G1 X48.387 Y64.598 E32.42964
G1 X48.906 Y64.383 E32.44524
G1 X49.453 Y64.311 E32.46057
G1 X69.472 Y64.311 E33.01667 F1470.000
G1 X70.019 Y64.383 E33.03199
G1 X70.538 Y64.598 E33.04759
G1 X70.984 Y64.940 E33.06319
G1 X71.326 Y65.386 E33.07879
G1 X71.541 Y65.904 E33.09439
G1 X71.614 Y66.461 E33.10999
G1 X71.541 Y67.018 E33.12559
G1 X71.326 Y67.537 E33.14119
G1 X70.984 Y67.982 E33.15679
G1 X70.538 Y68.324 E33.17239
G1 X70.078 Y68.515 E33.18624
G1 X69.893 Y68.940 F8100.000
G1 X70.110 Y68.757 F8100.000
G1 X69.488 Y68.847 E33.20369 F2100.000
G1 X49.437 Y68.847 E33.76065
G1 X48.844 Y68.769 E33.77727
G1 X48.268 Y68.530 E33.79459
G1 X47.773 Y68.150 E33.81192
G1 X47.394 Y67.656 E33.82924
G1 X47.162 Y67.095 E33.84609
G1 X47.073 Y66.463 E33.86383
G1 X47.155 Y65.843 E33.88119
G1 X47.394 Y65.267 E33.89852
G1 X47.773 Y64.772 E33.91584
G1 X48.268 Y64.392 E33.93316
G1 X48.844 Y64.154 E33.95049
G1 X49.437 Y64.076 E33.96710
G1 X69.488 Y64.076 E34.52406 F2100.000
G1 X70.081 Y64.154 E34.54068
G1 X70.657 Y64.392 E34.55800
G1 X71.152 Y64.772 E34.57532
G1 X71.531 Y65.267 E34.59265
G1 X71.770 Y65.843 E34.60997
G1 X71.852 Y66.461 E34.62729
G1 X71.770 Y67.080 E34.64462
G1 X71.531 Y67.656 E34.66194
G1 X71.152 Y68.151 E34.67926
G1 X70.657 Y68.530 E34.69659
G1 X70.168 Y68.733 E34.71130
G1 X69.472 Y79.311 F8100.000
G1 X70.019 Y79.383 E34.72662 F1470.000
G1 X70.538 Y79.598 E34.74222
G1 X70.984 Y79.940 E34.75782
G1 X71.326 Y80.386 E34.77342
G1 X71.534 Y80.889 E34.78857
G1 X71.614 Y81.461 E34.80459
G1 X71.541 Y82.018 E34.82021
G1 X71.326 Y82.537 E34.83581
G1 X70.984 Y82.982 E34.85141
G1 X70.538 Y83.324 E34.86701
G1 X70.019 Y83.539 E34.88261
G1 X69.472 Y83.611 E34.89793
G1 X49.453 Y83.611 E35.45404
G1 X48.906 Y83.539 E35.46936
G1 X48.387 Y83.324 E35.48496
G1 X47.941 Y82.982 E35.50056
G1 X47.600 Y82.537 E35.51616
G1 X47.391 Y82.033 E35.53131
G1 X47.311 Y81.462 E35.54733
G1 X47.385 Y80.904 E35.56295
G1 X47.600 Y80.386 E35.57855
G1 X47.941 Y79.940 E35.59415
G1 X48.387 Y79.598 E35.60975
G1 X48.906 Y79.383 E35.62535
G1 X49.453 Y79.311 E35.64067
G1 X69.409 Y79.311 E36.19502 F1470.000
G1 X69.713 Y78.967 F8100.000
G1 X69.472 Y79.076 F8100.000
G1 X70.081 Y79.154 E36.21206 F2100.000
G1 X70.657 Y79.392 E36.22939
G1 X71.152 Y79.772 E36.24671
G1 X71.531 Y80.267 E36.26403
G1 X71.764 Y80.827 E36.28088
G1 X71.852 Y81.460 E36.29863
G1 X71.770 Y82.080 E36.31599
G1 X71.531 Y82.656 E36.33331
G1 X71.152 Y83.151 E36.35064
G1 X70.657 Y83.530 E36.36796
G1 X70.081 Y83.769 E36.38528
G1 X69.488 Y83.847 E36.40190
G1 X49.437 Y83.847 E36.95886
G1 X48.844 Y83.769 E36.97547
G1 X48.268 Y83.530 E36.99280
G1 X47.773 Y83.151 E37.01012
