; generated by Slic3r 1.2.9 on 2016-08-28 at 12:38:44

; external perimeters extrusion width = 0.42mm
; perimeters extrusion width = 0.53mm
; infill extrusion width = 0.53mm
; solid infill extrusion width = 0.53mm
; top infill extrusion width = 0.53mm

M104 S245 ; set temperature
M220 S100 ; reset speeds
M116 ; wait for all temperatures
G0 Z10 ; drive Z to 10mm height
G28 X0 Y0 ; home X and Y
G0 Z0 X30 Y30 F13000
M109 S245 ; wait for temperature to be reached
G21 ; set units to millimeters
G90 ; use absolute coordinates
M82 ; use absolute distances for extrusion
G92 E0
G1 E-1.00000 F2400.00000
G92 E0
G1 Z0.300 F8100.000
G1 X82.497 Y66.235 F8100.000
G1 E1.00000 F2400.00000
G1 X123.211 Y15.534 E2.80624 F2310.000
G1 X123.807 Y14.939 E2.82964
G1 X124.059 Y14.731 E2.83872
G1 X124.779 Y14.246 E2.86282
G1 X125.068 Y14.090 E2.87195
G1 X125.866 Y13.753 E2.89599
G1 X126.186 Y13.654 E2.90531
G1 X127.073 Y13.474 E2.93044
G1 X127.802 Y13.418 E2.95077
G1 X131.128 Y13.376 E3.04316
G1 X134.497 Y13.359 E3.13675
G1 X134.976 Y13.382 E3.15005
G1 X135.319 Y13.418 E3.15963 F2310.000
G1 X136.176 Y13.591 E3.18393
G1 X136.497 Y13.690 E3.19326
G1 X137.310 Y14.031 E3.21775
G1 X137.599 Y14.187 E3.22688
G1 X138.319 Y14.672 E3.25098
G1 X138.571 Y14.880 E3.26006
G1 X139.173 Y15.482 E3.28370
G1 X139.381 Y15.734 E3.29277
G1 X139.868 Y16.457 E3.31699
G1 X140.024 Y16.746 E3.32611
G1 X140.361 Y17.549 E3.35031
G1 X140.460 Y17.869 E3.35962
G1 X140.622 Y18.614 E3.38078
G1 X153.251 Y115.813 E6.10345
G1 X153.288 Y116.389 E6.11949
G1 X153.288 Y154.153 E7.16848
G1 X153.272 Y154.534 E7.17908
G1 X152.709 Y161.090 E7.36186
G1 X152.675 Y161.399 E7.37049
G1 X152.455 Y162.376 E7.39832
G1 X152.355 Y162.664 E7.40679
G1 X151.965 Y163.498 E7.43237
G1 X151.809 Y163.758 E7.44079
G1 X151.265 Y164.486 E7.46602
G1 X151.057 Y164.712 E7.47455
G1 X150.438 Y165.269 E7.49769
G1 X150.187 Y165.456 E7.50638
G1 X149.460 Y165.897 E7.53001
G1 X149.170 Y166.037 E7.53896
G1 X148.424 Y166.318 E7.56110
G1 X148.104 Y166.407 E7.57033
G1 X147.307 Y166.553 E7.59282
G1 X146.564 Y166.602 E7.61352
G1 X57.223 Y166.641 E10.09519
G1 X55.503 Y166.297 E10.14393
G1 X55.037 Y166.103 E10.15795
G1 X54.569 Y165.876 E10.17240
G1 X54.146 Y165.637 E10.18589
G1 X29.632 Y150.926 E10.98005
G1 X29.086 Y150.540 E10.99862
G1 X28.834 Y150.332 E11.00770
G1 X28.226 Y149.722 E11.03162
G1 X28.018 Y149.470 E11.04068
G1 X27.546 Y148.768 E11.06418
G1 X27.388 Y148.479 E11.07332
G1 X27.044 Y147.664 E11.09792
G1 X26.946 Y147.344 E11.10720
G1 X26.768 Y146.465 E11.13213
G1 X26.712 Y145.679 E11.15401
G1 X26.712 Y137.883 E11.37057
G1 X26.734 Y137.441 E11.38286
G1 X26.768 Y137.096 E11.39248
G1 X26.945 Y136.222 E11.41726
G1 X27.043 Y135.902 E11.42657
G1 X27.385 Y135.088 E11.45109
G1 X27.543 Y134.798 E11.46026
G1 X27.987 Y134.129 E11.48254
G1 X82.458 Y66.284 E13.89939
G1 X82.681 Y66.382 F8100.000
G1 X123.392 Y15.684 E15.70552 F2310.000
G1 X123.957 Y15.120 E15.72769
G1 X124.209 Y14.912 E15.73677
G1 X124.891 Y14.453 E15.75961
G1 X125.180 Y14.297 E15.76873
G1 X125.936 Y13.978 E15.79151
G1 X126.256 Y13.879 E15.80082
G1 X127.096 Y13.708 E15.82463
G1 X127.805 Y13.654 E15.84439
G1 X131.131 Y13.612 E15.93679
G1 X134.499 Y13.595 E16.03033
G1 X134.952 Y13.617 E16.04292
G1 X135.295 Y13.652 E16.05251 F2310.000
G1 X136.107 Y13.817 E16.07552
G1 X136.428 Y13.915 E16.08485
G1 X137.198 Y14.238 E16.10805
G1 X137.487 Y14.394 E16.11718
G1 X138.169 Y14.854 E16.14001
G1 X138.421 Y15.062 E16.14909
G1 X138.991 Y15.632 E16.17149
G1 X139.199 Y15.884 E16.18056
G1 X139.660 Y16.569 E16.20350
G1 X139.816 Y16.858 E16.21262
G1 X140.135 Y17.619 E16.23554
G1 X140.234 Y17.939 E16.24485
G1 X140.388 Y18.644 E16.26490
G1 X153.017 Y115.843 E18.98757
G1 X153.052 Y116.389 E19.00276
G1 X153.052 Y154.153 E20.05176
G1 X153.037 Y154.514 E20.06180
G1 X152.475 Y161.064 E20.24442
G1 X152.441 Y161.373 E20.25305
G1 X152.232 Y162.299 E20.27941
G1 X152.132 Y162.587 E20.28788
G1 X151.763 Y163.377 E20.31211
G1 X151.607 Y163.637 E20.32054
G1 X151.091 Y164.326 E20.34443
G1 X150.883 Y164.552 E20.35296
G1 X150.297 Y165.080 E20.37488
G1 X150.046 Y165.267 E20.38358
G1 X149.357 Y165.685 E20.40596
G1 X149.067 Y165.825 E20.41491
G1 X148.360 Y166.091 E20.43588
G1 X148.040 Y166.180 E20.44511
G1 X147.286 Y166.318 E20.46642
G1 X146.564 Y166.366 E20.48653
G1 X57.223 Y166.405 E22.96820
G1 X55.593 Y166.080 E23.01437
G1 X55.127 Y165.886 E23.02839
G1 X54.684 Y165.670 E23.04208
G1 X54.268 Y165.435 E23.05538
G1 X29.753 Y150.724 E23.84954
G1 X29.236 Y150.358 E23.86713
G1 X28.984 Y150.150 E23.87621
G1 X28.408 Y149.572 E23.89887
G1 X28.201 Y149.320 E23.90793
G1 X27.753 Y148.656 E23.93019
G1 X27.595 Y148.367 E23.93933
G1 X27.270 Y147.594 E23.96263
G1 X27.171 Y147.275 E23.97191
G1 X27.003 Y146.441 E23.99553
G1 X26.948 Y145.679 E24.01677
G1 X26.948 Y137.883 E24.23333
G1 X26.968 Y137.464 E24.24497
G1 X27.003 Y137.120 E24.25458
G1 X27.170 Y136.291 E24.27806
G1 X27.268 Y135.971 E24.28737
G1 X27.593 Y135.200 E24.31060
G1 X27.750 Y134.910 E24.31976
G1 X28.171 Y134.277 E24.34088
G1 X82.642 Y66.431 E26.75772
G1 E25.75772 F2400.00000
G92 E0
G1 X84.590 Y126.538 F8100.000
G1 E1.00000 F2400.00000
G1 X90.592 Y76.122 E2.41035 F2310.000
G1 X90.645 Y75.985 E2.41442
G1 X125.490 Y26.427 E4.09726
G1 X125.512 Y26.359 E4.09923
G1 X125.538 Y24.779 E4.14314
G1 X125.568 Y19.548 E4.28845
G1 X125.618 Y19.100 E4.30096
G1 X125.736 Y18.725 E4.31187
G1 X125.973 Y18.285 E4.32578
G1 X126.257 Y17.950 E4.33796
G1 X126.553 Y17.706 E4.34860
G1 X126.940 Y17.491 E4.36090
G1 X127.368 Y17.352 E4.37342
G1 X127.813 Y17.301 E4.38586
G1 X131.178 Y17.258 E4.47934
G1 X134.533 Y17.241 E4.57252
G1 X135.008 Y17.294 E4.58581
G1 X135.438 Y17.432 E4.59836
G1 X135.826 Y17.648 E4.61067
G1 X136.161 Y17.932 E4.62288
G1 X136.405 Y18.227 E4.63353
G1 X136.643 Y18.668 E4.64744
G1 X136.771 Y19.102 E4.66001
G1 X136.810 Y19.512 E4.67146
G1 X137.014 Y33.337 E5.05552
G1 X149.402 Y116.324 E7.38624
G1 X149.406 Y154.180 E8.43782
G1 X148.856 Y157.126 E8.52106
G1 X148.854 Y160.617 E8.61803
G1 X148.798 Y161.072 E8.63075
G1 X148.651 Y161.475 E8.64267
G1 X148.428 Y161.835 E8.65443
G1 X148.181 Y162.103 E8.66456
G1 X147.797 Y162.389 E8.67787
G1 X147.409 Y162.571 E8.68978
G1 X147.038 Y162.674 E8.70048
G1 X146.575 Y162.720 E8.71340
G1 X57.131 Y162.759 E11.19795
G1 X56.958 Y162.704 E11.20299
G1 X56.822 Y162.616 E11.20749
G1 X56.493 Y162.504 E11.21714
G1 X56.132 Y162.301 E11.22865
G1 X55.776 Y161.997 E11.24167
G1 X55.555 Y161.718 E11.25155
G1 X35.740 Y147.770 E11.92466
G1 X35.637 Y147.752 E11.92757
G1 X34.947 Y147.933 E11.94737
G1 X34.574 Y147.970 E11.95779
G1 X32.872 Y147.971 E12.00507
G1 X32.396 Y147.919 E12.01837
G1 X31.967 Y147.780 E12.03088
G1 X31.627 Y147.596 E12.04164
G1 X31.283 Y147.320 E12.05388
G1 X30.969 Y146.938 E12.06762
G1 X30.762 Y146.545 E12.07996
G1 X30.634 Y146.111 E12.09251
G1 X30.594 Y145.693 E12.10418
G1 X30.594 Y137.868 E12.32154
G1 X30.634 Y137.451 E12.33318
G1 X30.762 Y137.017 E12.34574
G1 X31.000 Y136.577 E12.35966
G1 X31.284 Y136.240 E12.37190
G1 X31.580 Y135.997 E12.38254
G1 X32.020 Y135.759 E12.39644
G1 X32.396 Y135.642 E12.40735
G1 X32.843 Y135.592 E12.41986
G1 X33.878 Y135.589 E12.44861
G1 X84.483 Y126.652 E13.87606
G1 X84.547 Y126.584 E13.87864
G1 X84.804 Y126.740 F8100.000
G1 X90.823 Y76.179 E15.29304 F2310.000
G1 X90.854 Y76.097 E15.29548
G1 X125.724 Y26.503 E16.97952
G1 X125.746 Y26.436 E16.98149
G1 X125.773 Y24.781 E17.02745
G1 X125.803 Y19.565 E17.17233
G1 X125.840 Y19.195 E17.18269
G1 X125.957 Y18.806 E17.19396
G1 X126.162 Y18.426 E17.20596
G1 X126.416 Y18.125 E17.21689
G1 X126.694 Y17.895 E17.22691
G1 X127.042 Y17.704 E17.23794
G1 X127.427 Y17.580 E17.24917
G1 X127.831 Y17.536 E17.26047
G1 X131.181 Y17.493 E17.35352
G1 X134.527 Y17.477 E17.44648
G1 X134.950 Y17.523 E17.45829
G1 X135.336 Y17.645 E17.46955
G1 X135.684 Y17.837 E17.48059
G1 X135.963 Y18.067 E17.49061
G1 X136.216 Y18.369 E17.50157
G1 X136.421 Y18.749 E17.51356
G1 X136.538 Y19.137 E17.52483
G1 X136.575 Y19.521 E17.53554
G1 X136.779 Y33.356 E17.91989
G1 X149.168 Y116.350 E20.25081
G1 X149.170 Y154.169 E21.30136
G1 X148.620 Y157.104 E21.38429
G1 X148.618 Y160.610 E21.48170
G1 X148.571 Y161.007 E21.49279
G1 X148.443 Y161.364 E21.50332
G1 X148.247 Y161.684 E21.51375
G1 X148.016 Y161.935 E21.52324
G1 X147.684 Y162.182 E21.53470
G1 X147.336 Y162.347 E21.54543
G1 X146.985 Y162.444 E21.55554
G1 X146.570 Y162.484 E21.56713
G1 X57.167 Y162.523 E24.05053
G1 X57.063 Y162.490 E24.05355
G1 X56.928 Y162.402 E24.05803
G1 X56.598 Y162.293 E24.06769
G1 X56.258 Y162.102 E24.07853
G1 X55.941 Y161.828 E24.09015
G1 X55.722 Y161.547 E24.10005
G1 X35.763 Y147.498 E24.77805
G1 X35.633 Y147.489 E24.78167
G1 X35.529 Y147.536 E24.78484
G1 X34.898 Y147.703 E24.80298
G1 X34.559 Y147.734 E24.81244
G1 X32.878 Y147.735 E24.85914
G1 X32.454 Y147.691 E24.87097
G1 X32.069 Y147.568 E24.88219
G1 X31.749 Y147.394 E24.89230
G1 X31.442 Y147.145 E24.90328
G1 X31.171 Y146.815 E24.91515
G1 X30.984 Y146.464 E24.92621
G1 X30.868 Y146.076 E24.93745
G1 X30.830 Y145.687 E24.94830
G1 X30.830 Y137.874 E25.16534
G1 X30.868 Y137.486 E25.17617
G1 X30.984 Y137.098 E25.18742
G1 X31.190 Y136.717 E25.19944
G1 X31.418 Y136.439 E25.20945
G1 X31.721 Y136.186 E25.22041
G1 X32.101 Y135.980 E25.23242
G1 X32.489 Y135.864 E25.24367
G1 X32.860 Y135.827 E25.25403
G1 X33.899 Y135.824 E25.28288
G1 X84.697 Y126.853 E26.71576
G1 X84.760 Y126.786 E26.71834
G1 X85.017 Y126.942 F8100.000
G1 X91.064 Y76.208 E28.13758 F2310.000
G1 X125.959 Y26.579 E29.82282
G1 X125.981 Y26.512 E29.82478
G1 X126.009 Y24.782 E29.87283
G1 X126.038 Y19.589 E30.01711
G1 X126.075 Y19.218 E30.02746
G1 X126.183 Y18.877 E30.03739
G1 X126.351 Y18.567 E30.04718
G1 X126.574 Y18.300 E30.05686
G1 X126.835 Y18.084 E30.06625
G1 X127.144 Y17.916 E30.07601
G1 X127.485 Y17.809 E30.08596
G1 X127.850 Y17.771 E30.09613
G1 X131.184 Y17.729 E30.18875
G1 X134.522 Y17.712 E30.28149
G1 X134.892 Y17.751 E30.29181
G1 X135.235 Y17.858 E30.30178
G1 X135.543 Y18.026 E30.31154
G1 X135.812 Y18.249 E30.32125
G1 X136.027 Y18.510 E30.33064
G1 X136.200 Y18.829 E30.34072
G1 X136.304 Y19.172 E30.35068
G1 X136.339 Y19.529 E30.36065
G1 X136.544 Y33.375 E30.74531
G1 X148.934 Y116.376 E33.07642
G1 X148.934 Y154.158 E34.12593
G1 X148.385 Y157.082 E34.20857
G1 X148.382 Y160.604 E34.30640
G1 X148.344 Y160.942 E34.31586
G1 X148.235 Y161.253 E34.32502
G1 X148.065 Y161.533 E34.33410
G1 X147.841 Y161.775 E34.34326
G1 X147.572 Y161.974 E34.35257
G1 X147.262 Y162.123 E34.36211
G1 X146.932 Y162.215 E34.37163
G1 X146.564 Y162.248 E34.38189
G1 X57.203 Y162.288 E36.86414
G1 X57.034 Y162.189 E36.86958
G1 X56.703 Y162.081 E36.87925
G1 X56.384 Y161.902 E36.88942
G1 X56.107 Y161.660 E36.89965
G1 X55.889 Y161.377 E36.90956
G1 X35.783 Y147.224 E37.59255
G1 X35.653 Y147.215 E37.59617
G1 X35.457 Y147.312 E37.60226
G1 X34.849 Y147.472 E37.61973
G1 X34.544 Y147.499 E37.62824
G1 X32.884 Y147.499 E37.67435
G1 X32.524 Y147.464 E37.68438
G1 X32.182 Y147.360 E37.69432
G1 X31.862 Y147.186 E37.70443
G1 X31.601 Y146.971 E37.71383
G1 X31.379 Y146.702 E37.72351
G1 X31.205 Y146.383 E37.73360
G1 X31.101 Y146.041 E37.74353
G1 X31.066 Y145.682 E37.75357
G1 X31.066 Y137.874 E37.97045
G1 X31.103 Y137.510 E37.98062
G1 X31.205 Y137.178 E37.99025
G1 X31.372 Y136.868 E38.00005
G1 X31.601 Y136.589 E38.01006
G1 X31.871 Y136.369 E38.01975
G1 X32.182 Y136.202 E38.02954
G1 X32.524 Y136.097 E38.03948
G1 X32.878 Y136.062 E38.04935
G1 X33.920 Y136.060 E38.07829
G1 X84.910 Y127.055 E39.51661
G1 X84.974 Y126.987 E39.51919
G1 X85.248 Y127.267 F8100.000
G1 X91.313 Y76.319 E40.94440 F1470.000
G1 X126.247 Y26.636 E42.63149
G1 X126.277 Y24.786 E42.68288
G1 X126.306 Y19.600 E42.82694
G1 X126.337 Y19.277 E42.83594
G1 X126.429 Y18.986 E42.84441
G1 X126.571 Y18.722 E42.85275
G1 X126.760 Y18.494 E42.86099
G1 X126.990 Y18.304 E42.86927
G1 X127.253 Y18.162 E42.87759
G1 X127.545 Y18.071 E42.88607
G1 X127.867 Y18.039 E42.89506
G1 X131.186 Y17.997 E42.98726
G1 X134.512 Y17.980 E43.07967
G1 X134.816 Y18.011 E43.08815
G1 X135.126 Y18.103 E43.09713
G1 X135.388 Y18.245 E43.10541
G1 X135.618 Y18.435 E43.11369
G1 X135.808 Y18.664 E43.12196
G1 X135.950 Y18.928 E43.13026
G1 X136.040 Y19.220 E43.13875
G1 X136.072 Y19.542 E43.14775
G1 X136.275 Y33.389 E43.53244
G1 X148.667 Y116.400 E45.86384
G1 X148.667 Y154.139 E46.91214
G1 X148.115 Y157.068 E46.99493
G1 X148.115 Y160.592 E47.09284
G1 X148.083 Y160.876 E47.10078
G1 X147.994 Y161.134 E47.10835
G1 X147.854 Y161.367 E47.11591
G1 X147.666 Y161.572 E47.12363
G1 X147.438 Y161.742 E47.13154
G1 X147.173 Y161.870 E47.13971
G1 X146.879 Y161.952 E47.14818
G1 X146.555 Y161.981 E47.15721
G1 X57.269 Y162.020 E49.63739
G1 X57.172 Y161.952 E49.64067
G1 X56.816 Y161.837 E49.65106
G1 X56.534 Y161.680 E49.66003
G1 X56.300 Y161.474 E49.66867
G1 X56.095 Y161.194 E49.67831
G1 X35.744 Y146.869 E50.36962
G1 X35.367 Y147.059 E50.38133
G1 X34.798 Y147.208 E50.39768
G1 X34.529 Y147.232 E50.40518
G1 X32.894 Y147.232 E50.45061
G1 X32.572 Y147.200 E50.45960
G1 X32.281 Y147.110 E50.46806
G1 X32.017 Y146.967 E50.47641
G1 X31.787 Y146.777 E50.48467
G1 X31.598 Y146.547 E50.49293
G1 X31.455 Y146.284 E50.50126
G1 X31.365 Y145.994 E50.50970
G1 X31.333 Y145.671 E50.51870
G1 X31.333 Y137.890 E50.73485
G1 X31.365 Y137.568 E50.74383
G1 X31.455 Y137.277 E50.75230
G1 X31.598 Y137.013 E50.76065
G1 X31.787 Y136.783 E50.76890
G1 X32.016 Y136.595 E50.77715
G1 X32.281 Y136.452 E50.78550
G1 X32.572 Y136.361 E50.79396
G1 X32.894 Y136.330 E50.80295
G1 X33.933 Y136.330 E50.83181
G1 X85.186 Y127.278 E52.27754
G1 X85.668 Y127.276 F8100.000
G1 X85.461 Y127.469 F8100.000
G1 X91.540 Y76.406 E53.70596 F2100.000
G1 X126.481 Y26.712 E55.39342
G1 X126.512 Y24.789 E55.44685
G1 X126.541 Y19.612 E55.59064
G1 X126.570 Y19.325 E55.59867
G1 X126.647 Y19.078 E55.60584
G1 X126.767 Y18.854 E55.61290
G1 X126.927 Y18.661 E55.61987
G1 X127.122 Y18.500 E55.62689
G1 X127.345 Y18.380 E55.63393
G1 X127.592 Y18.303 E55.64111
G1 X127.880 Y18.274 E55.64916
G1 X131.188 Y18.233 E55.74105
G1 X134.501 Y18.216 E55.83308
G1 X134.770 Y18.244 E55.84060
G1 X135.036 Y18.322 E55.84828
G1 X135.256 Y18.442 E55.85525
G1 X135.451 Y18.602 E55.86226
G1 X135.611 Y18.797 E55.86926
G1 X135.731 Y19.019 E55.87629
G1 X135.808 Y19.266 E55.88347
G1 X135.836 Y19.555 E55.89154
G1 X136.039 Y33.409 E56.27639
G1 X148.431 Y116.418 E58.60775
G1 X148.431 Y154.117 E59.65495
G1 X147.879 Y157.046 E59.73774
G1 X147.879 Y160.580 E59.83590
G1 X147.852 Y160.824 E59.84274
G1 X147.779 Y161.034 E59.84889
G1 X147.664 Y161.226 E59.85511
G1 X147.507 Y161.396 E59.86155
G1 X147.315 Y161.539 E59.86822
G1 X147.089 Y161.648 E59.87518
G1 X146.836 Y161.719 E59.88247
G1 X146.544 Y161.745 E59.89062
G1 X57.343 Y161.784 E62.36843
G1 X57.278 Y161.738 E62.37064
G1 X56.910 Y161.620 E62.38136
G1 X56.671 Y161.486 E62.38898
G1 X56.475 Y161.314 E62.39622
G1 X56.263 Y161.024 E62.40622
G1 X35.764 Y146.595 E63.10252
G1 X35.284 Y146.837 E63.11747
G1 X34.758 Y146.975 E63.13257
G1 X34.519 Y146.996 E63.13922
G1 X32.905 Y146.996 E63.18405
G1 X32.619 Y146.968 E63.19206
G1 X32.373 Y146.892 E63.19921
G1 X32.149 Y146.770 E63.20628
G1 X31.955 Y146.610 E63.21327
G1 X31.795 Y146.415 E63.22028
G1 X31.673 Y146.192 E63.22733
G1 X31.597 Y145.947 E63.23446
G1 X31.569 Y145.660 E63.24248
G1 X31.569 Y137.902 E63.45798
G1 X31.597 Y137.615 E63.46597
G1 X31.673 Y137.369 E63.47314
G1 X31.795 Y137.145 E63.48021
G1 X31.954 Y136.951 E63.48720
G1 X32.149 Y136.791 E63.49418
G1 X32.373 Y136.670 E63.50126
G1 X32.619 Y136.594 E63.50841
G1 X32.905 Y136.565 E63.51641
G1 X33.953 Y136.565 E63.54553
G1 X85.399 Y127.480 E64.99669
G1 X92.132 Y76.633 F8100.000
G1 X127.716 Y29.004 F8100.000
G1 X129.019 Y26.942 F8100.000
G1 X129.865 Y25.657 F8100.000
G1 X129.911 Y25.666 F8100.000
G1 X131.461 Y23.444 F8100.000
G1 X132.367 Y23.040 F8100.000
G1 X132.080 Y22.840 E65.00640 F2100.000
G1 X131.886 Y22.546 E65.01618
G1 X131.816 Y22.188 E65.02634
G1 X131.886 Y21.830 E65.03646
G1 X132.079 Y21.535 E65.04625
G1 X132.367 Y21.336 E65.05598
G1 X132.705 Y21.266 E65.06555 F2100.000
G1 X133.072 Y21.335 E65.07592
G1 X133.361 Y21.535 E65.08569
G1 X133.554 Y21.830 E65.09549
G1 X133.625 Y22.188 E65.10561
