; generated by Slic3r 1.2.9 on 2016-08-28 at 11:29:22

; external perimeters extrusion width = 0.42mm
; perimeters extrusion width = 0.53mm
; infill extrusion width = 0.53mm
; solid infill extrusion width = 0.53mm
; top infill extrusion width = 0.53mm

M104 S245 ; set temperature
M220 S100 ; reset speeds
M116 ; wait for all temperatures
G0 Z10 ; drive Z to 10mm height
G28 X0 Y0 ; home X and Y
G0 Z0 X30 Y30 F13000
M109 S245 ; wait for temperature to be reached
G21 ; set units to millimeters
G90 ; use absolute coordinates
M82 ; use absolute distances for extrusion
G92 E0
G1 E-1.00000 F2400.00000
G92 E0
G1 Z0.300 F8100.000
G1 X27.056 Y15.223 F8100.000
G1 E1.00000 F2400.00000
G1 X27.545 Y14.498 E1.02428 F2310.000
G1 X27.755 Y14.244 E1.03344
G1 X28.358 Y13.642 E1.05710
G1 X28.613 Y13.432 E1.06627
G1 X29.325 Y12.952 E1.09014
G1 X29.617 Y12.794 E1.09937
G1 X30.422 Y12.455 E1.12364
G1 X30.747 Y12.354 E1.13307
G1 X31.622 Y12.176 E1.15787
G1 X32.419 Y12.118 E1.18008
G1 X133.930 Y12.118 E3.99982
G1 X134.862 Y12.216 E4.02587
G1 X135.211 Y12.291 E4.03576 F2310.000
G1 X136.586 Y12.834 E4.07685
G1 X136.910 Y13.030 E4.08736
G1 X137.670 Y13.606 E4.11384
G1 X137.962 Y13.881 E4.12499
G1 X138.375 Y14.329 E4.14191
G1 X138.630 Y14.645 E4.15320
G1 X138.949 Y15.094 E4.16850
G1 X139.316 Y15.686 E4.18784
G1 X139.646 Y16.303 E4.20726
G1 X140.002 Y17.282 E4.23620
G1 X153.716 Y75.247 E5.89081
G1 X153.836 Y76.284 E5.91980
G1 X153.718 Y149.310 E7.94830
G1 X153.667 Y149.979 E7.96694
G1 X152.084 Y160.327 E8.25772
G1 X152.001 Y160.740 E8.26942
G1 X151.842 Y161.268 E8.28475
G1 X151.510 Y162.050 E8.30836
G1 X151.358 Y162.326 E8.31708
G1 X150.885 Y163.019 E8.34041
G1 X150.701 Y163.241 E8.34841
G1 X150.150 Y163.797 E8.37015
G1 X149.901 Y164.006 E8.37920
G1 X149.332 Y164.409 E8.39856
G1 X149.051 Y164.574 E8.40761
G1 X148.381 Y164.895 E8.42825
G1 X148.063 Y165.014 E8.43767
G1 X147.284 Y165.238 E8.46020
G1 X146.301 Y165.371 E8.48775
G1 X39.056 Y167.882 E11.46759
G1 X32.419 Y167.882 E11.65194
G1 X31.636 Y167.827 E11.67374
G1 X30.742 Y167.646 E11.69909
G1 X30.418 Y167.545 E11.70853
G1 X29.619 Y167.208 E11.73259
G1 X29.327 Y167.050 E11.74182
G1 X28.612 Y166.569 E11.76576
G1 X28.358 Y166.359 E11.77493
G1 X27.749 Y165.750 E11.79885
G1 X27.539 Y165.495 E11.80802
G1 X27.059 Y164.783 E11.83187
G1 X26.901 Y164.491 E11.84110
G1 X26.560 Y163.678 E11.86557
G1 X26.460 Y163.355 E11.87496
G1 X26.284 Y162.487 E11.89957
G1 X26.226 Y161.690 E11.92178
G1 X26.226 Y18.311 E15.90452
G1 X26.284 Y17.513 E15.92673
G1 X26.460 Y16.647 E15.95130
G1 X26.559 Y16.323 E15.96069
G1 X26.898 Y15.516 E15.98502
G1 X27.026 Y15.278 E15.99252
G1 X27.264 Y15.335 F8100.000
G1 X27.726 Y14.648 E16.01552 F2310.000
G1 X27.936 Y14.394 E16.02468
G1 X28.507 Y13.824 E16.04709
G1 X28.762 Y13.614 E16.05626
G1 X29.438 Y13.159 E16.07888
G1 X29.730 Y13.001 E16.08810
G1 X30.492 Y12.680 E16.11109
G1 X30.817 Y12.579 E16.12052
G1 X31.645 Y12.410 E16.14402
G1 X32.419 Y12.354 E16.16557
G1 X133.930 Y12.354 E18.98531
G1 X134.813 Y12.447 E19.00998
G1 X135.161 Y12.521 E19.01987 F2310.000
G1 X136.465 Y13.036 E19.05880
G1 X136.789 Y13.231 E19.06931
G1 X137.508 Y13.777 E19.09439
G1 X137.800 Y14.053 E19.10554
G1 X138.192 Y14.476 E19.12157
G1 X138.447 Y14.793 E19.13286
G1 X138.749 Y15.218 E19.14735
G1 X139.116 Y15.810 E19.16670
G1 X139.435 Y16.408 E19.18554
G1 X139.773 Y17.336 E19.21295
G1 X153.487 Y75.302 E20.86756
G1 X153.601 Y76.284 E20.89502
G1 X153.483 Y149.309 E22.92352
G1 X153.434 Y149.943 E22.94117
G1 X151.851 Y160.291 E23.23196
G1 X151.772 Y160.682 E23.24305
G1 X151.617 Y161.197 E23.25798
G1 X151.303 Y161.938 E23.28034
G1 X151.152 Y162.212 E23.28901
G1 X150.704 Y162.869 E23.31112
G1 X150.520 Y163.090 E23.31911
G1 X149.998 Y163.617 E23.33970
G1 X149.750 Y163.825 E23.34869
G1 X149.211 Y164.206 E23.36704
G1 X148.932 Y164.370 E23.37604
G1 X148.297 Y164.675 E23.39559
G1 X147.981 Y164.793 E23.40495
G1 X147.226 Y165.009 E23.42676
G1 X146.295 Y165.135 E23.45287
G1 X39.056 Y167.646 E26.43255
G1 X32.419 Y167.646 E26.61690
G1 X31.659 Y167.592 E26.63807
G1 X30.812 Y167.421 E26.66208
G1 X30.488 Y167.320 E26.67152
G1 X29.731 Y167.001 E26.69431
G1 X29.439 Y166.843 E26.70354
G1 X28.762 Y166.387 E26.72621
G1 X28.507 Y166.177 E26.73539
G1 X27.931 Y165.600 E26.75805
G1 X27.721 Y165.345 E26.76722
G1 X27.266 Y164.670 E26.78981
G1 X27.108 Y164.378 E26.79904
G1 X26.785 Y163.609 E26.82222
G1 X26.685 Y163.286 E26.83161
G1 X26.519 Y162.463 E26.85492
G1 X26.462 Y161.690 E26.87647
G1 X26.462 Y18.311 E30.85921
G1 X26.519 Y17.537 E30.88077
G1 X26.685 Y16.716 E30.90404
G1 X26.785 Y16.393 E30.91343
G1 X27.105 Y15.628 E30.93648
G1 X27.234 Y15.390 E30.94398
G1 E29.94398 F2400.00000
G92 E0
G1 X41.488 Y18.281 F8100.000
G1 E1.00000 F2400.00000
G1 X124.861 Y18.281 E3.31593 F2310.000
G1 X124.996 Y18.158 E3.32098
G1 X125.035 Y17.818 E3.33050
G1 X125.175 Y17.385 E3.34315
G1 X125.394 Y16.994 E3.35559
G1 X125.679 Y16.658 E3.36782
G1 X126.023 Y16.379 E3.38014
G1 X126.420 Y16.171 E3.39258
G1 X126.857 Y16.041 E3.40525
G1 X127.278 Y16.000 E3.41699
G1 X134.023 Y16.007 E3.60434
G1 X134.449 Y16.098 E3.61645
G1 X134.540 Y16.134 E3.61917
G1 X134.933 Y16.371 E3.63192
G1 X135.313 Y16.720 E3.64624
G1 X135.619 Y17.095 E3.65970
G1 X136.036 Y17.766 E3.68165
G1 X136.209 Y18.109 E3.69231
G1 X136.240 Y18.245 E3.69620
G1 X136.212 Y22.265 E3.80785
G1 X136.250 Y26.548 E3.92683
G1 X136.386 Y31.800 E4.07279
G1 X136.667 Y37.591 E4.23382
G1 X136.877 Y40.550 E4.31622
G1 X137.143 Y43.480 E4.39795
G1 X137.467 Y46.323 E4.47743
G1 X137.858 Y49.029 E4.55338
G1 X138.319 Y51.539 E4.62428
G1 X138.855 Y53.800 E4.68882
G1 X139.173 Y54.833 E4.71884
G1 X139.577 Y55.943 E4.75166
G1 X140.603 Y58.349 E4.82430
G1 X141.803 Y60.830 E4.90088
G1 X143.062 Y63.234 E4.97624
G1 X144.253 Y65.388 E5.04462
G1 X145.255 Y67.127 E5.10037
G1 X146.220 Y68.745 E5.15270
G1 X149.922 Y76.073 E5.38076
G1 X149.954 Y76.208 E5.38462
G1 X149.836 Y149.341 E7.41609
G1 X148.239 Y155.447 E7.59141
G1 X148.283 Y155.823 E7.60193
G1 X148.283 Y159.380 E7.70072
G1 X148.240 Y159.774 E7.71172
G1 X148.132 Y160.124 E7.72190
G1 X147.946 Y160.475 E7.73294
G1 X147.699 Y160.779 E7.74382
G1 X147.402 Y161.035 E7.75472
G1 X147.022 Y161.258 E7.76695
G1 X146.689 Y161.383 E7.77683
G1 X146.501 Y161.424 E7.78218
G1 X146.394 Y161.490 E7.78565
G1 X41.506 Y161.490 E10.69921
G1 X41.370 Y161.619 E10.70444
G1 X41.313 Y162.183 E10.72018
G1 X41.174 Y162.616 E10.73280
G1 X40.956 Y163.005 E10.74519
G1 X40.670 Y163.344 E10.75752
G1 X40.324 Y163.622 E10.76985
G1 X39.930 Y163.829 E10.78222
G1 X39.491 Y163.960 E10.79494
G1 X39.070 Y164.000 E10.80668
G1 X32.405 Y164.000 E10.99183
G1 X31.984 Y163.960 E11.00356
G1 X31.545 Y163.830 E11.01629
G1 X31.150 Y163.622 E11.02868
G1 X30.804 Y163.344 E11.04101
G1 X30.518 Y163.005 E11.05334
G1 X30.206 Y162.442 E11.07121
G1 X30.216 Y162.361 E11.07347
G1 X30.150 Y162.126 E11.08026
G1 X30.109 Y161.704 E11.09203
G1 X30.110 Y18.267 E15.07641
G1 X30.161 Y17.818 E15.08896
G1 X30.300 Y17.386 E15.10157
G1 X30.518 Y16.994 E15.11402
G1 X30.804 Y16.656 E15.12631
G1 X31.150 Y16.379 E15.13862
G1 X31.545 Y16.171 E15.15103
G1 X31.983 Y16.041 E15.16371
G1 X32.404 Y16.000 E15.17547
G1 X39.071 Y16.000 E15.36065
G1 X39.550 Y16.053 E15.37405
G1 X39.929 Y16.171 E15.38508
G1 X40.324 Y16.379 E15.39748
G1 X40.710 Y16.696 E15.41134
G1 X40.988 Y17.042 E15.42367
G1 X41.174 Y17.386 E15.43453
G1 X41.313 Y17.818 E15.44714
G1 X41.353 Y18.159 E15.45668
G1 X41.441 Y18.238 E15.45997
G1 X41.271 Y18.516 F8100.000
G1 X125.079 Y18.516 E17.78797 F2310.000
G1 X125.215 Y18.386 E17.79321
G1 X125.264 Y17.876 E17.80744
G1 X125.388 Y17.487 E17.81879
G1 X125.583 Y17.135 E17.82996
G1 X125.838 Y16.832 E17.84096
G1 X126.146 Y16.581 E17.85200
G1 X126.501 Y16.393 E17.86316
G1 X126.893 Y16.275 E17.87453
G1 X127.284 Y16.236 E17.88546
G1 X133.985 Y16.240 E18.07161
G1 X134.435 Y16.346 E18.08444
G1 X134.801 Y16.566 E18.09629
G1 X135.145 Y16.885 E18.10935
G1 X135.431 Y17.237 E18.12194
G1 X135.828 Y17.877 E18.14285
G1 X135.986 Y18.190 E18.15258
G1 X136.005 Y18.272 E18.15491
G1 X135.976 Y22.265 E18.26584
G1 X136.014 Y26.552 E18.38493
G1 X136.150 Y31.809 E18.53102
G1 X136.432 Y37.605 E18.69220
G1 X136.642 Y40.569 E18.77474
G1 X136.908 Y43.501 E18.85653
G1 X137.233 Y46.353 E18.93625
G1 X137.625 Y49.067 E19.01243
G1 X138.088 Y51.588 E19.08362
G1 X138.627 Y53.862 E19.14854
G1 X138.949 Y54.908 E19.17895
G1 X139.358 Y56.030 E19.21211
G1 X140.388 Y58.447 E19.28508
G1 X141.593 Y60.936 E19.36192
G1 X142.855 Y63.345 E19.43746
G1 X144.048 Y65.504 E19.50597
G1 X145.052 Y67.248 E19.56188
G1 X146.012 Y68.855 E19.61386
G1 X149.699 Y76.155 E19.84103
G1 X149.718 Y76.236 E19.84335
G1 X149.600 Y149.326 E21.87363
G1 X147.999 Y155.435 E22.04906
G1 X148.047 Y155.832 E22.06019
G1 X148.047 Y159.374 E22.15856
G1 X148.010 Y159.725 E22.16836
G1 X147.911 Y160.042 E22.17760
G1 X147.745 Y160.351 E22.18733
G1 X147.525 Y160.621 E22.19701
G1 X147.258 Y160.848 E22.20674
G1 X146.929 Y161.042 E22.21735
G1 X146.616 Y161.159 E22.22663
G1 X146.402 Y161.203 E22.23271
G1 X146.315 Y161.254 E22.23550
G1 X41.268 Y161.254 E25.15347
G1 X41.130 Y161.392 E25.15890
G1 X41.129 Y161.716 E25.16790
G1 X41.084 Y162.125 E25.17932
G1 X40.961 Y162.514 E25.19065
G1 X40.767 Y162.864 E25.20177
G1 X40.512 Y163.170 E25.21284
G1 X40.202 Y163.420 E25.22390
G1 X39.849 Y163.608 E25.23502
G1 X39.456 Y163.727 E25.24641
G1 X39.065 Y163.764 E25.25734
G1 X32.411 Y163.764 E25.44217
G1 X32.019 Y163.727 E25.45309
G1 X31.626 Y163.608 E25.46450
G1 X31.272 Y163.420 E25.47562
G1 X30.963 Y163.170 E25.48669
G1 X30.707 Y162.864 E25.49776
G1 X30.468 Y162.429 E25.51154
G1 X30.472 Y162.392 E25.51259
G1 X30.383 Y162.091 E25.52132
G1 X30.344 Y161.699 E25.53226
G1 X30.345 Y18.284 E29.51599
G1 X30.383 Y17.910 E29.52643
G1 X30.500 Y17.520 E29.53776
G1 X30.707 Y17.135 E29.54989
G1 X30.963 Y16.831 E29.56093
G1 X31.272 Y16.581 E29.57198
G1 X31.626 Y16.393 E29.58312
G1 X31.984 Y16.282 E29.59352
G1 X32.410 Y16.236 E29.60544
G1 X39.065 Y16.236 E29.79028
G1 X39.457 Y16.275 E29.80123
G1 X39.848 Y16.393 E29.81258
G1 X40.202 Y16.581 E29.82371
G1 X40.535 Y16.855 E29.83570
G1 X40.787 Y17.164 E29.84676
G1 X40.961 Y17.487 E29.85698
G1 X41.091 Y17.910 E29.86927
G1 X41.134 Y18.386 E29.88255
G1 X41.225 Y18.473 E29.88603
G1 X41.032 Y18.752 F8100.000
G1 X125.317 Y18.752 E32.22727 F2310.000
G1 X125.455 Y18.614 E32.23269
G1 X125.455 Y18.302 E32.24134
G1 X125.493 Y17.934 E32.25162
G1 X125.601 Y17.589 E32.26166
G1 X125.772 Y17.277 E32.27156
G1 X125.996 Y17.006 E32.28133
G1 X126.268 Y16.782 E32.29110
G1 X126.582 Y16.614 E32.30098
G1 X126.928 Y16.508 E32.31106
G1 X127.290 Y16.472 E32.32116
G1 X133.936 Y16.472 E32.50577
G1 X134.330 Y16.558 E32.51698
G1 X134.668 Y16.761 E32.52794
G1 X134.978 Y17.051 E32.53972
G1 X135.243 Y17.380 E32.55144
G1 X135.617 Y17.983 E32.57116
G1 X135.769 Y18.298 E32.58088
G1 X135.741 Y22.263 E32.69103
G1 X135.779 Y26.556 E32.81028
G1 X135.915 Y31.818 E32.95649
G1 X136.196 Y37.619 E33.11782
G1 X136.407 Y40.588 E33.20050
G1 X136.674 Y43.528 E33.28250
G1 X137.000 Y46.383 E33.36232
G1 X137.393 Y49.105 E33.43872
G1 X137.858 Y51.636 E33.51021
G1 X138.400 Y53.924 E33.57551
G1 X138.726 Y54.983 E33.60630
G1 X139.139 Y56.116 E33.63980
G1 X140.173 Y58.544 E33.71311
G1 X141.382 Y61.042 E33.79020
G1 X142.647 Y63.457 E33.86592
G1 X143.843 Y65.619 E33.93456
G1 X144.848 Y67.366 E33.99053
G1 X145.803 Y68.965 E34.04227
G1 X149.483 Y76.263 E34.26931
G1 X149.365 Y149.310 E36.29840
G1 X147.758 Y155.422 E36.47393
G1 X147.812 Y155.841 E36.48567
G1 X147.812 Y159.368 E36.58363
G1 X147.779 Y159.675 E36.59222
G1 X147.685 Y159.971 E36.60084
G1 X147.544 Y160.227 E36.60895
G1 X147.350 Y160.462 E36.61742
G1 X147.115 Y160.661 E36.62599
G1 X146.836 Y160.825 E36.63498
G1 X146.543 Y160.935 E36.64365
G1 X146.303 Y160.983 E36.65046
G1 X146.236 Y161.018 E36.65258
G1 X41.032 Y161.018 E39.57489
G1 X40.894 Y161.156 E39.58031
G1 X40.894 Y161.693 E39.59520
G1 X40.858 Y162.055 E39.60533
G1 X40.753 Y162.401 E39.61537
G1 X40.585 Y162.714 E39.62523
G1 X40.361 Y162.987 E39.63504
G1 X40.080 Y163.219 E39.64516
G1 X39.767 Y163.386 E39.65501
G1 X39.421 Y163.493 E39.66508
G1 X39.059 Y163.528 E39.67519
G1 X32.411 Y163.528 E39.85986
G1 X32.042 Y163.491 E39.87014
G1 X31.696 Y163.382 E39.88022
G1 X31.385 Y163.212 E39.89007
G1 X31.121 Y162.995 E39.89956
G1 X30.896 Y162.723 E39.90937
G1 X30.723 Y162.407 E39.91939
G1 X30.618 Y162.067 E39.92926
G1 X30.580 Y161.693 E39.93971
G1 X30.580 Y18.302 E43.92278
G1 X30.618 Y17.934 E43.93305
G1 X30.726 Y17.589 E43.94309
G1 X30.896 Y17.277 E43.95298
G1 X31.121 Y17.006 E43.96276
G1 X31.394 Y16.782 E43.97256
G1 X31.707 Y16.614 E43.98242
G1 X32.042 Y16.510 E43.99218
G1 X32.416 Y16.472 E44.00262
G1 X39.059 Y16.472 E44.18714
G1 X39.421 Y16.508 E44.19726
G1 X39.767 Y16.614 E44.20731
G1 X40.080 Y16.782 E44.21717
G1 X40.361 Y17.014 E44.22728
G1 X40.585 Y17.286 E44.23707
G1 X40.753 Y17.600 E44.24696
G1 X40.858 Y17.946 E44.25700
G1 X40.894 Y18.302 E44.26695
G1 X40.894 Y18.614 E44.27561
G1 X40.988 Y18.707 E44.27928
G1 X40.627 Y19.020 F8100.000
G1 X125.723 Y19.020 E46.64307 F1470.000
G1 X125.723 Y18.318 E46.66255
G1 X125.755 Y17.993 E46.67162
G1 X125.846 Y17.699 E46.68019
G1 X125.991 Y17.432 E46.68863
G1 X126.183 Y17.200 E46.69699
G1 X126.413 Y17.008 E46.70532
G1 X126.680 Y16.864 E46.71375
G1 X126.976 Y16.772 E46.72235
G1 X127.301 Y16.739 E46.73141
G1 X133.914 Y16.739 E46.91512
G1 X134.222 Y16.805 E46.92386
G1 X134.511 Y16.979 E46.93323
G1 X134.784 Y17.236 E46.94364
G1 X135.026 Y17.538 E46.95439
G1 X135.385 Y18.116 E46.97329
G1 X135.501 Y18.346 E46.98045
G1 X135.473 Y22.264 E47.08929
G1 X135.511 Y26.562 E47.20867
G1 X135.647 Y31.829 E47.35504
G1 X135.929 Y37.636 E47.51654
G1 X136.140 Y40.608 E47.59930
G1 X136.408 Y43.554 E47.68146
G1 X136.734 Y46.419 E47.76156
G1 X137.129 Y49.151 E47.83823
G1 X137.596 Y51.695 E47.91007
G1 X138.142 Y53.998 E47.97583
G1 X138.471 Y55.066 E48.00686
G1 X138.888 Y56.212 E48.04075
G1 X139.928 Y58.652 E48.11444
G1 X141.144 Y61.165 E48.19196
G1 X142.412 Y63.585 E48.26787
G1 X143.610 Y65.752 E48.33665
G1 X144.618 Y67.502 E48.39274
G1 X145.567 Y69.092 E48.44419
G1 X149.215 Y76.312 E48.66889
G1 X149.097 Y149.283 E50.69585
G1 X147.479 Y155.431 E50.87246
G1 X147.544 Y155.857 E50.88441
G1 X147.544 Y159.357 E50.98163
G1 X147.516 Y159.620 E50.98898
G1 X147.440 Y159.860 E50.99598
G1 X147.319 Y160.080 E51.00294
G1 X147.156 Y160.276 E51.01005
G1 X146.956 Y160.445 E51.01730
G1 X146.724 Y160.581 E51.02477
G1 X146.466 Y160.678 E51.03244
G1 X146.094 Y160.751 E51.04295
G1 X40.627 Y160.751 E53.97261
G1 X40.627 Y161.682 E53.99849
G1 X40.594 Y162.008 E54.00758
G1 X40.503 Y162.302 E54.01614
G1 X40.359 Y162.568 E54.02455
G1 X40.167 Y162.801 E54.03292
G1 X39.935 Y162.993 E54.04129
G1 X39.668 Y163.137 E54.04970
G1 X39.374 Y163.229 E54.05828
G1 X39.049 Y163.261 E54.06735
G1 X32.427 Y163.261 E54.25130
G1 X32.102 Y163.229 E54.26037
G1 X31.806 Y163.137 E54.26897
G1 X31.540 Y162.993 E54.27738
G1 X31.307 Y162.801 E54.28575
G1 X31.116 Y162.568 E54.29412
G1 X30.971 Y162.302 E54.30253
G1 X30.880 Y162.008 E54.31109
G1 X30.848 Y161.682 E54.32018
G1 X30.848 Y18.319 E58.30250
G1 X30.880 Y17.993 E58.31158
G1 X30.971 Y17.698 E58.32015
G1 X31.116 Y17.431 E58.32858
G1 X31.307 Y17.200 E58.33693
G1 X31.540 Y17.008 E58.34530
G1 X31.806 Y16.864 E58.35371
G1 X32.102 Y16.772 E58.36232
G1 X32.427 Y16.739 E58.37139
G1 X39.083 Y16.743 E58.55629
G1 X39.374 Y16.772 E58.56440
G1 X39.668 Y16.864 E58.57297
G1 X39.935 Y17.008 E58.58139
G1 X40.167 Y17.200 E58.58976
G1 X40.359 Y17.431 E58.59811
G1 X40.503 Y17.698 E58.60654
G1 X40.594 Y17.993 E58.61511
G1 X40.627 Y18.319 E58.62419
G1 X40.627 Y18.957 E58.64191
G1 X40.627 Y19.440 F8100.000
G1 X40.391 Y19.255 F8100.000
G1 X125.959 Y19.255 E61.01879 F2100.000
G1 X125.959 Y18.330 E61.04449
G1 X125.987 Y18.040 E61.05259
G1 X126.064 Y17.791 E61.05984
G1 X126.187 Y17.564 E61.06700
G1 X126.350 Y17.367 E61.07410
G1 X126.546 Y17.204 E61.08117
G1 X126.772 Y17.082 E61.08831
G1 X127.023 Y17.004 E61.09562
G1 X127.312 Y16.975 E61.10369
G1 X133.889 Y16.975 E61.28638
G1 X134.134 Y17.027 E61.29334
G1 X134.367 Y17.168 E61.30090
G1 X134.610 Y17.397 E61.31017
