; generated by Slic3r 1.2.9 on 2016-08-10 at 17:39:31

; external perimeters extrusion width = 0.42mm
; perimeters extrusion width = 0.53mm
; infill extrusion width = 0.53mm
; solid infill extrusion width = 0.53mm
; top infill extrusion width = 0.53mm

M104 S245 ; set temperature
M220 S100 ; reset speeds
M116 ; wait for all temperatures
G0 Z10 ; drive Z to 10mm height
G28 X0 Y0 ; home X and Y
G0 Z0 X30 Y30 F13000
M109 S245 ; wait for temperature to be reached
G21 ; set units to millimeters
G90 ; use absolute coordinates
M82 ; use absolute distances for extrusion
G92 E0
G1 E-1.00000 F2400.00000
G92 E0
G1 Z0.300 F8100.000
G1 X75.007 Y69.369 F8100.000
G1 E1.00000 F2400.00000
G1 X125.985 Y14.247 E3.08558 F2310.000
G1 X126.770 Y13.574 E3.11431
G1 X127.312 Y13.210 E3.13243
G1 X128.932 Y12.535 E3.18119
G1 X129.596 Y12.402 E3.20000
G1 X130.433 Y12.315 E3.22340
G1 X137.094 Y12.256 E3.40843
G1 X138.017 Y12.344 E3.43417
G1 X138.681 Y12.478 E3.45299 F2310.000
G1 X140.295 Y13.152 E3.50158
G1 X140.836 Y13.517 E3.51969
G1 X142.048 Y14.730 E3.56733
G1 X142.412 Y15.271 E3.58545
G1 X143.087 Y16.888 E3.63413
G1 X143.220 Y17.553 E3.65295
G1 X143.285 Y17.992 E3.66528
G1 X149.752 Y83.550 E5.49518
G1 X150.167 Y88.384 E5.62996
G1 X150.482 Y93.957 E5.78500
G1 X150.669 Y100.072 E5.95496
G1 X150.670 Y106.367 E6.12982
G1 X150.448 Y111.884 E6.28318
G1 X150.206 Y114.726 E6.36242
G1 X149.914 Y116.965 E6.42513
G1 X143.259 Y162.221 E7.69576
G1 X143.087 Y163.113 E7.72099
G1 X142.412 Y164.731 E7.76968
G1 X142.048 Y165.271 E7.78779
G1 X140.835 Y166.485 E7.83547
G1 X140.294 Y166.849 E7.85358
G1 X138.676 Y167.524 E7.90227
G1 X138.012 Y167.657 E7.92108
G1 X137.134 Y167.744 E7.94560
G1 X130.414 Y167.744 E8.13226
G1 X129.535 Y167.657 E8.15678
G1 X128.871 Y167.524 E8.17559
G1 X128.297 Y167.368 E8.19211
G1 X33.384 Y134.774 E10.97971
G1 X32.348 Y134.261 E11.01183
G1 X31.806 Y133.898 E11.02995
G1 X30.583 Y132.676 E11.07796
G1 X30.219 Y132.134 E11.09610
G1 X29.546 Y130.517 E11.14475
G1 X29.413 Y129.853 E11.16357
G1 X29.326 Y128.976 E11.18804
G1 X29.326 Y121.180 E11.40460
G1 X29.413 Y120.303 E11.42908
G1 X29.546 Y119.639 E11.44789
G1 X30.221 Y118.019 E11.49665
G1 X30.585 Y117.478 E11.51476
G1 X31.012 Y116.940 E11.53385
G1 X74.964 Y69.415 E13.33199
G1 X75.180 Y69.529 F8100.000
G1 X126.158 Y14.407 E15.41757 F2310.000
G1 X126.902 Y13.770 E15.44479
G1 X127.443 Y13.405 E15.46291
G1 X128.978 Y12.766 E15.50910
G1 X129.642 Y12.633 E15.52791
G1 X130.435 Y12.551 E15.55007
G1 X137.096 Y12.492 E15.73510
G1 X137.970 Y12.575 E15.75949
G1 X138.634 Y12.709 E15.77831 F2310.000
G1 X140.163 Y13.348 E15.82433
G1 X140.704 Y13.712 E15.84245
G1 X141.853 Y14.861 E15.88758
G1 X142.217 Y15.402 E15.90569
G1 X142.856 Y16.935 E15.95182
G1 X142.989 Y17.599 E15.97063
G1 X143.051 Y18.015 E15.98231
G1 X149.518 Y83.570 E17.81213
G1 X149.932 Y88.398 E17.94672
G1 X150.247 Y93.970 E18.10175
G1 X150.433 Y100.080 E18.27154
G1 X150.438 Y106.185 E18.44115
G1 X150.213 Y111.874 E18.59930
G1 X149.992 Y114.511 E18.67280
G1 X149.681 Y116.931 E18.74056
G1 X142.989 Y162.402 E20.01727
G1 X142.856 Y163.066 E20.03609
G1 X142.217 Y164.599 E20.08221
G1 X141.853 Y165.140 E20.10032
G1 X140.703 Y166.290 E20.14549
G1 X140.162 Y166.654 E20.16360
G1 X138.630 Y167.293 E20.20972
G1 X137.966 Y167.426 E20.22853
G1 X137.134 Y167.508 E20.25175
G1 X130.414 Y167.508 E20.43842
G1 X129.582 Y167.426 E20.46164
G1 X128.918 Y167.293 E20.48045
G1 X128.374 Y167.145 E20.49610
G1 X33.461 Y134.551 E23.28371
G1 X32.479 Y134.065 E23.31414
G1 X31.937 Y133.702 E23.33226
G1 X30.779 Y132.545 E23.37773
G1 X30.415 Y132.003 E23.39587
G1 X29.777 Y130.471 E23.44196
G1 X29.644 Y129.807 E23.46077
G1 X29.562 Y128.976 E23.48396
G1 X29.562 Y121.180 E23.70052
G1 X29.644 Y120.350 E23.72371
G1 X29.777 Y119.686 E23.74252
G1 X30.417 Y118.151 E23.78871
G1 X30.781 Y117.610 E23.80682
G1 X31.185 Y117.100 E23.82490
G1 X75.137 Y69.575 E25.62304
G1 E24.62304 F2400.00000
G92 E0
G1 X127.990 Y125.907 F8100.000
G1 E1.00000 F2400.00000
G1 X123.993 Y125.778 E1.11107 F2310.000
G1 X113.081 Y125.508 E1.41428
G1 X99.605 Y125.370 E1.78864
G1 X93.118 Y125.426 E1.96882
G1 X87.438 Y125.610 E2.12669
G1 X80.631 Y126.075 E2.31621
G1 X72.870 Y126.788 E2.53270
G1 X64.731 Y127.653 E2.76006
G1 X56.786 Y128.576 E2.98223
G1 X43.776 Y130.211 E3.34648
G1 X38.505 Y130.914 E3.49419
G1 X37.893 Y131.145 E3.51237
G1 X37.224 Y131.264 E3.53123
G1 X35.471 Y131.269 E3.57993
G1 X34.663 Y131.111 E3.60279
G1 X34.557 Y131.067 E3.60600
G1 X33.919 Y130.640 E3.62732
G1 X33.838 Y130.559 E3.63051
G1 X33.409 Y129.921 E3.65186
G1 X33.364 Y129.813 E3.65510
G1 X33.208 Y129.006 E3.67794
G1 X33.208 Y121.151 E3.89612
G1 X33.364 Y120.344 E3.91897
G1 X33.409 Y120.236 E3.92221
G1 X33.838 Y119.599 E3.94353
G1 X33.919 Y119.518 E3.94671
G1 X34.556 Y119.090 E3.96804
G1 X34.663 Y119.046 E3.97126
G1 X35.413 Y118.894 E3.99250
G1 X36.326 Y118.888 E4.01788
G1 X36.391 Y118.870 E4.01976
G1 X79.172 Y91.531 E5.43003
G1 X79.373 Y91.486 E5.43577
G1 X80.112 Y91.579 E5.45645
G1 X80.840 Y91.601 E5.47669
G1 X81.788 Y91.539 E5.50307
G1 X82.917 Y91.342 E5.53490
G1 X84.186 Y90.954 E5.57176
G1 X85.540 Y90.334 E5.61315
G1 X86.981 Y89.401 E5.66082
G1 X87.946 Y88.611 E5.69547
G1 X88.832 Y87.766 E5.72947
G1 X90.355 Y85.991 E5.79444
G1 X91.573 Y84.182 E5.85503
G1 X92.509 Y82.454 E5.90961
G1 X93.190 Y80.919 E5.95624
G1 X93.640 Y79.692 E5.99255
G1 X94.001 Y78.463 E6.02814
G1 X94.124 Y78.295 E6.03392
G1 X128.066 Y55.767 E7.16554
G1 X128.122 Y55.663 E7.16883
G1 X128.122 Y24.749 E8.02755
G1 X128.181 Y18.455 E8.20239
G1 X128.338 Y17.651 E8.22514
G1 X128.383 Y17.544 E8.22837
G1 X128.811 Y16.907 E8.24968
G1 X128.891 Y16.826 E8.25285
G1 X129.528 Y16.398 E8.27417
G1 X129.636 Y16.353 E8.27741
G1 X130.384 Y16.203 E8.29862
G1 X137.159 Y16.138 E8.48681
G1 X137.971 Y16.295 E8.50978
G1 X138.078 Y16.340 E8.51302
G1 X138.715 Y16.769 E8.53433
G1 X138.796 Y16.849 E8.53750
G1 X139.224 Y17.486 E8.55881
G1 X139.269 Y17.594 E8.56205
G1 X139.425 Y18.402 E8.58491
G1 X139.425 Y55.743 E9.62216
G1 X142.040 Y65.928 E9.91427
G1 X144.060 Y74.167 E10.14989
G1 X144.879 Y77.736 E10.25162
G1 X145.430 Y80.457 E10.32875
G1 X145.884 Y83.876 E10.42455
G1 X146.291 Y88.599 E10.55622
G1 X146.606 Y94.187 E10.71170
G1 X146.789 Y100.203 E10.87889
G1 X146.792 Y106.193 E11.04527
G1 X146.569 Y111.734 E11.19932
G1 X146.358 Y114.207 E11.26825
G1 X146.074 Y116.400 E11.32968
G1 X145.698 Y118.299 E11.38346
G1 X145.216 Y119.829 E11.42800
G1 X144.613 Y120.936 E11.46302
G1 X143.785 Y122.025 E11.50102
G1 X142.798 Y123.103 E11.54164
G1 X141.767 Y124.098 E11.58145
G1 X139.980 Y125.636 E11.64693
G1 X139.472 Y126.035 E11.66486
G1 X139.425 Y126.132 E11.66787
G1 X139.425 Y161.600 E12.65307
G1 X139.269 Y162.407 E12.67592
G1 X139.224 Y162.515 E12.67916
G1 X138.796 Y163.152 E12.70048
G1 X138.715 Y163.232 E12.70365
G1 X138.078 Y163.661 E12.72497
G1 X137.971 Y163.706 E12.72820
G1 X137.163 Y163.862 E12.75106
G1 X130.327 Y163.856 E12.94095
G1 X129.577 Y163.706 E12.96219
G1 X129.469 Y163.661 E12.96543
G1 X128.833 Y163.232 E12.98675
G1 X128.752 Y163.152 E12.98992
G1 X128.323 Y162.515 E13.01123
G1 X128.279 Y162.408 E13.01447
G1 X128.122 Y161.600 E13.03732
G1 X128.122 Y126.044 E14.02498
G1 X128.033 Y125.952 E14.02852
G1 X128.225 Y125.679 F8100.000
G1 X124.000 Y125.543 E14.14596 F2310.000
G1 X113.085 Y125.273 E14.44924
G1 X99.605 Y125.134 E14.82371
G1 X93.114 Y125.191 E15.00403
G1 X87.426 Y125.375 E15.16209
G1 X80.612 Y125.840 E15.35181
G1 X72.849 Y126.553 E15.56837
G1 X64.705 Y127.419 E15.79586
G1 X56.758 Y128.342 E16.01809
G1 X43.746 Y129.977 E16.38239
G1 X38.447 Y130.685 E16.53090
G1 X37.819 Y130.921 E16.54951
G1 X37.194 Y131.030 E16.56714
G1 X35.483 Y131.033 E16.61468
G1 X34.733 Y130.885 E16.63593
G1 X34.069 Y130.457 E16.65786
G1 X33.617 Y129.809 E16.67981
G1 X33.590 Y129.744 E16.68175
G1 X33.444 Y128.994 E16.70298
G1 X33.444 Y121.163 E16.92051
G1 X33.590 Y120.413 E16.94174
G1 X33.617 Y120.348 E16.94369
G1 X34.069 Y119.701 E16.96560
G1 X34.668 Y119.299 E16.98565
G1 X35.448 Y119.128 E17.00782
G1 X36.395 Y119.124 E17.03414
G1 X36.460 Y119.105 E17.03602
G1 X79.264 Y91.752 E18.44705
G1 X79.385 Y91.725 E18.45050
G1 X80.105 Y91.815 E18.47066
G1 X80.844 Y91.836 E18.49121
G1 X81.816 Y91.773 E18.51825
G1 X82.971 Y91.571 E18.55083
G1 X84.270 Y91.175 E18.58854
G1 X85.654 Y90.541 E18.63084
G1 X87.120 Y89.592 E18.67936
G1 X88.103 Y88.788 E18.71462
G1 X89.003 Y87.929 E18.74920
G1 X90.542 Y86.134 E18.81488
G1 X91.775 Y84.304 E18.87616
G1 X92.721 Y82.558 E18.93131
G1 X93.408 Y81.008 E18.97842
G1 X93.863 Y79.766 E19.01516
G1 X94.215 Y78.569 E19.04981
G1 X94.289 Y78.469 E19.05328
G1 X128.302 Y55.893 E20.18725
G1 X128.358 Y55.789 E20.19054
G1 X128.358 Y24.750 E21.05272
G1 X128.416 Y18.468 E21.22724
G1 X128.564 Y17.720 E21.24842
G1 X128.591 Y17.656 E21.25035
G1 X129.042 Y17.009 E21.27225
G1 X129.640 Y16.606 E21.29229
G1 X129.705 Y16.579 E21.29424
G1 X130.420 Y16.436 E21.31449
G1 X137.149 Y16.374 E21.50142
G1 X137.902 Y16.522 E21.52273
G1 X138.564 Y16.952 E21.54467
G1 X139.015 Y17.598 E21.56657
G1 X139.042 Y17.663 E21.56851
G1 X139.189 Y18.413 E21.58975
G1 X139.189 Y55.772 E22.62751
G1 X141.811 Y65.986 E22.92042
G1 X143.831 Y74.222 E23.15597
G1 X144.649 Y77.787 E23.25759
G1 X145.197 Y80.492 E23.33425
G1 X145.649 Y83.899 E23.42972
G1 X146.055 Y88.614 E23.56117
G1 X146.371 Y94.196 E23.71647
G1 X146.553 Y100.205 E23.88347
G1 X146.556 Y106.191 E24.04974
G1 X146.334 Y111.722 E24.20351
G1 X146.123 Y114.184 E24.27215
G1 X145.840 Y116.366 E24.33325
G1 X145.471 Y118.235 E24.38619
G1 X145.004 Y119.727 E24.42960
G1 X144.420 Y120.801 E24.46355
G1 X143.601 Y121.878 E24.50115
G1 X142.626 Y122.941 E24.54122
G1 X141.605 Y123.926 E24.58063
G1 X139.828 Y125.456 E24.64576
G1 X139.237 Y125.920 E24.66665
G1 X139.189 Y126.018 E24.66966
G1 X139.189 Y161.588 E25.65772
G1 X139.042 Y162.338 E25.67896
G1 X139.015 Y162.403 E25.68090
G1 X138.613 Y163.001 E25.70094
G1 X137.966 Y163.452 E25.72284
G1 X137.901 Y163.479 E25.72478
G1 X137.151 Y163.626 E25.74602
G1 X130.361 Y163.622 E25.93462
G1 X129.646 Y163.479 E25.95489
G1 X129.581 Y163.452 E25.95683
G1 X128.983 Y163.050 E25.97687
G1 X128.532 Y162.403 E25.99877
G1 X128.505 Y162.338 E26.00071
G1 X128.358 Y161.588 E26.02195
G1 X128.358 Y125.816 E27.01562
G1 X128.269 Y125.724 E27.01917
G1 X128.461 Y125.451 F8100.000
G1 X124.006 Y125.307 E27.14297 F2310.000
G1 X113.089 Y125.037 E27.44632
G1 X99.605 Y124.898 E27.82090
G1 X93.109 Y124.955 E28.00135
G1 X87.414 Y125.139 E28.15961
G1 X80.593 Y125.605 E28.34952
G1 X72.825 Y126.319 E28.56621
G1 X64.679 Y127.184 E28.79377
G1 X56.730 Y128.108 E29.01607
G1 X43.715 Y129.743 E29.38043
G1 X38.388 Y130.455 E29.52972
G1 X37.746 Y130.697 E29.54878
G1 X37.165 Y130.796 E29.56517
G1 X35.495 Y130.797 E29.61156
G1 X34.802 Y130.659 E29.63118
G1 X34.219 Y130.274 E29.65057
G1 X33.826 Y129.697 E29.66998
G1 X33.681 Y128.994 E29.68991
G1 X33.680 Y121.175 E29.90711
G1 X33.826 Y120.460 E29.92737
G1 X34.219 Y119.884 E29.94675
G1 X34.780 Y119.507 E29.96552
G1 X35.495 Y119.360 E29.98578
G1 X36.464 Y119.360 E30.01271
G1 X36.529 Y119.341 E30.01459
G1 X79.356 Y91.973 E31.42639
G1 X79.396 Y91.963 E31.42754
G1 X80.087 Y92.051 E31.44687
G1 X80.849 Y92.072 E31.46804
G1 X81.843 Y92.008 E31.49574
G1 X83.026 Y91.801 E31.52908
G1 X84.354 Y91.396 E31.56764
G1 X85.768 Y90.748 E31.61085
G1 X87.259 Y89.782 E31.66021
G1 X88.259 Y88.964 E31.69608
G1 X89.175 Y88.091 E31.73123
G1 X90.730 Y86.277 E31.79762
G1 X91.977 Y84.426 E31.85960
G1 X92.932 Y82.662 E31.91533
G1 X93.627 Y81.096 E31.96291
G1 X94.087 Y79.840 E32.00008
G1 X94.429 Y78.675 E32.03379
G1 X94.454 Y78.642 E32.03495
G1 X128.538 Y56.020 E33.17127
G1 X128.594 Y55.915 E33.17456
G1 X128.594 Y24.752 E34.04021
G1 X128.652 Y18.482 E34.21440
G1 X128.790 Y17.790 E34.23401
G1 X129.176 Y17.208 E34.25339
G1 X129.753 Y16.815 E34.27277
G1 X130.455 Y16.670 E34.29270
G1 X137.139 Y16.610 E34.47837
G1 X137.832 Y16.748 E34.49801
G1 X138.414 Y17.134 E34.51740
G1 X138.807 Y17.710 E34.53678
G1 X138.953 Y18.425 E34.55703
G1 X138.953 Y55.802 E35.59529
G1 X141.583 Y66.044 E35.88902
G1 X143.602 Y74.277 E36.12449
G1 X144.419 Y77.839 E36.22599
G1 X144.964 Y80.527 E36.30220
G1 X145.415 Y83.922 E36.39732
G1 X145.820 Y88.629 E36.52856
G1 X146.135 Y94.203 E36.68364
G1 X146.317 Y100.207 E36.85049
G1 X146.320 Y106.189 E37.01665
G1 X146.098 Y111.710 E37.17014
G1 X145.889 Y114.162 E37.23849
G1 X145.607 Y116.332 E37.29927
G1 X145.244 Y118.171 E37.35137
G1 X144.791 Y119.624 E37.39364
G1 X144.227 Y120.665 E37.42652
G1 X143.417 Y121.731 E37.46371
G1 X142.455 Y122.779 E37.50323
G1 X141.444 Y123.754 E37.54225
G1 X139.677 Y125.276 E37.60703
G1 X139.001 Y125.806 E37.63088
G1 X138.953 Y125.903 E37.63389
G1 X138.953 Y161.576 E38.62481
G1 X138.807 Y162.291 E38.64507
G1 X138.414 Y162.867 E38.66444
G1 X137.832 Y163.253 E38.68383
G1 X137.139 Y163.390 E38.70345
G1 X130.396 Y163.389 E38.89076
G1 X129.694 Y163.244 E38.91070
G1 X129.117 Y162.851 E38.93007
G1 X128.731 Y162.269 E38.94946
G1 X128.594 Y161.576 E38.96908
G1 X128.594 Y125.588 E39.96876
G1 X128.505 Y125.496 E39.97231
G1 E38.97231 F2400.00000
G92 E0
G1 X138.686 Y142.178 F8100.000
G1 E1.00000 F2400.00000
G1 X138.686 Y161.556 E1.53826 F1470.000
G1 X138.561 Y162.176 E1.55582
G1 X138.231 Y162.667 E1.57229
G1 X137.739 Y162.998 E1.58875
G1 X137.119 Y163.122 E1.60632
G1 X130.429 Y163.122 E1.79216
G1 X129.809 Y162.998 E1.80972
G1 X129.317 Y162.667 E1.82619
G1 X128.986 Y162.176 E1.84265
G1 X128.861 Y161.556 E1.86022
G1 X128.861 Y125.435 E2.86355
G1 X128.564 Y125.186 E2.87433
G1 X124.015 Y125.040 E3.00077
G1 X113.093 Y124.769 E3.30424
G1 X99.604 Y124.630 E3.67895
G1 X93.102 Y124.687 E3.85958
G1 X87.403 Y124.872 E4.01796
G1 X80.573 Y125.338 E4.20811
G1 X72.798 Y126.052 E4.42500
G1 X64.649 Y126.918 E4.65265
G1 X56.698 Y127.843 E4.87498
G1 X43.681 Y129.478 E5.23940
G1 X38.308 Y130.195 E5.38999
G1 X37.670 Y130.439 E5.40897
G1 X37.137 Y130.529 E5.42397
G1 X35.515 Y130.529 E5.46902
G1 X34.895 Y130.404 E5.48660
G1 X34.402 Y130.074 E5.50307
G1 X34.071 Y129.582 E5.51956
G1 X33.947 Y128.962 E5.53713
G1 X33.947 Y121.195 E5.75286
G1 X34.071 Y120.575 E5.77042
G1 X34.402 Y120.084 E5.78689
G1 X34.895 Y119.753 E5.80338
G1 X35.515 Y119.627 E5.82095
G1 X36.577 Y119.627 E5.85045
G1 X79.437 Y92.239 E7.26332
G1 X80.060 Y92.318 E7.28077
G1 X80.848 Y92.341 E7.30266
G1 X81.869 Y92.275 E7.33108
G1 X83.081 Y92.064 E7.36527
G1 X84.441 Y91.650 E7.40476
G1 X85.905 Y90.979 E7.44948
G1 X87.423 Y89.995 E7.49974
G1 X88.440 Y89.162 E7.53625
G1 X89.365 Y88.280 E7.57176
G1 X90.948 Y86.434 E7.63932
G1 X92.209 Y84.560 E7.70205
G1 X93.175 Y82.776 E7.75841
G1 X93.877 Y81.193 E7.80651
G1 X94.343 Y79.920 E7.84417
G1 X94.665 Y78.823 E7.87592
G1 X128.861 Y56.126 E9.01601
G1 X128.861 Y24.754 E9.88747
G1 X128.920 Y18.504 E10.06108
G1 X129.045 Y17.883 E10.07867
G1 X129.376 Y17.391 E10.09514
G1 X129.868 Y17.060 E10.11161
G1 X130.488 Y16.936 E10.12919
G1 X137.119 Y16.878 E10.31340
G1 X137.739 Y17.002 E10.33095
G1 X138.231 Y17.334 E10.34742 F1470.000
G1 X138.561 Y17.825 E10.36388
G1 X138.686 Y18.446 E10.38145
G1 X138.686 Y55.851 E11.42049
G1 X141.323 Y66.110 E11.71473
G1 X143.342 Y74.339 E11.95010
G1 X144.157 Y77.896 E12.05146
G1 X144.700 Y80.570 E12.12724
G1 X145.149 Y83.950 E12.22196
G1 X145.553 Y88.647 E12.35293
G1 X145.868 Y94.215 E12.50785
G1 X146.050 Y100.210 E12.67444
G1 X146.053 Y106.184 E12.84039
G1 X145.831 Y111.695 E12.99358
G1 X145.622 Y114.134 E13.06159
G1 X145.343 Y116.290 E13.12198
G1 X144.985 Y118.103 E13.17330
G1 X144.546 Y119.515 E13.21438
G1 X144.004 Y120.516 E13.24600
G1 X143.209 Y121.561 E13.28247
G1 X142.262 Y122.594 E13.32139
G1 X141.263 Y123.558 E13.35997
G1 X139.505 Y125.070 E13.42436
G1 X138.686 Y125.712 E13.45330
G1 X138.686 Y142.115 E13.90893
G1 X138.322 Y142.388 F8100.000
G1 E12.90893 F2400.00000
G92 E0
G1 X137.836 Y156.010 F8100.000
G1 X137.829 Y155.990 F8100.000
G1 X133.558 Y152.388 F8100.000
G1 X133.306 Y158.390 F8100.000
G1 X134.658 Y159.221 F8100.000
G1 X135.357 Y159.667 F8100.000
G1 X135.490 Y159.745 F8100.000
G1 X135.135 Y160.269 F8100.000
G1 X134.295 Y162.887 F8100.000
G1 E1.00000 F2400.00000
G1 X134.265 Y162.787 E1.00290 F2100.000
