; generated by Slic3r 1.2.9 on 2016-08-07 at 18:58:47

; external perimeters extrusion width = 0.42mm
; perimeters extrusion width = 0.53mm
; infill extrusion width = 0.53mm
; solid infill extrusion width = 0.53mm
; top infill extrusion width = 0.53mm

M104 S245 ; set temperature
M220 S100 ; reset speeds
M116 ; wait for all temperatures
G0 Z10 ; drive Z to 10mm height
G28 X0 Y0 ; home X and Y
G0 Z0 X30 Y30 F13000
M109 S245 ; wait for temperature to be reached
G21 ; set units to millimeters
G90 ; use absolute coordinates
M82 ; use absolute distances for extrusion
G92 E0
G1 E-1.00000 F2400.00000
G92 E0
G1 Z0.300 F8100.000
G1 X33.963 Y14.763 F8100.000
G1 E1.00000 F2400.00000
G1 X34.331 Y14.216 E1.01831 F2310.000
G1 X35.545 Y13.002 E1.06600
G1 X36.092 Y12.634 E1.08432
G1 X37.706 Y11.961 E1.13290
G1 X38.377 Y11.826 E1.15191
G1 X39.259 Y11.738 E1.17653
G1 X140.770 Y11.738 E3.99628
G1 X141.650 Y11.825 E4.02086
G1 X142.322 Y11.960 E4.03990 F2310.000
G1 X143.940 Y12.636 E4.08862
G1 X144.486 Y13.004 E4.10691
G1 X145.697 Y14.216 E4.15449
G1 X146.065 Y14.763 E4.17281
G1 X146.739 Y16.377 E4.22138
G1 X146.874 Y17.048 E4.24040
G1 X146.962 Y17.930 E4.26502
G1 X146.962 Y162.056 E8.26852
G1 X146.874 Y162.938 E8.29314
G1 X146.739 Y163.609 E8.31215
G1 X146.065 Y165.223 E8.36073
G1 X145.697 Y165.770 E8.37904
G1 X144.486 Y166.982 E8.42663
G1 X143.940 Y167.350 E8.44492
G1 X142.322 Y168.026 E8.49364
G1 X141.650 Y168.161 E8.51268
G1 X140.770 Y168.248 E8.53726
G1 X39.259 Y168.248 E11.35701
G1 X38.377 Y168.160 E11.38163
G1 X37.706 Y168.025 E11.40064
G1 X36.092 Y167.352 E11.44922
G1 X35.545 Y166.984 E11.46753
G1 X34.331 Y165.770 E11.51522
G1 X33.963 Y165.223 E11.53354
G1 X33.289 Y163.609 E11.58211
G1 X33.154 Y162.938 E11.60112
G1 X33.066 Y162.056 E11.62574
G1 X33.066 Y17.930 E15.62924
G1 X33.154 Y17.048 E15.65386
G1 X33.289 Y16.377 E15.67288
G1 X33.938 Y14.821 E15.71970
G1 X34.158 Y14.895 F8100.000
G1 X34.526 Y14.348 E15.73802 F2310.000
G1 X35.676 Y13.198 E15.78320
G1 X36.223 Y12.830 E15.80151
G1 X37.752 Y12.192 E15.84753
G1 X38.423 Y12.057 E15.86654
G1 X39.259 Y11.973 E15.88986
G1 X140.770 Y11.973 E18.70961
G1 X141.604 Y12.056 E18.73290
G1 X142.276 Y12.191 E18.75194 F2310.000
G1 X143.809 Y12.832 E18.79809
G1 X144.355 Y13.200 E18.81638
G1 X145.502 Y14.348 E18.86146
G1 X145.870 Y14.895 E18.87977
G1 X146.508 Y16.424 E18.92579
G1 X146.643 Y17.095 E18.94480
G1 X146.726 Y17.930 E18.96812
G1 X146.726 Y162.056 E22.97162
G1 X146.643 Y162.891 E22.99495
G1 X146.508 Y163.562 E23.01396
G1 X145.870 Y165.091 E23.05998
G1 X145.502 Y165.638 E23.07829
G1 X144.355 Y166.786 E23.12337
G1 X143.809 Y167.154 E23.14166
G1 X142.276 Y167.795 E23.18781
G1 X141.604 Y167.930 E23.20685
G1 X140.770 Y168.013 E23.23014
G1 X39.259 Y168.013 E26.04989
G1 X38.423 Y167.929 E26.07321
G1 X37.752 Y167.794 E26.09222
G1 X36.223 Y167.156 E26.13824
G1 X35.676 Y166.788 E26.15655
G1 X34.526 Y165.638 E26.20173
G1 X34.158 Y165.091 E26.22004
G1 X33.520 Y163.562 E26.26606
G1 X33.385 Y162.891 E26.28507
G1 X33.302 Y162.056 E26.30839
G1 X33.302 Y17.930 E30.31189
G1 X33.385 Y17.095 E30.33522
G1 X33.520 Y16.423 E30.35423
G1 X34.134 Y14.953 E30.39850
G1 E29.39850 F2400.00000
G92 E0
G1 X48.344 Y18.187 F8100.000
G1 E1.00000 F2400.00000
G1 X131.684 Y18.187 E3.31502 F2310.000
G1 X131.822 Y18.049 E3.32045
G1 X131.828 Y17.842 E3.32618
G1 X131.981 Y17.086 E3.34762
G1 X132.025 Y16.978 E3.35085
G1 X132.458 Y16.336 E3.37237
G1 X132.538 Y16.255 E3.37554
G1 X133.181 Y15.823 E3.39705
G1 X133.288 Y15.778 E3.40028
G1 X134.103 Y15.620 E3.42334
G1 X140.857 Y15.626 E3.61094
G1 X141.615 Y15.778 E3.63242
G1 X141.722 Y15.823 E3.63566
G1 X142.364 Y16.255 E3.65715
G1 X142.444 Y16.336 E3.66031
G1 X142.877 Y16.978 E3.68182
G1 X142.922 Y17.086 E3.68505
G1 X143.080 Y17.901 E3.70811
G1 X143.080 Y162.085 E7.71324
G1 X142.922 Y162.900 E7.73630
G1 X142.877 Y163.008 E7.73953
G1 X142.444 Y163.650 E7.76104
G1 X142.364 Y163.731 E7.76420
G1 X141.722 Y164.163 E7.78570
G1 X141.615 Y164.208 E7.78894
G1 X140.799 Y164.366 E7.81202
G1 X134.103 Y164.366 E7.99801
G1 X133.288 Y164.208 E8.02107
G1 X133.181 Y164.163 E8.02430
G1 X132.538 Y163.731 E8.04581
G1 X132.458 Y163.650 E8.04898
G1 X132.025 Y163.008 E8.07050
G1 X131.981 Y162.900 E8.07373
G1 X131.828 Y162.144 E8.09517
G1 X131.822 Y161.535 E8.11207
G1 X131.684 Y161.397 E8.11749
G1 X48.344 Y161.397 E10.43252
G1 X48.206 Y161.535 E10.43794
G1 X48.200 Y162.144 E10.45484
G1 X48.048 Y162.900 E10.47628
G1 X48.003 Y163.008 E10.47951
G1 X47.570 Y163.650 E10.50103
G1 X47.490 Y163.731 E10.50420
G1 X46.847 Y164.163 E10.52571
G1 X46.740 Y164.208 E10.52894
G1 X45.925 Y164.366 E10.55200
G1 X39.171 Y164.360 E10.73961
G1 X38.414 Y164.208 E10.76105
G1 X38.307 Y164.163 E10.76428
G1 X37.664 Y163.731 E10.78579
G1 X37.584 Y163.650 E10.78896
G1 X37.151 Y163.008 E10.81048
G1 X37.106 Y162.900 E10.81371
G1 X36.948 Y162.085 E10.83677
G1 X36.948 Y17.901 E14.84189
G1 X37.107 Y17.086 E14.86495
G1 X37.151 Y16.978 E14.86818
G1 X37.584 Y16.336 E14.88970
G1 X37.664 Y16.255 E14.89287
G1 X38.307 Y15.823 E14.91438
G1 X38.414 Y15.778 E14.91761
G1 X39.229 Y15.620 E14.94067
G1 X45.925 Y15.620 E15.12666
G1 X46.740 Y15.778 E15.14972
G1 X46.847 Y15.823 E15.15295
G1 X47.490 Y16.255 E15.17446
G1 X47.570 Y16.336 E15.17763
G1 X48.003 Y16.978 E15.19915
G1 X48.048 Y17.086 E15.20238
G1 X48.200 Y17.842 E15.22382
G1 X48.206 Y18.049 E15.22956
G1 X48.299 Y18.142 E15.23323
G1 X48.108 Y18.423 F8100.000
G1 X131.920 Y18.423 E17.56134 F2310.000
G1 X132.058 Y18.285 E17.56677
G1 X132.062 Y17.877 E17.57807
G1 X132.207 Y17.155 E17.59854
G1 X132.640 Y16.486 E17.62068
G1 X133.293 Y16.031 E17.64278
G1 X133.358 Y16.004 E17.64472
G1 X134.115 Y15.856 E17.66616
G1 X140.822 Y15.859 E17.85247
G1 X141.545 Y16.004 E17.87297
G1 X141.610 Y16.031 E17.87491
G1 X142.262 Y16.486 E17.89699
G1 X142.668 Y17.091 E17.91722
G1 X142.695 Y17.155 E17.91916
G1 X142.844 Y17.912 E17.94060
G1 X142.844 Y162.074 E21.94507
G1 X142.695 Y162.831 E21.96651
G1 X142.668 Y162.895 E21.96845
G1 X142.262 Y163.500 E21.98868
G1 X141.610 Y163.955 E22.01076
G1 X141.545 Y163.982 E22.01271
G1 X140.787 Y164.130 E22.03417
G1 X134.115 Y164.130 E22.21951
G1 X133.358 Y163.982 E22.24095
G1 X132.689 Y163.548 E22.26309
G1 X132.234 Y162.895 E22.28519
G1 X132.062 Y162.109 E22.30757
G1 X132.058 Y161.299 E22.33004
G1 X131.920 Y161.161 E22.33546
G1 X48.108 Y161.161 E24.66358
G1 X47.970 Y161.299 E24.66900
G1 X47.970 Y162.074 E24.69050
G1 X47.821 Y162.831 E24.71194
G1 X47.388 Y163.500 E24.73408
G1 X46.735 Y163.955 E24.75618
G1 X45.948 Y164.127 E24.77856
G1 X39.206 Y164.127 E24.96584
G1 X38.419 Y163.955 E24.98821
G1 X37.766 Y163.500 E25.01031
G1 X37.360 Y162.895 E25.03055
G1 X37.333 Y162.831 E25.03249
G1 X37.184 Y162.074 E25.05393
G1 X37.184 Y17.912 E29.05840
G1 X37.333 Y17.155 E29.07984
G1 X37.766 Y16.486 E29.10198
G1 X38.419 Y16.031 E29.12408
G1 X38.484 Y16.004 E29.12602
G1 X39.241 Y15.856 E29.14746
G1 X45.913 Y15.856 E29.33280
G1 X46.670 Y16.004 E29.35424
G1 X46.735 Y16.031 E29.35618
G1 X47.388 Y16.486 E29.37828
G1 X47.821 Y17.155 E29.40042
G1 X47.966 Y17.877 E29.42089
G1 X47.970 Y18.285 E29.43220
G1 X48.063 Y18.378 E29.43587
G1 X47.872 Y18.658 F8100.000
G1 X132.156 Y18.658 E31.77707 F2310.000
G1 X132.294 Y18.520 E31.78249
G1 X132.295 Y17.912 E31.79937
G1 X132.433 Y17.224 E31.81887
G1 X132.823 Y16.637 E31.83846
G1 X133.405 Y16.240 E31.85803
G1 X134.115 Y16.092 E31.87817
G1 X140.787 Y16.092 E32.06350
G1 X141.498 Y16.240 E32.08366
G1 X142.079 Y16.637 E32.10321
G1 X142.460 Y17.203 E32.12217
G1 X142.608 Y17.924 E32.14262
G1 X142.608 Y162.062 E36.14645
G1 X142.460 Y162.783 E36.16690
G1 X142.079 Y163.349 E36.18586
G1 X141.498 Y163.746 E36.20541
G1 X140.775 Y163.895 E36.22589
G1 X134.127 Y163.895 E36.41058
G1 X133.427 Y163.755 E36.43040
G1 X132.839 Y163.365 E36.44999
G1 X132.442 Y162.783 E36.46956
G1 X132.294 Y162.062 E36.49002
G1 X132.294 Y161.064 E36.51774
G1 X132.156 Y160.926 E36.52316
G1 X47.872 Y160.926 E38.86437
G1 X47.734 Y161.064 E38.86979
G1 X47.734 Y162.062 E38.89751
G1 X47.586 Y162.783 E38.91797
G1 X47.189 Y163.365 E38.93754
G1 X46.623 Y163.746 E38.95650
G1 X45.913 Y163.894 E38.97663
G1 X39.241 Y163.894 E39.16196
G1 X38.531 Y163.746 E39.18209
G1 X37.965 Y163.365 E39.20105
G1 X37.568 Y162.783 E39.22062
G1 X37.420 Y162.062 E39.24108
G1 X37.420 Y17.924 E43.24490
G1 X37.568 Y17.203 E43.26536
G1 X37.965 Y16.621 E43.28494
G1 X38.553 Y16.231 E43.30452
G1 X39.253 Y16.091 E43.32435
G1 X45.901 Y16.091 E43.50903
G1 X46.623 Y16.240 E43.52949
G1 X47.205 Y16.637 E43.54906
G1 X47.595 Y17.224 E43.56865
G1 X47.733 Y17.912 E43.58815
G1 X47.734 Y18.520 E43.60503
G1 X47.828 Y18.614 E43.60870
G1 X47.467 Y18.926 F8100.000
G1 X132.562 Y18.926 E45.97245 F1470.000
G1 X132.562 Y17.945 E45.99970
G1 X132.688 Y17.318 E46.01747
G1 X133.023 Y16.820 E46.03414
G1 X133.520 Y16.485 E46.05080
G1 X134.147 Y16.359 E46.06857
G1 X140.755 Y16.359 E46.25210
G1 X141.383 Y16.485 E46.26989
G1 X141.879 Y16.820 E46.28654
G1 X142.214 Y17.318 E46.30320
G1 X142.341 Y17.945 E46.32097
G1 X142.341 Y162.041 E50.32364
G1 X142.214 Y162.668 E50.34141
G1 X141.879 Y163.166 E50.35808
G1 X141.383 Y163.501 E50.37472
G1 X140.755 Y163.627 E50.39251
G1 X134.147 Y163.627 E50.57604
G1 X133.520 Y163.501 E50.59381
G1 X133.023 Y163.166 E50.61048
G1 X132.688 Y162.668 E50.62714
G1 X132.562 Y162.041 E50.64491
G1 X132.562 Y160.658 E50.68333
G1 X47.467 Y160.658 E53.04708
G1 X47.467 Y162.041 E53.08550
G1 X47.340 Y162.668 E53.10326
G1 X47.005 Y163.166 E53.11993
G1 X46.508 Y163.501 E53.13660
G1 X45.881 Y163.627 E53.15436
G1 X39.273 Y163.627 E53.33790
G1 X38.646 Y163.501 E53.35566
G1 X38.149 Y163.166 E53.37233
G1 X37.814 Y162.668 E53.38900
G1 X37.688 Y162.041 E53.40676
G1 X37.688 Y17.945 E57.40943
G1 X37.814 Y17.318 E57.42720
G1 X38.149 Y16.820 E57.44387
G1 X38.646 Y16.485 E57.46053
G1 X39.273 Y16.359 E57.47830
G1 X45.881 Y16.359 E57.66183
G1 X46.508 Y16.485 E57.67960
G1 X47.005 Y16.820 E57.69626
G1 X47.340 Y17.318 E57.71293
G1 X47.467 Y17.945 E57.73070
G1 X47.467 Y18.863 E57.75620
G1 X47.467 Y19.346 F8100.000
G1 X47.231 Y19.162 F8100.000
G1 X132.797 Y19.162 E60.13304 F2100.000
G1 X132.797 Y17.968 E60.16619
G1 X132.909 Y17.410 E60.18199
G1 X133.192 Y16.990 E60.19608
G1 X133.613 Y16.707 E60.21016
G1 X134.171 Y16.595 E60.22597
G1 X140.731 Y16.595 E60.40820
G1 X141.290 Y16.707 E60.42403
G1 X141.710 Y16.990 E60.43808
G1 X141.993 Y17.410 E60.45217
G1 X142.105 Y17.968 E60.46798
G1 X142.105 Y162.018 E64.46935
G1 X141.993 Y162.576 E64.48516
G1 X141.710 Y162.996 E64.49924
G1 X141.290 Y163.279 E64.51330
G1 X140.731 Y163.391 E64.52913
G1 X134.171 Y163.391 E64.71136
G1 X133.613 Y163.279 E64.72717
G1 X133.192 Y162.996 E64.74125
G1 X132.909 Y162.576 E64.75533
G1 X132.797 Y162.018 E64.77114
G1 X132.797 Y160.422 E64.81545
G1 X47.231 Y160.422 E67.19229
G1 X47.231 Y162.018 E67.23661
G1 X47.119 Y162.576 E67.25241
G1 X46.836 Y162.996 E67.26650
G1 X46.415 Y163.279 E67.28058
G1 X45.857 Y163.391 E67.29639
G1 X39.297 Y163.391 E67.47861
G1 X38.739 Y163.279 E67.49442
G1 X38.318 Y162.996 E67.50851
G1 X38.035 Y162.576 E67.52259
G1 X37.923 Y162.018 E67.53840
G1 X37.923 Y17.968 E71.53976
G1 X38.035 Y17.410 E71.55557
G1 X38.318 Y16.990 E71.56965
G1 X38.739 Y16.707 E71.58373
G1 X39.297 Y16.595 E71.59954
G1 X45.857 Y16.595 E71.78177
G1 X46.415 Y16.707 E71.79758
G1 X46.836 Y16.990 E71.81166
G1 X47.119 Y17.410 E71.82574
G1 X47.231 Y17.968 E71.84155
G1 X47.231 Y19.099 E71.87295
G1 X44.806 Y55.053 F8100.000
G1 X45.312 Y55.164 E71.88734 F2100.000
G1 X45.734 Y55.457 E71.90163
G1 X46.028 Y55.881 E71.91594
G1 X46.139 Y56.387 E71.93034
G1 X46.028 Y56.892 E71.94471
G1 X45.734 Y57.316 E71.95902
G1 X45.312 Y57.609 E71.97332
G1 X44.806 Y57.720 E71.98770
G1 X44.299 Y57.609 E72.00209
G1 X43.877 Y57.316 E72.01639
G1 X43.583 Y56.892 E72.03070
G1 X43.472 Y56.387 E72.04507
G1 X43.583 Y55.881 E72.05946
G1 X43.877 Y55.457 E72.07378
G1 X44.299 Y55.164 E72.08807
G1 X44.744 Y55.067 E72.10071 F2100.000
G1 X45.041 Y54.706 F8100.000
G1 X44.755 Y54.823 F8100.000
G1 X44.806 Y54.812 E72.10214 F2100.000
G1 X45.407 Y54.944 E72.11925
G1 X45.904 Y55.288 E72.13603
G1 X46.248 Y55.785 E72.15282
G1 X46.380 Y56.387 E72.16995
G1 X46.248 Y56.988 E72.18705
G1 X45.904 Y57.485 E72.20383
G1 X45.407 Y57.829 E72.22061
G1 X44.806 Y57.961 E72.23773
G1 X44.204 Y57.829 E72.25484
G1 X43.707 Y57.485 E72.27162
G1 X43.363 Y56.988 E72.28841
G1 X43.231 Y56.387 E72.30550
G1 X43.363 Y55.785 E72.32263
G1 X43.707 Y55.288 E72.33942
G1 X44.204 Y54.944 E72.35620
G1 X44.694 Y54.837 E72.37014 F2100.000
G1 X42.537 Y23.731 F8100.000
G1 X41.935 Y23.599 E72.38723 F2100.000
G1 X41.433 Y23.251 E72.40422
G1 X41.084 Y22.747 E72.42124
G1 X40.953 Y22.147 E72.43830
G1 X41.084 Y21.547 E72.45536
G1 X41.433 Y21.044 E72.47235
G1 X41.937 Y20.696 E72.48936
G1 X42.472 Y20.579 E72.50459
G1 X42.537 Y20.564 E72.50643 F2100.000
G1 X43.137 Y20.696 E72.52349
G1 X43.639 Y21.044 E72.54048
G1 X43.988 Y21.547 E72.55747
G1 X44.119 Y22.147 E72.57453
G1 X43.988 Y22.747 E72.59159
G1 X43.639 Y23.251 E72.60861
G1 X43.137 Y23.599 E72.62560
G1 X42.598 Y23.717 E72.64091
G1 X42.301 Y24.078 F8100.000
G1 X42.486 Y23.961 F8100.000
G1 X41.840 Y23.819 E72.65930 F2100.000
G1 X41.263 Y23.420 E72.67878
G1 X40.864 Y22.843 E72.69827
G1 X40.712 Y22.147 E72.71806
G1 X40.864 Y21.451 E72.73785
G1 X41.263 Y20.875 E72.75732
G1 X41.841 Y20.476 E72.77682
G1 X42.422 Y20.348 E72.79334
G1 X42.537 Y20.323 E72.79660 F2100.000
G1 X43.232 Y20.476 E72.81639
G1 X43.809 Y20.875 E72.83586
G1 X44.208 Y21.451 E72.85534
G1 X44.360 Y22.147 E72.87513
G1 X44.208 Y22.843 E72.89491
G1 X43.809 Y23.420 E72.91440
G1 X43.232 Y23.819 E72.93388
G1 X42.548 Y23.969 E72.95335
G1 X47.467 Y25.118 F8100.000
G1 X65.969 Y25.118 E73.46730 F1470.000
G1 X47.467 Y43.620 E74.19413
G1 X47.467 Y25.181 E74.70633
G1 X47.467 Y24.698 F8100.000
G1 X47.231 Y24.882 F8100.000
G1 X66.537 Y24.882 E75.24262 F2100.000
G1 X47.231 Y44.189 E76.00106
G1 X47.231 Y24.945 E76.53560
G1 X46.617 Y24.268 F8100.000
G1 X47.232 Y22.022 F8100.000
G1 X70.945 Y22.974 F8100.000
G1 X72.312 Y22.407 F8100.000
G1 X74.172 Y24.268 F8100.000
G1 X60.995 Y38.647 F8100.000
G1 X74.524 Y25.118 E77.06707 F1470.000
G1 X104.060 Y25.118 E77.88749 F1470.000
G1 X132.236 Y53.294 E78.99437
G1 X132.562 Y53.559 E79.00601
G1 X132.562 Y127.372 E81.05639
G1 X105.468 Y154.466 E82.12074
G1 X75.932 Y154.466 E82.94116
G1 X47.755 Y126.289 E84.04806
G1 X47.467 Y126.049 E84.05848
G1 X47.467 Y52.176 E86.11053
G1 X60.951 Y38.691 E86.64024
G1 X60.887 Y38.241 F8100.000
G1 X60.829 Y38.480 F8100.000
G1 X74.427 Y24.882 E87.17442 F2100.000
G1 X104.157 Y24.882 E88.00027 F2100.000
G1 X132.394 Y53.119 E89.10951
G1 X132.797 Y53.446 E89.12393
G1 X132.797 Y127.470 E91.18014
G1 X105.565 Y154.702 E92.24991
G1 X75.835 Y154.702 E93.07576
G1 X47.597 Y126.463 E94.18506
G1 X47.231 Y126.160 E94.19825
G1 X47.231 Y52.078 E96.25608
G1 X60.784 Y38.525 E96.78851
G1 X74.172 Y24.268 F8100.000
G1 X104.412 Y22.022 F8100.000
G1 X107.639 Y22.974 F8100.000
G1 X110.563 Y22.022 F8100.000
G1 X110.563 Y24.268 F8100.000
G1 X112.615 Y25.118 F8100.000
G1 X132.562 Y25.118 E97.34257 F1470.000
G1 X132.562 Y45.064 E97.89663
G1 X112.660 Y25.163 E98.67844
G1 X112.507 Y24.712 F8100.000
G1 X112.047 Y24.882 F8100.000
G1 X132.797 Y24.882 E99.25484 F2100.000
G1 X132.797 Y45.633 E99.83125
G1 X112.091 Y24.927 E100.64466
G1 X135.930 Y22.076 F8100.000
G1 X136.061 Y21.476 E100.66172 F2100.000
G1 X136.410 Y20.972 E100.67873
G1 X136.912 Y20.624 E100.69573
G1 X137.448 Y20.507 E100.71096
G1 X137.512 Y20.492 E100.71279 F2100.000
G1 X138.113 Y20.624 E100.72985
G1 X138.615 Y20.972 E100.74684
G1 X138.964 Y21.476 E100.76385
G1 X139.096 Y22.076 E100.78092
G1 X138.964 Y22.676 E100.79800
G1 X138.615 Y23.179 E100.81498
G1 X138.113 Y23.527 E100.83197
G1 X137.512 Y23.659 E100.84904
G1 X136.912 Y23.527 E100.86610
G1 X136.410 Y23.179 E100.88309
G1 X136.061 Y22.676 E100.90008
G1 X135.943 Y22.138 E100.91539
G1 X135.582 Y21.840 F8100.000
G1 X135.700 Y22.026 F8100.000
G1 X135.841 Y21.380 E100.93375 F2100.000
G1 X136.240 Y20.803 E100.95324
G1 X136.817 Y20.404 E100.97272
G1 X137.398 Y20.276 E100.98924
G1 X137.513 Y20.251 E100.99251 F2100.000
G1 X138.208 Y20.404 E101.01230
