; generated by Slic3r 1.2.9 on 2016-08-06 at 11:38:02

; external perimeters extrusion width = 0.42mm
; perimeters extrusion width = 0.53mm
; infill extrusion width = 0.53mm
; solid infill extrusion width = 0.53mm
; top infill extrusion width = 0.53mm

M104 S245 ; set temperature
M220 S100 ; reset speeds
M116 ; wait for all temperatures
G0 Z10 ; drive Z to 10mm height
G28 X0 Y0 ; home X and Y
G0 Z0 X30 Y30 F13000
M109 S245 ; wait for temperature to be reached
G21 ; set units to millimeters
G90 ; use absolute coordinates
M82 ; use absolute distances for extrusion
G92 E0
G1 E-1.00000 F2400.00000
G92 E0
G1 Z0.300 F8100.000
G1 X30.131 Y30.131 F8100.000
G1 E1.00000 F2400.00000
G1 X48.592 Y11.671 E1.72519 F2310.000
G1 X50.171 Y10.651 E1.77743
G1 X52.031 Y10.370 E1.82967
G1 X53.842 Y10.879 E1.88191
G1 X54.915 Y11.671 E1.91896 F2310.000
G1 X168.348 Y125.104 E6.37502
G1 X169.368 Y126.684 E6.42726
G1 X169.649 Y128.543 E6.47950
G1 X169.140 Y130.354 E6.53174
G1 X168.348 Y131.427 E6.56880
G1 X133.732 Y166.043 E7.92863
G1 X131.317 Y167.290 E8.00413
G1 X117.814 Y169.576 E8.38453
G1 X115.936 Y169.493 E8.43677
G1 X113.906 Y168.329 E8.50175
G1 X11.652 Y66.075 E12.51867
G1 X10.632 Y64.495 E12.57091
G1 X10.406 Y62.166 E12.63592
G1 X12.680 Y48.750 E13.01390
G1 X13.927 Y46.336 E13.08938
G1 X30.087 Y30.176 E13.72419
G1 X30.298 Y30.298 F8100.000
G1 X48.758 Y11.838 E14.44938 F2310.000
G1 X50.301 Y10.854 E14.50021
G1 X52.115 Y10.613 E14.55104
G1 X53.861 Y11.159 E14.60187
G1 X54.748 Y11.838 E14.63289 F2310.000
G1 X168.181 Y125.270 E19.08895
G1 X169.165 Y126.813 E19.13978
G1 X169.406 Y128.627 E19.19061
G1 X168.860 Y130.374 E19.24144
G1 X168.181 Y131.260 E19.27246
G1 X133.565 Y165.876 E20.63229
G1 X131.277 Y167.057 E20.70381
G1 X117.775 Y169.343 E21.08421
G1 X115.948 Y169.252 E21.13504
G1 X114.073 Y168.162 E21.19527
G1 X11.819 Y65.908 E25.21219
G1 X10.835 Y64.365 E25.26302
G1 X10.638 Y62.205 E25.32327
G1 X12.913 Y48.789 E25.70126
G1 X14.094 Y46.502 E25.77276
G1 X30.253 Y30.343 E26.40757
G1 X32.877 Y32.877 F8100.000
G1 X51.509 Y14.244 E27.13953 F2310.000
G1 X51.997 Y14.244 E27.15309
G1 X162.199 Y124.446 E31.48224
G1 X165.775 Y128.021 E31.62270 F2310.000
G1 X165.775 Y128.509 E31.63626
G1 X130.922 Y163.362 E33.00541
G1 X130.759 Y163.447 E33.01051
G1 X117.025 Y165.772 E33.39743
G1 X116.753 Y165.685 E33.40538
G1 X14.296 Y63.229 E37.43024
G1 X14.209 Y62.956 E37.43819
G1 X16.523 Y49.308 E37.82270
G1 X16.607 Y49.146 E37.82779
G1 X32.832 Y32.921 E38.46515
G1 E37.46515 F2400.00000
G92 E0
G1 X51.900 Y14.479 F8100.000
G1 E1.00000 F2400.00000
G1 X165.539 Y128.119 E5.46419 F2310.000
G1 X165.539 Y128.412 E5.47232
G1 X130.781 Y163.170 E6.83775
G1 X130.683 Y163.220 E6.84081
G1 X117.042 Y165.530 E7.22512
G1 X116.879 Y165.478 E7.22989
G1 X14.503 Y63.102 E11.25157
G1 X14.451 Y62.939 E11.25635
G1 X16.750 Y49.384 E11.63824
G1 X16.800 Y49.286 E11.64130
G1 X51.607 Y14.479 E13.00864
G1 X51.837 Y14.479 E13.01502
G1 X51.802 Y14.715 F8100.000
G1 X165.304 Y128.217 E17.47379 F2310.000
G1 X165.304 Y128.314 E17.47650
G1 X130.641 Y162.977 E18.83820
G1 X117.059 Y165.288 E19.22088
G1 X117.005 Y165.271 E19.22246
G1 X14.710 Y62.976 E23.24097
G1 X14.693 Y62.922 E23.24256
G1 X16.993 Y49.427 E23.62282
G1 X51.705 Y14.715 E24.98644
G1 X51.739 Y14.715 E24.98740
G1 X51.753 Y15.045 F8100.000
G1 X164.974 Y128.265 E29.43512 F1470.000
G1 X130.498 Y162.741 E30.78946
G1 X117.119 Y165.006 E31.16638
G1 X14.975 Y62.862 E35.17899
G1 X17.229 Y49.570 E35.55349
G1 X51.709 Y15.089 E36.90800
G1 X51.862 Y15.451 F8100.000
G1 X51.753 Y15.378 F8100.000
G1 X164.641 Y128.265 E41.34263 F2100.000
G1 X130.385 Y162.521 E42.68834
G1 X117.200 Y164.754 E43.05979
G1 X15.228 Y62.781 E47.06565
G1 X17.448 Y49.683 E47.43468
G1 X51.709 Y15.423 E48.78056
G1 X21.016 Y59.386 F8100.000
G1 X21.404 Y59.685 E48.79417 F2100.000
G1 X21.703 Y60.074 E48.80780
G1 X21.896 Y60.534 E48.82165
G1 X21.962 Y61.027 E48.83547
G1 X21.901 Y61.511 E48.84904
G1 X21.716 Y61.964 E48.86262
G1 X21.411 Y62.361 E48.87652
G1 X20.793 Y62.776 E48.89720
G1 X20.055 Y62.916 E48.91807
G1 X19.319 Y62.755 E48.93900
G1 X18.709 Y62.325 E48.95973
G1 X18.575 Y62.161 E48.96561
G1 X18.260 Y61.557 E48.98453
G1 X18.181 Y60.891 E49.00318
G1 X18.340 Y60.239 E49.02180
G1 X18.729 Y59.677 E49.04079
G1 X19.126 Y59.374 E49.05466
G1 X19.577 Y59.188 E49.06823
G1 X20.034 Y59.130 E49.08102 F2100.000
G1 X20.571 Y59.195 E49.09604
G1 X20.958 Y59.361 E49.10774
G1 X21.389 Y59.194 F8100.000
G1 X21.159 Y59.199 F8100.000
G1 X21.572 Y59.517 E49.12219 F2100.000
G1 X21.909 Y59.954 E49.13753
G1 X22.125 Y60.472 E49.15311
G1 X22.200 Y61.026 E49.16865
G1 X22.130 Y61.572 E49.18392
G1 X21.922 Y62.082 E49.19924
G1 X21.575 Y62.535 E49.21510
G1 X20.885 Y62.999 E49.23820
G1 X20.052 Y63.156 E49.26174
G1 X19.222 Y62.975 E49.28533
G1 X18.547 Y62.499 E49.30828
G1 X18.377 Y62.291 E49.31573
G1 X18.031 Y61.628 E49.33651
G1 X17.942 Y60.876 E49.35754
G1 X18.121 Y60.141 E49.37856
G1 X18.556 Y59.513 E49.39979
G1 X19.007 Y59.168 E49.41556
G1 X19.517 Y58.958 E49.43086
G1 X20.033 Y58.893 E49.44533 F2100.000
G1 X20.633 Y58.965 E49.46209
G1 X21.105 Y59.168 E49.47639
G1 X50.421 Y23.329 F8100.000
G1 X50.335 Y23.244 E49.47975 F2100.000
G1 X49.987 Y22.628 E49.49938
G1 X49.890 Y21.943 E49.51863
G1 X50.045 Y21.269 E49.53782
G1 X50.444 Y20.693 E49.55730
G1 X50.832 Y20.357 E49.57155
G1 X51.292 Y20.142 E49.58564
G1 X51.775 Y20.061 E49.59924 F2100.000
G1 X52.305 Y20.113 E49.61405
G1 X52.787 Y20.306 E49.62846
G1 X53.192 Y20.615 E49.64262
G1 X53.501 Y21.019 E49.65675
G1 X53.693 Y21.501 E49.67116
G1 X53.748 Y22.015 E49.68552
G1 X53.665 Y22.515 E49.69960
G1 X53.449 Y22.974 E49.71368
G1 X53.114 Y23.363 E49.72796
G1 X52.499 Y23.776 E49.74851
G1 X51.761 Y23.915 E49.76939
G1 X51.023 Y23.754 E49.79036
G1 X50.472 Y23.366 E49.80909
G1 X50.306 Y23.367 F8100.000
G1 X50.285 Y23.522 F8100.000
G1 X50.146 Y23.387 E49.81446 F2100.000
G1 X49.760 Y22.706 E49.83622
G1 X49.650 Y21.932 E49.85792
G1 X49.826 Y21.172 E49.87958
G1 X50.268 Y20.534 E49.90114
G1 X50.703 Y20.157 E49.91713
G1 X51.221 Y19.915 E49.93303
G1 X51.767 Y19.824 E49.94839 F2100.000
G1 X52.362 Y19.882 E49.96500
G1 X52.904 Y20.099 E49.98123
G1 X53.360 Y20.447 E49.99716
G1 X53.707 Y20.902 E50.01306
G1 X53.924 Y21.444 E50.02927
G1 X53.986 Y22.022 E50.04543
G1 X53.892 Y22.586 E50.06131
G1 X53.649 Y23.103 E50.07719
G1 X53.271 Y23.541 E50.09325
G1 X52.591 Y23.998 E50.11603
G1 X51.758 Y24.156 E50.13957
G1 X50.927 Y23.974 E50.16320
G1 X50.337 Y23.558 E50.18326
G1 X58.265 Y56.803 F8100.000
G1 X58.413 Y56.768 E50.18749 F1470.000
G1 X60.048 Y56.619 E50.23308
G1 X60.166 Y56.608 E50.23637 F1470.000
G1 X61.920 Y56.784 E50.28534
G1 X62.786 Y56.999 E50.31012
G1 X63.630 Y57.298 E50.33499
G1 X64.447 Y57.680 E50.36007
G1 X65.233 Y58.147 E50.38545
G1 X65.981 Y58.697 E50.41124
G1 X66.681 Y59.332 E50.43750
G1 X67.316 Y60.033 E50.46378
G1 X67.866 Y60.780 E50.48954
G1 X68.333 Y61.566 E50.51494
G1 X68.716 Y62.384 E50.54003
G1 X69.014 Y63.227 E50.56487
G1 X69.230 Y64.094 E50.58968
G1 X69.406 Y65.848 E50.63865
G1 X69.245 Y67.600 E50.68751
G1 X69.038 Y68.464 E50.71219
G1 X68.747 Y69.306 E50.73694
G1 X68.370 Y70.120 E50.76187
G1 X67.911 Y70.902 E50.78705
G1 X67.367 Y71.645 E50.81263
G1 X66.738 Y72.340 E50.83867
G1 X66.043 Y72.969 E50.86471
G1 X65.300 Y73.513 E50.89029
G1 X64.518 Y73.972 E50.91547
G1 X63.704 Y74.349 E50.94040
G1 X62.862 Y74.640 E50.96515
G1 X61.998 Y74.847 E50.98983
G1 X60.246 Y75.008 E51.03870
G1 X58.492 Y74.832 E51.08766
G1 X57.625 Y74.616 E51.11247
G1 X56.782 Y74.318 E51.13731
G1 X55.964 Y73.935 E51.16240
G1 X55.178 Y73.468 E51.18780
G1 X54.431 Y72.918 E51.21356
G1 X53.730 Y72.283 E51.23985
G1 X53.095 Y71.583 E51.26610
G1 X52.545 Y70.835 E51.29189
G1 X52.078 Y70.050 E51.31727
G1 X51.696 Y69.232 E51.34235
G1 X51.397 Y68.388 E51.36722
G1 X51.182 Y67.522 E51.39201
G1 X51.006 Y65.768 E51.44097
G1 X51.166 Y64.015 E51.48985
G1 X51.373 Y63.151 E51.51454
G1 X51.665 Y62.310 E51.53927
G1 X52.040 Y61.495 E51.56420
G1 X52.500 Y60.713 E51.58939
G1 X53.045 Y59.971 E51.61497
G1 X53.673 Y59.275 E51.64101
G1 X54.369 Y58.647 E51.66705
G1 X55.111 Y58.102 E51.69262
G1 X55.892 Y57.642 E51.71781
G1 X56.708 Y57.267 E51.74274
G1 X57.549 Y56.975 E51.76747
G1 X58.204 Y56.818 E51.78617
G1 X58.308 Y56.657 F8100.000
G1 X58.210 Y56.574 F8100.000
G1 X58.375 Y56.535 E51.79088 F2100.000
G1 X60.026 Y56.384 E51.83695
G1 X60.167 Y56.371 E51.84087 F2100.000
G1 X61.960 Y56.551 E51.89093
G1 X62.854 Y56.773 E51.91650
G1 X63.719 Y57.079 E51.94201
G1 X64.558 Y57.472 E51.96773
G1 X65.363 Y57.950 E51.99375
G1 X66.130 Y58.514 E52.02020
G1 X66.848 Y59.165 E52.04711
G1 X67.499 Y59.884 E52.07404
G1 X68.063 Y60.649 E52.10046
G1 X68.542 Y61.456 E52.12651
G1 X68.934 Y62.295 E52.15224
G1 X69.240 Y63.159 E52.17771
G1 X69.463 Y64.053 E52.20331
G1 X69.642 Y65.847 E52.25338
G1 X69.478 Y67.638 E52.30334
G1 X69.264 Y68.530 E52.32881
G1 X68.965 Y69.394 E52.35421
G1 X68.579 Y70.230 E52.37978
G1 X68.108 Y71.032 E52.40562
G1 X67.550 Y71.794 E52.43186
G1 X66.905 Y72.507 E52.45857
G1 X66.192 Y73.152 E52.48528
G1 X65.430 Y73.710 E52.51153
G1 X64.628 Y74.182 E52.53737
G1 X63.792 Y74.567 E52.56294
G1 X62.928 Y74.866 E52.58833
G1 X62.036 Y75.080 E52.61381
G1 X60.245 Y75.244 E52.66377
G1 X58.451 Y75.065 E52.71384
G1 X57.557 Y74.842 E52.73944
G1 X56.693 Y74.536 E52.76491
G1 X55.854 Y74.144 E52.79064
G1 X55.047 Y73.665 E52.81669
G1 X54.281 Y73.101 E52.84311
G1 X53.563 Y72.450 E52.87004
G1 X52.912 Y71.732 E52.89695
G1 X52.348 Y70.965 E52.92340
G1 X51.870 Y70.160 E52.94942
G1 X51.477 Y69.321 E52.97514
G1 X51.171 Y68.456 E53.00065
G1 X50.949 Y67.562 E53.02622
G1 X50.769 Y65.769 E53.07628
G1 X50.933 Y63.977 E53.12627
G1 X51.147 Y63.085 E53.15175
G1 X51.446 Y62.222 E53.17713
G1 X51.831 Y61.385 E53.20270
G1 X52.303 Y60.583 E53.22855
G1 X52.862 Y59.822 E53.25479
G1 X53.506 Y59.108 E53.28150
G1 X54.220 Y58.464 E53.30820
G1 X54.981 Y57.905 E53.33444
G1 X55.783 Y57.433 E53.36029
G1 X56.620 Y57.048 E53.38587
G1 X57.483 Y56.749 E53.41124
G1 X58.149 Y56.589 E53.43027
G1 E52.43027 F2400.00000
G92 E0
G1 X69.125 Y70.515 F8100.000
G1 X126.968 Y96.261 F8100.000
G1 X141.044 Y112.487 F8100.000
G1 X149.889 Y118.902 F8100.000
G1 X152.609 Y123.418 F8100.000
G1 X152.294 Y124.437 F8100.000
G1 X152.151 Y124.834 F8100.000
G1 X155.453 Y127.119 F8100.000
G1 X156.647 Y126.889 F8100.000
G1 E1.00000 F2400.00000
G1 X157.043 Y126.585 E1.01388 F2100.000
G1 X157.494 Y126.400 E1.02742
G1 X157.972 Y126.339 E1.04080 F2100.000
G1 X158.473 Y126.404 E1.05482
G1 X158.932 Y126.598 E1.06867
G1 X159.321 Y126.897 E1.08229
G1 X159.620 Y127.286 E1.09592
G1 X159.814 Y127.745 E1.10977
G1 X159.884 Y128.269 E1.12445
G1 X159.817 Y128.724 E1.13724
G1 X159.634 Y129.175 E1.15076
G1 X159.329 Y129.573 E1.16467
G1 X158.711 Y129.988 E1.18534
G1 X157.973 Y130.127 E1.20621
G1 X157.236 Y129.967 E1.22716
G1 X156.633 Y129.541 E1.24767
G1 X156.535 Y129.443 E1.25151
G1 X156.186 Y128.827 E1.27117
G1 X156.089 Y128.142 E1.29039
G1 X156.245 Y127.469 E1.30958
G1 X156.611 Y126.940 E1.32744
G1 X156.549 Y126.480 F8100.000
G1 X156.503 Y126.702 F8100.000
G1 X156.925 Y126.379 E1.34219 F2100.000
G1 X157.434 Y126.170 E1.35746
G1 X157.972 Y126.101 E1.37255 F2100.000
G1 X158.535 Y126.174 E1.38829
G1 X159.052 Y126.392 E1.40388
G1 X159.489 Y126.729 E1.41921
G1 X159.825 Y127.166 E1.43453
G1 X160.043 Y127.682 E1.45010
G1 X160.122 Y128.270 E1.46657
G1 X160.046 Y128.787 E1.48108
G1 X159.840 Y129.293 E1.49626
G1 X159.493 Y129.747 E1.51213
G1 X158.802 Y130.210 E1.53522
G1 X157.970 Y130.367 E1.55876
G1 X157.139 Y130.187 E1.58237
G1 X156.480 Y129.722 E1.60477
G1 X156.346 Y129.587 E1.61006
G1 X155.959 Y128.904 E1.63185
G1 X155.850 Y128.132 E1.65353
G1 X156.026 Y127.372 E1.67519
G1 X156.459 Y126.745 E1.69636
G1 X147.234 Y125.188 F8100.000
G1 X146.921 Y126.266 E1.72753 F2100.000
G1 X146.394 Y127.276 E1.75918
G1 X145.653 Y128.186 E1.79178
G1 X144.742 Y128.928 E1.82440
G1 X143.731 Y129.456 E1.85610
G1 X142.652 Y129.771 E1.88732
G1 X141.538 Y129.873 E1.91838
G1 X140.425 Y129.761 E1.94946
G1 X139.343 Y129.437 E1.98084
G1 X138.327 Y128.900 E2.01274
G1 X137.411 Y128.151 E2.04563
G1 X136.662 Y127.235 E2.07848
G1 X136.126 Y126.220 E2.11036
G1 X135.804 Y125.140 E2.14167
G1 X135.695 Y124.029 E2.17269
G1 X135.799 Y122.918 E2.20368
G1 X136.116 Y121.841 E2.23487
G1 X136.645 Y120.831 E2.26655
G1 X137.388 Y119.921 E2.29917
G1 X138.296 Y119.179 E2.33175
G1 X139.305 Y118.651 E2.36338
G1 X140.381 Y118.336 E2.39453
G1 X141.424 Y118.240 E2.42361 F2100.000
G1 X142.598 Y118.345 E2.45637
G1 X143.677 Y118.671 E2.48765
G1 X144.690 Y119.208 E2.51950
G1 X145.605 Y119.957 E2.55235
G1 X146.355 Y120.873 E2.58523
G1 X146.892 Y121.886 E2.61711
G1 X147.220 Y122.966 E2.64844
G1 X147.333 Y124.078 E2.67948
G1 X147.240 Y125.126 E2.70871
G1 X147.544 Y125.472 F8100.000
G1 X147.460 Y125.254 F8100.000
G1 X147.140 Y126.354 E2.74053 F2100.000
G1 X146.592 Y127.407 E2.77349
G1 X145.820 Y128.354 E2.80743
G1 X144.873 Y129.126 E2.84138
G1 X143.819 Y129.676 E2.87439
G1 X142.696 Y130.004 E2.90690
G1 X141.537 Y130.109 E2.93922
G1 X140.379 Y129.993 E2.97155
G1 X139.253 Y129.656 E3.00420
G1 X138.196 Y129.097 E3.03739
G1 X137.244 Y128.318 E3.07159
G1 X136.465 Y127.366 E3.10576
G1 X135.907 Y126.310 E3.13893
G1 X135.572 Y125.186 E3.17151
G1 X135.458 Y124.029 E3.20379
G1 X135.567 Y122.873 E3.23604
G1 X135.896 Y121.752 E3.26851
G1 X136.447 Y120.700 E3.30150
G1 X137.220 Y119.754 E3.33544
G1 X138.166 Y118.981 E3.36936
G1 X139.217 Y118.432 E3.40230
G1 X140.337 Y118.103 E3.43473
G1 X141.423 Y118.004 E3.46503 F2100.000
G1 X142.643 Y118.113 E3.49906
G1 X143.767 Y118.452 E3.53164
G1 X144.821 Y119.011 E3.56479
G1 X145.772 Y119.790 E3.59894
G1 X146.552 Y120.741 E3.63312
G1 X147.111 Y121.796 E3.66629
G1 X147.452 Y122.919 E3.69888
G1 X147.570 Y124.076 E3.73119
G1 X147.470 Y125.192 E3.76231
G1 E2.76231 F2400.00000
G92 E0
G1 X137.826 Y118.466 F8100.000
G1 X133.628 Y113.323 F8100.000
G1 X132.676 Y114.276 F8100.000
G1 X127.635 Y110.168 F8100.000
G1 X127.499 Y108.989 F8100.000
G1 E1.00000 F2400.00000
G1 X127.030 Y109.564 E1.02060 F2100.000
G1 X126.120 Y110.306 E1.05322
G1 X125.109 Y110.834 E1.08492
G1 X124.029 Y111.149 E1.11615
G1 X122.916 Y111.250 E1.14721
G1 X121.803 Y111.139 E1.17829
G1 X120.721 Y110.815 E1.20965
G1 X119.705 Y110.278 E1.24158
G1 X118.789 Y109.528 E1.27446
G1 X118.040 Y108.613 E1.30731
G1 X117.504 Y107.598 E1.33919
G1 X117.182 Y106.518 E1.37050
G1 X117.072 Y105.406 E1.40152
G1 X117.177 Y104.296 E1.43251
G1 X117.493 Y103.218 E1.46370
G1 X118.023 Y102.209 E1.49537
G1 X118.765 Y101.299 E1.52799
G1 X119.675 Y100.558 E1.56058
G1 X120.683 Y100.029 E1.59220
G1 X121.759 Y99.714 E1.62335
G1 X122.801 Y99.618 E1.65243 F2100.000
G1 X123.976 Y99.723 E1.68519
G1 X125.054 Y100.048 E1.71647
G1 X126.067 Y100.585 E1.74832
G1 X126.982 Y101.335 E1.78117
G1 X127.732 Y102.250 E1.81405
G1 X128.271 Y103.265 E1.84595
G1 X128.597 Y104.343 E1.87726
G1 X128.711 Y105.455 E1.90830
G1 X128.612 Y106.566 E1.93928
G1 X128.299 Y107.644 E1.97047
G1 X127.772 Y108.654 E2.00211
G1 X127.539 Y108.940 E2.01235
G1 X127.648 Y109.381 F8100.000
G1 X127.681 Y109.138 F8100.000
G1 X127.198 Y109.731 E2.03362 F2100.000
G1 X126.250 Y110.503 E2.06758
G1 X125.197 Y111.054 E2.10058
G1 X124.073 Y111.381 E2.13310
G1 X122.915 Y111.487 E2.16542
G1 X121.757 Y111.371 E2.19775
G1 X120.631 Y111.034 E2.23038
G1 X119.574 Y110.475 E2.26360
G1 X118.621 Y109.696 E2.29779
G1 X117.843 Y108.744 E2.33196
G1 X117.285 Y107.687 E2.36514
G1 X116.950 Y106.563 E2.39772
G1 X116.836 Y105.407 E2.43000
G1 X116.944 Y104.251 E2.46225
G1 X117.274 Y103.129 E2.49472
G1 X117.826 Y102.078 E2.52770
G1 X118.598 Y101.131 E2.56164
G1 X119.544 Y100.360 E2.59556
G1 X120.594 Y99.809 E2.62849
G1 X121.715 Y99.481 E2.66092
G1 X122.801 Y99.381 E2.69123 F2100.000
G1 X124.021 Y99.490 E2.72525
G1 X125.144 Y99.829 E2.75784
G1 X126.199 Y100.388 E2.79098
G1 X127.150 Y101.167 E2.82514
G1 X127.929 Y102.119 E2.85931
G1 X128.490 Y103.175 E2.89251
G1 X128.829 Y104.297 E2.92508
G1 X128.947 Y105.454 E2.95738
G1 X128.845 Y106.610 E2.98962
G1 X128.519 Y107.733 E3.02210
G1 X127.969 Y108.784 E3.05506
G1 X127.721 Y109.089 E3.06596
G1 E2.06596 F2400.00000
G92 E0
G1 X120.363 Y99.237 F8100.000
