; generated by Slic3r 1.2.9 on 2016-08-20 at 10:01:49

; external perimeters extrusion width = 0.42mm
; perimeters extrusion width = 0.53mm
; infill extrusion width = 0.53mm
; solid infill extrusion width = 0.53mm
; top infill extrusion width = 0.53mm

M104 S245 ; set temperature
M220 S100 ; reset speeds
M116 ; wait for all temperatures
G0 Z10 ; drive Z to 10mm height
G28 X0 Y0 ; home X and Y
G0 Z0 X30 Y30 F13000
M109 S245 ; wait for temperature to be reached
G21 ; set units to millimeters
G90 ; use absolute coordinates
M82 ; use absolute distances for extrusion
G92 E0
G1 E-1.00000 F2400.00000
G92 E0
G1 Z0.300 F8100.000
G1 X16.590 Y17.112 F8100.000
G1 E1.00000 F2400.00000
G1 X17.037 Y16.698 E1.01693 F2310.000
G1 X17.350 Y16.446 E1.02808
G1 X17.796 Y16.129 E1.04326
G1 X18.382 Y15.765 E1.06244
G1 X18.997 Y15.435 E1.08181
G1 X21.008 Y14.957 E1.13924
G1 X43.521 Y14.957 E1.76459
G1 X45.526 Y15.432 E1.82184
G1 X46.151 Y15.767 E1.84153 F2310.000
G1 X46.736 Y16.131 E1.86067
G1 X47.179 Y16.446 E1.87576
G1 X47.843 Y17.014 E1.90003
G1 X163.103 Y132.026 E6.42303
G1 X163.680 Y132.701 E6.44767
G1 X163.990 Y133.138 E6.46256
G1 X164.356 Y133.723 E6.48171
G1 X164.697 Y134.363 E6.50188
G1 X165.166 Y136.356 E6.55877
G1 X165.166 Y158.868 E7.18410
G1 X164.694 Y160.868 E7.24117
G1 X164.561 Y161.134 E7.24943
G1 X163.991 Y162.086 E7.28027
G1 X163.680 Y162.523 E7.29517
G1 X163.428 Y162.836 E7.30633
G1 X163.020 Y163.279 E7.32305
G1 X162.711 Y163.570 E7.33484
G1 X161.965 Y164.134 E7.36082
G1 X161.645 Y164.327 E7.37120
G1 X160.264 Y164.872 E7.41244
G1 X159.920 Y164.945 E7.42220
G1 X158.992 Y165.043 E7.44813
G1 X147.814 Y165.043 E7.75863
G1 X147.384 Y165.022 E7.77058
G1 X146.666 Y164.935 E7.79067
G1 X146.039 Y164.817 E7.80840
G1 X145.285 Y164.618 E7.83006
G1 X144.451 Y164.277 E7.85509
G1 X144.154 Y164.119 E7.86443
G1 X143.439 Y163.645 E7.88825
G1 X143.170 Y163.427 E7.89788
G1 X142.823 Y163.115 E7.91083
G1 X16.720 Y37.011 E12.86464
G1 X16.304 Y36.545 E12.88200
G1 X15.889 Y35.973 E12.90164
G1 X15.751 Y35.747 E12.90898
G1 X15.321 Y34.815 E12.93749
G1 X15.013 Y33.806 E12.96682
G1 X14.878 Y33.043 E12.98834
G1 X14.834 Y32.350 E13.00761
G1 X14.834 Y21.132 E13.31924
G1 X14.932 Y20.200 E13.34527
G1 X15.005 Y19.856 E13.35503
G1 X15.550 Y18.477 E13.39622
G1 X15.744 Y18.157 E13.40661
G1 X16.318 Y17.401 E13.43298
G1 X16.547 Y17.158 E13.44227
G1 X16.762 Y17.273 F8100.000
G1 X17.185 Y16.881 E13.45831 F2310.000
G1 X17.498 Y16.629 E13.46946
G1 X17.920 Y16.330 E13.48384
G1 X18.507 Y15.965 E13.50302
G1 X19.103 Y15.646 E13.52180
G1 X21.008 Y15.193 E13.57621
G1 X43.521 Y15.193 E14.20156
G1 X45.420 Y15.643 E14.25578
G1 X46.026 Y15.967 E14.27488 F2310.000
G1 X46.611 Y16.331 E14.29402
G1 X47.031 Y16.629 E14.30831
G1 X47.677 Y17.180 E14.33189
G1 X162.937 Y132.193 E18.85489
G1 X163.496 Y132.848 E18.87882
G1 X163.791 Y133.262 E18.89293
G1 X164.156 Y133.847 E18.91208
G1 X164.486 Y134.468 E18.93162
G1 X164.931 Y136.356 E18.98551
G1 X164.931 Y158.868 E19.61084
G1 X164.484 Y160.763 E19.66490
G1 X164.351 Y161.029 E19.67317
G1 X163.791 Y161.962 E19.70339
G1 X163.496 Y162.376 E19.71750
G1 X163.244 Y162.689 E19.72866
G1 X162.858 Y163.108 E19.74450
G1 X162.550 Y163.398 E19.75625
G1 X161.844 Y163.933 E19.78086
G1 X161.524 Y164.126 E19.79124
G1 X160.215 Y164.642 E19.83031
G1 X159.871 Y164.715 E19.84008
G1 X158.992 Y164.807 E19.86463
G1 X147.814 Y164.807 E20.17513
G1 X147.407 Y164.787 E20.18645
G1 X146.710 Y164.703 E20.20596
G1 X146.083 Y164.585 E20.22368
G1 X145.352 Y164.392 E20.24469
G1 X144.562 Y164.069 E20.26839
G1 X144.265 Y163.911 E20.27774
G1 X143.587 Y163.462 E20.30031
G1 X143.318 Y163.244 E20.30993
G1 X142.990 Y162.948 E20.32220
G1 X16.887 Y36.845 E25.27601
G1 X16.484 Y36.392 E25.29285
G1 X16.090 Y35.850 E25.31146
G1 X15.953 Y35.624 E25.31880
G1 X15.544 Y34.742 E25.34581
G1 X15.240 Y33.745 E25.37477
G1 X15.112 Y33.022 E25.39516
G1 X15.069 Y32.350 E25.41385
G1 X15.069 Y21.132 E25.72548
G1 X15.162 Y20.249 E25.75013
G1 X15.236 Y19.905 E25.75990
G1 X15.752 Y18.599 E25.79891
G1 X15.945 Y18.279 E25.80931
G1 X16.489 Y17.563 E25.83429
G1 X16.718 Y17.319 E25.84357
G1 X19.415 Y19.774 F8100.000
G1 X19.830 Y19.436 E25.85845 F2310.000
G1 X20.443 Y19.055 E25.87848
G1 X20.805 Y18.871 E25.88976
G1 X20.939 Y18.840 E25.89359
G1 X43.590 Y18.840 E26.52277
G1 X43.723 Y18.871 E26.52659
G1 X44.087 Y19.055 E26.53792 F2310.000
G1 X44.699 Y19.436 E26.55793
G1 X45.070 Y19.733 E26.57113
G1 X45.407 Y20.086 E26.58471
G1 X45.680 Y20.525 E26.59905
G1 X45.717 Y20.617 E26.60181
G1 X45.813 Y21.101 E26.61551
G1 X45.813 Y23.740 E26.68883
G1 X45.849 Y23.827 E26.69143
G1 X156.049 Y134.029 E31.02054
G1 X156.136 Y134.064 E31.02314
G1 X159.083 Y134.071 E31.10501
G1 X159.505 Y134.159 E31.11699
G1 X159.598 Y134.195 E31.11975
G1 X160.037 Y134.468 E31.13412
G1 X160.392 Y134.807 E31.14773
G1 X160.688 Y135.178 E31.16092
G1 X161.069 Y135.789 E31.18094
G1 X161.253 Y136.155 E31.19231
G1 X161.284 Y136.288 E31.19610
G1 X161.284 Y158.937 E31.82524
G1 X161.253 Y159.071 E31.82905
G1 X161.083 Y159.410 E31.83960
G1 X160.688 Y160.046 E31.86040
G1 X160.391 Y160.417 E31.87359
G1 X160.036 Y160.757 E31.88724
G1 X159.598 Y161.028 E31.90155
G1 X159.507 Y161.064 E31.90429
G1 X159.023 Y161.160 E31.91798
G1 X147.800 Y161.160 E32.22973
G1 X147.409 Y161.124 E32.24063
G1 X147.071 Y161.034 E32.25037
G1 X146.782 Y161.006 E32.25842
G1 X146.356 Y160.886 E32.27072
G1 X145.952 Y160.678 E32.28333
G1 X145.602 Y160.401 E32.29573
G1 X19.457 Y34.258 E37.25114
G1 X19.215 Y33.969 E37.26161
G1 X19.019 Y33.633 E37.27242
G1 X18.756 Y32.775 E37.29735
G1 X18.716 Y32.363 E37.30884
G1 X18.716 Y21.101 E37.62169
G1 X18.812 Y20.617 E37.63539
G1 X18.848 Y20.526 E37.63812
G1 X19.083 Y20.136 E37.65075
G1 X19.372 Y19.820 E37.66265
G1 X19.587 Y19.936 F8100.000
G1 X19.961 Y19.632 E37.67603 F2310.000
G1 X20.576 Y19.250 E37.69615
G1 X20.886 Y19.094 E37.70578
G1 X20.967 Y19.075 E37.70809
G1 X43.562 Y19.075 E38.33574
G1 X43.642 Y19.094 E38.33803 F2310.000
G1 X43.967 Y19.258 E38.34814
G1 X44.568 Y19.632 E38.36780
G1 X44.916 Y19.911 E38.38018
G1 X45.227 Y20.239 E38.39274
G1 X45.468 Y20.630 E38.40550
G1 X45.577 Y21.113 E38.41926
G1 X45.577 Y23.838 E38.49495
G1 X45.613 Y23.925 E38.49755
G1 X155.952 Y134.264 E42.83208
G1 X156.038 Y134.300 E42.83468
G1 X159.047 Y134.304 E42.91825
G1 X159.493 Y134.407 E42.93098
G1 X159.885 Y134.648 E42.94375
G1 X160.213 Y134.961 E42.95634
G1 X160.491 Y135.308 E42.96872
G1 X160.866 Y135.909 E42.98839
G1 X161.030 Y136.236 E42.99852
G1 X161.049 Y136.315 E43.00080
G1 X161.049 Y158.910 E43.62842
G1 X161.030 Y158.990 E43.63071
G1 X160.875 Y159.300 E43.64034
G1 X160.491 Y159.916 E43.66048
G1 X160.213 Y160.263 E43.67286
G1 X159.884 Y160.576 E43.68547
G1 X159.493 Y160.816 E43.69821
G1 X159.011 Y160.925 E43.71195
G1 X147.806 Y160.925 E44.02320
G1 X147.443 Y160.891 E44.03332
G1 X147.115 Y160.801 E44.04277
G1 X146.816 Y160.773 E44.05111
G1 X146.434 Y160.663 E44.06214
G1 X146.073 Y160.475 E44.07344
G1 X145.742 Y160.210 E44.08524
G1 X19.627 Y34.094 E49.03950
G1 X19.411 Y33.839 E49.04881
G1 X19.238 Y33.547 E49.05823
G1 X18.986 Y32.724 E49.08213
G1 X18.951 Y32.358 E49.09234
G1 X18.951 Y21.113 E49.40470
G1 X19.060 Y20.631 E49.41845
G1 X19.279 Y20.269 E49.43018
G1 X19.544 Y19.982 E49.44103
G1 X19.758 Y20.098 F8100.000
G1 X20.091 Y19.828 E49.45292 F2310.000
G1 X20.682 Y19.461 E49.47226
G1 X20.994 Y19.311 E49.48187
G1 X43.561 Y19.317 E50.10874
G1 X43.847 Y19.461 E50.11763 F2310.000
G1 X44.438 Y19.829 E50.13695
G1 X44.762 Y20.089 E50.14851
G1 X45.055 Y20.401 E50.16040
G1 X45.264 Y20.754 E50.17178
G1 X45.342 Y21.126 E50.18233
G1 X45.342 Y23.936 E50.26038
G1 X45.377 Y24.022 E50.26298
G1 X155.854 Y134.500 E54.60293
G1 X155.941 Y134.536 E54.60554
G1 X159.010 Y134.537 E54.69081
G1 X159.388 Y134.619 E54.70156
G1 X159.732 Y134.828 E54.71274
G1 X160.034 Y135.114 E54.72429
G1 X160.295 Y135.439 E54.73586
G1 X160.664 Y136.029 E54.75519
G1 X160.813 Y136.343 E54.76483
G1 X160.813 Y158.882 E55.39092
G1 X160.664 Y159.194 E55.40054
G1 X160.291 Y159.791 E55.42007
G1 X160.029 Y160.115 E55.43166
G1 X159.732 Y160.396 E55.44300
G1 X159.389 Y160.604 E55.45417
G1 X158.998 Y160.689 E55.46526
G1 X147.811 Y160.689 E55.77601
G1 X147.476 Y160.657 E55.78536
G1 X147.159 Y160.569 E55.79451
G1 X146.849 Y160.539 E55.80315
G1 X146.512 Y160.441 E55.81291
G1 X146.194 Y160.273 E55.82291
G1 X145.904 Y160.039 E55.83325
G1 X19.797 Y33.931 E60.78721
G1 X19.607 Y33.708 E60.79536
G1 X19.458 Y33.460 E60.80339
G1 X19.216 Y32.673 E60.82627
G1 X19.187 Y32.353 E60.83519
G1 X19.187 Y21.126 E61.14706
G1 X19.272 Y20.735 E61.15815
G1 X19.474 Y20.401 E61.16899
G1 X19.715 Y20.143 E61.17880
G1 E60.17880 F2400.00000
G92 E0
G1 X32.417 Y46.172 F8100.000
G1 E1.00000 F2400.00000
G1 X19.992 Y33.748 E1.48809 F1470.000
G1 X19.827 Y33.554 E1.49516
G1 X19.705 Y33.355 E1.50164
G1 X19.479 Y32.618 E1.52304
G1 X19.455 Y32.344 E1.53070
G1 X19.455 Y21.148 E1.84171
G1 X19.520 Y20.844 E1.85033
G1 X19.692 Y20.559 E1.85958
G1 X19.946 Y20.289 E1.86988
G1 X20.243 Y20.049 E1.88049
G1 X20.816 Y19.693 E1.89922
G1 X21.044 Y19.579 E1.90630
G1 X43.501 Y19.587 E2.53012
G1 X43.714 Y19.693 E2.53673 F1470.000
G1 X44.285 Y20.049 E2.55543
G1 X44.583 Y20.289 E2.56604
G1 X44.837 Y20.559 E2.57635
G1 X45.009 Y20.844 E2.58559
G1 X45.074 Y21.148 E2.59422
G1 X45.074 Y24.097 E2.67615
G1 X155.779 Y134.803 E7.02508
G1 X158.977 Y134.803 E7.11391
G1 X159.280 Y134.867 E7.12253
G1 X159.565 Y135.039 E7.13175
G1 X159.835 Y135.293 E7.14207
G1 X160.075 Y135.591 E7.15269
G1 X160.431 Y136.163 E7.17140
G1 X160.545 Y136.392 E7.17850
G1 X160.545 Y158.833 E7.80187
G1 X160.431 Y159.061 E7.80895
G1 X160.075 Y159.632 E7.82766
G1 X159.835 Y159.930 E7.83829
G1 X159.565 Y160.185 E7.84860
G1 X159.280 Y160.357 E7.85783
G1 X158.976 Y160.421 E7.86646
G1 X147.821 Y160.421 E8.17632
G1 X147.521 Y160.392 E8.18469
G1 X147.220 Y160.305 E8.19340
G1 X146.895 Y160.274 E8.20248
G1 X146.608 Y160.190 E8.21078
G1 X146.337 Y160.046 E8.21931
G1 X146.086 Y159.842 E8.22830
G1 X32.462 Y46.217 E12.69190
G1 X32.526 Y45.767 F8100.000
G1 X32.584 Y46.006 F8100.000
G1 X20.165 Y33.588 E13.17973 F2100.000
G1 X20.018 Y33.415 E13.18602
G1 X19.922 Y33.257 E13.19116
G1 X19.712 Y32.573 E13.21105
G1 X19.690 Y32.333 E13.21773
G1 X19.690 Y21.172 E13.52776
G1 X19.742 Y20.932 E13.53459
G1 X19.880 Y20.702 E13.54204
G1 X20.106 Y20.462 E13.55120
G1 X20.380 Y20.242 E13.56096
G1 X20.931 Y19.899 E13.57899
G1 X21.100 Y19.814 E13.58422
G1 X43.445 Y19.822 E14.20494
G1 X44.148 Y20.242 E14.22768 F2100.000
G1 X44.422 Y20.462 E14.23745
G1 X44.648 Y20.702 E14.24661
G1 X44.787 Y20.932 E14.25406
G1 X44.838 Y21.172 E14.26089
G1 X44.838 Y24.195 E14.34484
G1 X155.681 Y135.039 E18.69920
G1 X158.952 Y135.039 E18.79005
G1 X159.193 Y135.089 E18.79689
G1 X159.421 Y135.227 E18.80430
G1 X159.661 Y135.454 E18.81346
G1 X159.882 Y135.728 E18.82325
G1 X160.225 Y136.278 E18.84125
G1 X160.309 Y136.447 E18.84650
G1 X160.309 Y158.777 E19.46678
G1 X160.225 Y158.946 E19.47201
G1 X159.882 Y159.496 E19.49002
G1 X159.661 Y159.770 E19.49981
G1 X159.421 Y159.997 E19.50897
G1 X159.193 Y160.135 E19.51639
G1 X158.952 Y160.186 E19.52323
G1 X147.833 Y160.186 E19.83209
G1 X147.566 Y160.160 E19.83954
G1 X147.265 Y160.073 E19.84825
G1 X146.940 Y160.042 E19.85732
G1 X146.698 Y159.971 E19.86432
G1 X146.468 Y159.848 E19.87155
G1 X146.244 Y159.667 E19.87958
G1 X32.628 Y46.050 E24.34283
G1 X26.547 Y29.653 F8100.000
G1 X26.329 Y29.749 E24.34943 F2100.000
G1 X24.363 Y29.749 E24.40407
G1 X24.144 Y29.653 E24.41070
G1 X23.985 Y29.419 E24.41856
G1 X23.891 Y29.116 E24.42737
G1 X23.858 Y28.761 E24.43728
G1 X23.891 Y28.404 E24.44723
G1 X23.985 Y28.102 E24.45602
G1 X24.144 Y27.869 E24.46384
G1 X24.362 Y27.773 E24.47048
G1 X26.330 Y27.773 E24.52514
G1 X26.547 Y27.869 E24.53175
G1 X26.706 Y28.102 E24.53957
G1 X26.799 Y28.404 E24.54836
G1 X26.832 Y28.761 E24.55830
G1 X26.799 Y29.116 E24.56822
G1 X26.706 Y29.419 E24.57702
G1 X26.583 Y29.601 E24.58314
G1 X26.565 Y29.890 F8100.000
G1 X26.704 Y29.842 F8100.000
G1 X26.379 Y29.984 E24.59300 F2100.000
G1 X24.314 Y29.984 E24.65036
G1 X23.987 Y29.842 E24.66025
G1 X23.770 Y29.522 E24.67100
G1 X23.659 Y29.162 E24.68146
G1 X23.622 Y28.761 E24.69266
G1 X23.659 Y28.358 E24.70389
G1 X23.770 Y27.998 E24.71435
G1 X23.987 Y27.681 E24.72503
G1 X24.312 Y27.537 E24.73491
G1 X26.380 Y27.537 E24.79234
G1 X26.704 Y27.681 E24.80220
G1 X26.921 Y27.998 E24.81287
G1 X27.032 Y28.358 E24.82332
G1 X27.069 Y28.761 E24.83456
G1 X27.032 Y29.162 E24.84576
G1 X26.921 Y29.522 E24.85622
G1 X26.739 Y29.790 E24.86520
G1 X37.863 Y29.653 F8100.000
G1 X37.704 Y29.419 E24.87307 F2100.000
G1 X37.611 Y29.116 E24.88187
G1 X37.578 Y28.761 E24.89179
G1 X37.611 Y28.404 E24.90173
G1 X37.704 Y28.102 E24.91052
G1 X37.863 Y27.869 E24.91834
G1 X38.081 Y27.773 E24.92495
G1 X40.048 Y27.773 E24.97961
G1 X40.267 Y27.869 E24.98625
G1 X40.426 Y28.102 E24.99407
G1 X40.519 Y28.404 E25.00286
G1 X40.552 Y28.761 E25.01280
G1 X40.519 Y29.116 E25.02272
G1 X40.426 Y29.419 E25.03153
G1 X40.267 Y29.653 E25.03939
G1 X40.048 Y29.749 E25.04602
G1 X38.081 Y29.749 E25.10066
G1 X37.921 Y29.678 E25.10551
G1 X37.590 Y29.726 F8100.000
G1 X37.707 Y29.842 F8100.000
G1 X37.489 Y29.522 E25.11625 F2100.000
G1 X37.379 Y29.162 E25.12671
G1 X37.341 Y28.761 E25.13791
G1 X37.379 Y28.358 E25.14914
G1 X37.490 Y27.998 E25.15959
G1 X37.706 Y27.681 E25.17027
G1 X38.031 Y27.537 E25.18012
G1 X40.098 Y27.537 E25.23755
G1 X40.424 Y27.681 E25.24744
G1 X40.640 Y27.998 E25.25812
G1 X40.752 Y28.358 E25.26857
G1 X40.789 Y28.761 E25.27980
G1 X40.752 Y29.162 E25.29100
G1 X40.641 Y29.522 E25.30147
G1 X40.423 Y29.842 E25.31221
G1 X40.097 Y29.984 E25.32210
G1 X38.032 Y29.984 E25.37947
G1 X37.764 Y29.867 E25.38758
G1 X52.121 Y47.832 F8100.000
G1 X52.565 Y47.594 E25.40156 F2100.000
G1 X53.047 Y47.448 E25.41556
G1 X53.524 Y47.401 E25.42887 F2100.000
G1 X54.071 Y47.450 E25.44415
G1 X54.557 Y47.600 E25.45827
G1 X54.995 Y47.839 E25.47212
G1 X55.376 Y48.154 E25.48587
G1 X55.691 Y48.536 E25.49961
G1 X55.930 Y48.974 E25.51347
G1 X56.080 Y49.458 E25.52755
G1 X56.132 Y49.977 E25.54204
G1 X56.083 Y50.483 E25.55618
G1 X55.936 Y50.965 E25.57015
G1 X55.699 Y51.410 E25.58416
G1 X55.377 Y51.803 E25.59826
G1 X54.984 Y52.124 E25.61237
G1 X54.540 Y52.362 E25.62636
G1 X54.058 Y52.508 E25.64036
G1 X53.553 Y52.558 E25.65445
G1 X53.047 Y52.508 E25.66858
G1 X52.565 Y52.362 E25.68258
G1 X52.121 Y52.125 E25.69655
G1 X51.728 Y51.803 E25.71067
G1 X51.405 Y51.410 E25.72480
G1 X51.169 Y50.966 E25.73877
G1 X51.022 Y50.484 E25.75277
G1 X50.971 Y49.977 E25.76690
G1 X51.022 Y49.472 E25.78100
G1 X51.169 Y48.990 E25.79500
G1 X51.406 Y48.546 E25.80898
G1 X51.728 Y48.153 E25.82309
G1 X52.072 Y47.871 E25.83544
G1 X52.107 Y47.412 F8100.000
G1 X51.971 Y47.649 F8100.000
G1 X52.474 Y47.375 E25.85134 F2100.000
G1 X53.001 Y47.216 E25.86663
G1 X53.522 Y47.164 E25.88119 F2100.000
G1 X54.117 Y47.217 E25.89778
G1 X54.649 Y47.382 E25.91325
G1 X55.127 Y47.643 E25.92838
G1 X55.544 Y47.987 E25.94338
G1 X55.887 Y48.403 E25.95838
G1 X56.148 Y48.882 E25.97352
G1 X56.312 Y49.411 E25.98891
G1 X56.369 Y49.977 E26.00470
G1 X56.315 Y50.530 E26.02014
G1 X56.155 Y51.055 E26.03540
G1 X55.896 Y51.541 E26.05069
G1 X55.545 Y51.970 E26.06609
G1 X55.116 Y52.321 E26.08149
G1 X54.631 Y52.580 E26.09676
G1 X54.104 Y52.740 E26.11205
G1 X53.553 Y52.795 E26.12744
G1 X53.001 Y52.740 E26.14285
G1 X52.474 Y52.581 E26.15813
G1 X51.989 Y52.322 E26.17340
G1 X51.560 Y51.970 E26.18881
G1 X51.208 Y51.541 E26.20423
G1 X50.950 Y51.056 E26.21950
G1 X50.790 Y50.530 E26.23477
G1 X50.735 Y49.977 E26.25020
G1 X50.790 Y49.426 E26.26559
G1 X50.950 Y48.899 E26.28087
G1 X51.209 Y48.415 E26.29614
G1 X51.560 Y47.986 E26.31154
G1 X51.923 Y47.689 E26.32455
G1 E25.32455 F2400.00000
G92 E0
G1 X55.981 Y52.407 F8100.000
G1 X64.081 Y60.471 F8100.000
G1 X66.575 Y68.196 F8100.000
G1 X72.041 Y73.663 F8100.000
G1 X75.612 Y71.294 F8100.000
G1 E1.00000 F2400.00000
G1 X78.258 Y68.649 E1.10392 F1470.000
G1 X78.543 Y68.416 E1.11414
G1 X78.865 Y68.246 E1.12426
G1 X79.209 Y68.144 E1.13422
G1 X79.542 Y68.112 E1.14353 F1470.000
G1 X79.915 Y68.144 E1.15392
G1 X80.259 Y68.246 E1.16389
G1 X80.582 Y68.416 E1.17404
G1 X80.868 Y68.649 E1.18427
